; Generated with MatterSlice 2.22.04
; filamentDiameter = 1.75
; extrusionWidth = 0.5
; firstLayerExtrusionWidth = 0.65
; layerThickness = 0.3
; firstLayerThickness = 0.3
; automatic settings before start_gcode
G21 ; set units to millimeters
M107 ; fan off
M140 S60 ; start heating the bed
M104 T0 S210 ; start heating T0
M109 T0 S210 ; wait for T0
T0 ; set the active extruder to 0
; settings from start_gcode
G28
; automatic settings after start_gcode
M190 S60 ; wait for bed temperature to be reached
M109 T0 S210 ; Finish heating T0
T0 ; set the active extruder to 0
G90 ; use absolute coordinates
G92 E0 ; reset the expected extruder position
M82 ; use absolute distance for extrusion
; Layer count: 165
; Layer Change GCode
; LAYER:0
; LAYER_HEIGHT:0.3
; TYPE:FILL
M400
M107
G1 X0.19 Y-0.19 Z0.8 F12000
G1 X-4 Y-7.31
G1 X-4.37 Y-28.37
; TYPE:SKIRT
G1 Z0.3
G1 F6000
G1 X-1.76 Y-26.53 E0.259 F900
G1 X-0.7 Y-24.26 E0.462
G1 X-0.46 Y-23.58 E0.52
G1 X-0.07 Y-22.47 E0.615
G1 X8.19 Y2.63 E2.757
G1 X8.7 Y6.32 E3.059
G1 X7.98 Y9.98 E3.362
G1 X7.48 Y11.69 E3.507
G1 X5.35 Y14.63 E3.801
G1 X-1.13 Y21.3 E4.555
G1 X-3.09 Y22.6 E4.745
G1 X-5.9 Y23.5 E4.985
G1 X-8.99 Y23.34 E5.235
G1 X-13.34 Y22.15 E5.601
G1 X-16.36 Y18.38 E5.993
G1 X-21.29 Y10.15 E6.77
G1 X-22.05 Y8.22 E6.938
G1 X-22.44 Y4.46 E7.244
G1 X-12.91 Y-22.94 E9.596
G1 X-12.27 Y-24.47 E9.731
G1 X-10.93 Y-26.92 E9.957
G1 X-8.6 Y-28.24 E10.174
G1 X-6.99 Y-28.56 E10.307
G1 X-4.37 Y-28.37 E10.521
G1 X-4.59 Y-27.73 F12000
G1 X-2.28 Y-26.1 E10.751 F900
G1 X-1.3 Y-24.01 E10.937
G1 X-1.07 Y-23.36 E10.993
G1 X-0.69 Y-22.26 E11.088
G1 X7.55 Y2.77 E13.224
G1 X8.04 Y6.3 E13.513
G1 X7.35 Y9.83 E13.804
G1 X6.89 Y11.4 E13.937
G1 X4.85 Y14.21 E14.218
G1 X-1.55 Y20.8 E14.963
G1 X-3.38 Y22.01 E15.141
G1 X-5.99 Y22.85 E15.363
G1 X-8.89 Y22.69 E15.598
G1 X-12.96 Y21.58 E15.941
G1 X-15.82 Y18 E16.312
G1 X-20.71 Y9.86 E17.082
G1 X-21.41 Y8.06 E17.239
G1 X-21.77 Y4.54 E17.526
G1 X-12.3 Y-22.7 E19.864
G1 X-11.69 Y-24.19 E19.995
G1 X-10.45 Y-26.45 E20.203
G1 X-8.37 Y-27.62 E20.396
G1 X-6.95 Y-27.91 E20.514
G1 X-4.59 Y-27.73 E20.706
G1 E18.206 F6000
G1 Z0.8
G1 X-6.15 Y-1.88 F12000
G1 X-4.23 Y-0.32
; TYPE:WALL-INNER
G1 Z0.3
G1 E20.706 F6000
G1 X-3.28 Y-0.2 E20.784 F900
G1 X-2.5 Y0.44 E20.865
G1 X-1.66 Y1.77 E20.993
G1 X-1.72 Y2.01 E21.013
G1 X-1.56 Y2.17 E21.031
G1 X-1.68 Y3.63 E21.15
G1 X-1.41 Y4.32 E21.21
G1 X-1.87 Y5.18 E21.289
G1 X-1.92 Y6.65 E21.409
G1 X-1.93 Y7 E21.437
G1 X-2.26 Y7.7 E21.499
G1 X-2.34 Y7.98 E21.524
G1 X-2.89 Y8.47 E21.583
G1 X-3.58 Y9.14 E21.661
G1 X-4.14 Y9.51 E21.715
G1 X-5.27 Y10.17 E21.821
G1 X-5.96 Y10.38 E21.88
G1 X-7.34 Y10.7 E21.995
G1 X-7.47 Y10.72 E22.006
G1 X-9.41 Y10.08 E22.171
G1 X-10.05 Y9.83 E22.227
G1 X-10.39 Y9.63 E22.259
G1 X-10.54 Y9.5 E22.275
G1 X-11.57 Y8.59 E22.386
G1 X-11.9 Y8.23 E22.425
G1 X-12.56 Y7.1 E22.532
G1 X-12.8 Y6.65 E22.573
G1 X-13.27 Y5.56 E22.669
G1 X-13.31 Y5.31 E22.689
G1 X-13.37 Y5.08 E22.709
G1 X-13.27 Y3.27 E22.856
G1 X-12.79 Y1.87 E22.976
G1 X-12.3 Y1.02 E23.055
G1 X-11.85 Y0.77 E23.098
G1 X-11.67 Y0.23 E23.144
G1 X-11.46 Y0.02 E23.168
G1 X-10.93 Y-0.42 E23.223
G1 X-9.86 Y-1.18 E23.33
G1 X-8.25 Y-1.47 E23.463
G1 X-7.95 Y-1.54 E23.488
G1 X-6.63 Y-1.75 E23.596
G1 X-6.5 Y-1.75 E23.606
G1 X-6.42 Y-1.74 E23.613
G1 X-5.2 Y-1.12 E23.724
G1 X-4.28 Y-0.36 E23.821
G1 X-4.23 Y-0.32
G1 X-3.69 Y-1.56 F12000
; TYPE:WALL-OUTER
G1 X-2.75 Y-1.44 E23.898 F900
G1 X-1.51 Y-0.44 E24.027
G1 X-0.25 Y1.57 E24.219
G1 X-0.27 Y1.64 E24.225
G1 X-0.22 Y1.69 E24.231
G1 X-0.36 Y3.43 E24.373
G1 X-0.09 Y4.1 E24.431
G1 X-0.06 Y4.57 E24.469
G1 X-0.58 Y5.53 E24.557
G1 X-0.62 Y6.68 E24.651
G1 X-0.63 Y7.3 E24.701
G1 X-1.04 Y8.17 E24.779
G1 X-1.21 Y8.71 E24.825
G1 X-2.01 Y9.43 E24.912
G1 X-2.76 Y10.15 E24.997
G1 X-3.44 Y10.61 E25.063
G1 X-4.75 Y11.37 E25.186
G1 X-5.62 Y11.63 E25.26
G1 X-7.09 Y11.97 E25.382
G1 X-7.49 Y12.04 E25.415
G1 X-7.73 Y12 E25.435
G1 X-9.87 Y11.3 E25.617
G1 X-10.62 Y11 E25.683
G1 X-11.14 Y10.69 E25.731
G1 X-11.39 Y10.48 E25.758
G1 X-12.48 Y9.52 E25.876
G1 X-12.95 Y9 E25.933
G1 X-13.7 Y7.73 E26.053
G1 X-13.97 Y7.22 E26.099
G1 X-14.54 Y5.91 E26.215
G1 X-14.58 Y5.56 E26.243
G1 X-14.68 Y5.21 E26.273
G1 X-14.56 Y3.01 E26.451
G1 X-13.98 Y1.34 E26.595
G1 X-13.25 Y0.05 E26.715
G1 X-12.92 Y-0.12 E26.745
G1 X-12.81 Y-0.47 E26.774
G1 X-12.34 Y-0.95 E26.829
G1 X-11.73 Y-1.44 E26.892
G1 X-10.46 Y-2.35 E27.019
G1 X-10.28 Y-2.42 E27.034
G1 X-8.52 Y-2.74 E27.179
G1 X-8.2 Y-2.82 E27.206
G1 X-6.77 Y-3.04 E27.324
G1 X-6.41 Y-3.06 E27.353
G1 X-5.99 Y-2.98 E27.387
G1 X-4.49 Y-2.22 E27.524
G1 X-3.74 Y-1.6 E27.602
G1 X-3.69 Y-1.56
G1 X-2.75 Y-1.44
G1 X-1.51 Y-0.44
G1 X-1.27 Y-0.05
G1 X-3.96 Y-0.94 F12000
; TYPE:WALL-INNER
G1 X-3.01 Y-0.82 E27.68 F900
G1 X-2.01 Y0 E27.785
G1 X-0.95 Y1.67 E27.945
G1 X-1 Y1.82 E27.958
G1 X-0.89 Y1.93 E27.97
G1 X-1.02 Y3.53 E28.1
G1 X-0.73 Y4.25 E28.163
G1 X-0.72 Y4.42 E28.177
G1 X-1.23 Y5.35 E28.263
G1 X-1.27 Y6.67 E28.369
G1 X-1.28 Y7.15 E28.409
G1 X-1.65 Y7.93 E28.479
G1 X-1.78 Y8.35 E28.514
G1 X-2.45 Y8.95 E28.587
G1 X-3.17 Y9.64 E28.668
G1 X-3.8 Y10.07 E28.73
G1 X-5.01 Y10.77 E28.844
G1 X-5.79 Y11 E28.909
G1 X-7.22 Y11.33 E29.028
G1 X-7.49 Y11.38 E29.051
G1 X-7.58 Y11.37 E29.058
G1 X-9.65 Y10.69 E29.234
G1 X-10.33 Y10.41 E29.294
G1 X-10.76 Y10.16 E29.335
G1 X-10.97 Y9.99 E29.356
G1 X-12.03 Y9.06 E29.471
G1 X-12.42 Y8.62 E29.519
G1 X-13.13 Y7.4 E29.633
G1 X-13.38 Y6.94 E29.676
G1 X-13.91 Y5.74 E29.782
G1 X-13.94 Y5.44 E29.806
G1 X-14.02 Y5.14 E29.831
G1 X-13.91 Y3.14 E29.994
G1 X-13.39 Y1.61 E30.125
G1 X-12.78 Y0.54 E30.225
G1 X-12.38 Y0.33 E30.261
G1 X-12.24 Y-0.12 E30.299
G1 X-11.9 Y-0.47 E30.338
G1 X-11.33 Y-0.93 E30.398
G1 X-10.14 Y-1.77 E30.516
G1 X-10.09 Y-1.8 E30.52
G1 X-8.39 Y-2.1 E30.661
G1 X-8.07 Y-2.18 E30.687
G1 X-6.7 Y-2.39 E30.799
G1 X-6.45 Y-2.41 E30.82
G1 X-6.21 Y-2.36 E30.84
G1 X-4.84 Y-1.67 E30.964
G1 X-4.01 Y-0.98 E31.051
G1 X-3.96 Y-0.94
G1 E28.551 F6000
G1 Z0.8
G1 X-4.21 Y-0.7 F12000
G1 X-1.95 Y4.03
; TYPE:BOTTOM-FILL
G1 Z0.3
G1 E31.051 F6000
G1 Y4.48 E31.088 F900
G1 X-2.6 Y7.49 F12000
G1 X-2.6 Y1.03 E31.612 F900
G1 X-3.25 Y0.34 F12000
G1 X-3.25 Y8.26 E32.254 F900
G1 X-3.9 Y8.87 F12000
G1 X-3.9 Y0.13 E32.963 F900
G1 X-4.55 Y-0.06 F12000
G1 X-4.55 Y9.29 E33.721 F900
G1 X-5.2 Y9.67 F12000
G1 X-5.2 Y-0.6 E34.553 F900
G1 X-5.85 Y-1 F12000
G1 X-5.85 Y9.93 E35.439 F900
G1 X-6.5 Y10.09 F12000
G1 X-6.5 Y-1.33 E36.365 F900
G1 X-7.15 Y-1.26 F12000
G1 X-7.15 Y10.24 E37.297 F900
G1 X-7.8 Y10.19 F12000
G1 X-7.8 Y-1.16 E38.217 F900
G1 X-8.45 Y-1.02 F12000
G1 X-8.45 Y9.98 E39.108 F900
G1 X-9.1 Y9.76 F12000
G1 X-9.1 Y-0.9 E39.973 F900
G1 X-9.75 Y-0.76 F12000
G1 X-9.75 Y9.51 E40.806 F900
G1 X-10.4 Y9.09 F12000
G1 X-10.4 Y-0.3 E41.567 F900
G1 X-11.05 Y0.2 F12000
G1 X-11.05 Y8.51 E42.241 F900
G1 X-11.7 Y7.77 F12000
G1 X-11.7 Y1.15 E42.778 F900
G1 X-12.35 Y1.91 F12000
G1 Y6.64 E43.162 F900
G1 E40.662 F6000
G1 Z0.8
G1 X-14.93 Y7.69 F12000
; TYPE:SUPPORT
G1 Z0.3
G1 E43.162 F6000
G1 X-15.57 Y6.24 E43.261 F900
G1 X-15.76 Y5.29 E43.321
G1 X-15.62 Y2.8 E43.477
G1 X-14.97 Y0.89 E43.603
G1 X-14.03 Y-0.75 E43.721
G1 X-13.81 Y-0.87 E43.736
G1 X-13.75 Y-1.07 E43.749
G1 X-12.4 Y-2.29 E43.863
G1 X-10.69 Y-3.44 E43.991
G1 X-6.89 Y-4.11 E44.232
G1 X-6.32 Y-4.14 E44.267
G1 X-5.64 Y-4 E44.311
G1 X-3.89 Y-3.13 E44.432
G1 X-3.25 Y-2.59 E44.485
G1 X-2.31 Y-2.47 E44.544
G1 X-0.69 Y-1.15 E44.674
G1 X0.88 Y1.42 E44.862
G1 X0.73 Y3.27 E44.977
G1 X0.97 Y3.86 E45.017
G1 X1.03 Y4.81 E45.077
G1 X0.49 Y5.81 E45.148
G1 X0.44 Y7.56 E45.257
G1 X-0.04 Y8.56 E45.326
G1 X-0.27 Y9.31 E45.375
G1 X-2.1 Y11.01 E45.531
G1 X-4.33 Y12.38 E45.694
G1 X-7.53 Y13.15 E45.899
G1 X-11.1 Y11.97 E46.133
G1 X-12.06 Y11.33 E46.205
G1 X-13.24 Y10.29 E46.303
G1 X-13.83 Y9.64 E46.358
G1 X-14.93 Y7.69 E46.498
G1 X-15.31 Y8.25 F12000
G1 X-15.05 Y8
G1 X-15.96 E46.555 F900
G1 X-15.77 Y7.81 F12000
G1 X-16.14 Y8.21
G1 X-17.86 Y8.69 E46.666 F900
G1 X-18.4 Y7.33 E46.757
G1 X-18.67 Y4.72 E46.921
G1 X-17.18 Y4.52 E47.014
G1 X-17.05 Y3.03 E47.107
G1 X-16.86 Y3.04 E47.119
G1 X-16.85 Y2.84 E47.132
G1 X-16.19 Y0.66 E47.274
G1 X-15.43 Y-0.66 E47.369
G1 X-15.76 Y-0.89 E47.394
G1 X-14.77 Y-2.84 E47.531
G1 X-13.91 Y-4.03 E47.622
G1 X-14.09 Y-4.18 E47.637
G1 X-13.42 Y-5.09 E47.707
G1 X-13.61 Y-5.39 E47.729
G1 X-11.9 Y-6.51 E47.856
G1 X-12.09 Y-6.98 E47.888
G1 X-10.42 Y-7.77 E48.004
G1 X-7.29 Y-8.35 E48.202
G1 X-7.21 Y-7.96 E48.227
G1 X-5.73 Y-8.01 E48.32
G1 X-3.02 Y-7.05 E48.499
G1 X-3.12 Y-6.75 E48.519
G1 X-1.73 Y-5.96 E48.619
G1 X-1.82 Y-5.79 E48.631
G1 X-1.51 Y-5.64 E48.652
G1 X-0.59 Y-4.28 E48.754
G1 X-0.79 Y-4.11 E48.771
G1 X-0.52 Y-3.7 E48.802
G1 X-0.71 Y-3.53 E48.817
G1 X-0.44 Y-3.12 E48.848
G1 X-0.78 Y-2.84 E48.875
G1 X0.21 Y-1.89 E48.961
G1 X1.3 Y-0.28 E49.082
G1 X2.18 Y1.92 E49.23
G1 X2.25 Y2.43 E49.262
G1 X3.92 Y2.13 E49.367
G1 X4.15 Y3.28 E49.441
G1 X4.54 Y3.28 E49.465
G1 X4.6 Y5.94 E49.631
G1 X4.97 Y6.02 E49.654
G1 X4.35 Y8.71 E49.826
G1 X4.29 Y8.85 E49.835
G1 X4.41 Y8.91 E49.844
G1 X4.09 Y10.03 E49.917
G1 X2.36 Y12.39 E50.099
G1 X0.79 Y11.42 E50.215
G1 X1.16 Y10.7 E50.265
G1 X0.95 Y10.55 E50.281
G1 X0.34 Y12.34 E50.399
G1 X0.03 Y12.81 E50.434
G1 X0.19 Y12.91 E50.446
G1 X-0.72 Y14.47 E50.558
G1 X-0.54 Y14.6 E50.572
G1 X-2.08 Y16.76 E50.737
G1 X-2.78 Y17.27 E50.791
G1 X-2.75 Y17.3 E50.794
G1 X-3.47 Y18.09 E50.86
G1 X-3.35 Y18.3 E50.875
G1 X-4.74 Y19.22 E50.98
G1 X-6.17 Y19.39 E51.069
G1 X-6.19 Y19.76 E51.092
G1 X-8.39 Y19.64 E51.229
G1 X-11.35 Y18.83 E51.42
G1 X-11.16 Y18.16 E51.464
G1 X-12.04 Y17.54 E51.531
G1 X-13.29 Y16.25 E51.643
G1 X-13.92 Y15 E51.73
G1 X-13.78 Y14.9 E51.741
G1 X-14.23 Y14.16 E51.795
G1 X-13.83 Y13.87 E51.827
G1 X-14.09 Y13.49 E51.855
G1 X-14.73 Y12.12 E51.95
G1 X-14.55 Y12.02 E51.962
G1 X-14.89 Y11.43 E52.004
G1 X-14.67 Y11.3 E52.02
G1 X-15.01 Y10.74 E52.061
G1 X-14.77 Y10.59 E52.079
G1 X-15.8 Y9.04 E52.195
G1 X-16.14 Y8.21 E52.25
G1 X-15.77 Y7.84 F12000
G1 X-16.36 Y6.39
G1 X-16.42 Y8
G1 X-17.86 E52.341 F900
G1 X-18.06 Y7.5 F12000
G1 X-16.5 E52.438 F900
G1 X-16.87 F12000
G1 X-17.18 Y6.21
G1 X-16.36 Y6.39
G1 X-16.16 Y7.5
G1 X-15.29 E52.492 F900
G1 X-15.51 Y7 F12000
G1 X-16.29 E52.541 F900
G1 X-16.11 Y6.81 F12000
G1 X-17.18 Y6.21
G1 X-16.58 Y7
G1 X-18.18 E52.641 F900
G1 X-18.23 Y6.5 F12000
G1 X-15.73 E52.797 F900
G1 X-15.91 Y6.69 F12000
G1 X-15.87 Y6
G1 X-18.28 E52.947 F900
G1 X-18.33 Y5.5 F12000
G1 X-15.97 E53.095 F900
G1 X-17.09 Y5.87 F12000
G1 X-15.99 Y5
G1 X-18.38 E53.244 F900
G1 X-17.26 Y5.94 F12000
G1 X-16.93 Y4.5
G1 X-15.96 E53.304 F900
G1 X-16.71 Y4.69 F12000
G1 X-15.94 Y4
G1 X-16.88 E53.363 F900
G1 X-16.51 Y4.19 F12000
G1 X-16.84 Y3.5
G1 X-15.91 E53.421 F900
G1 X-15.88 Y3 F12000
G1 X-16.61 E53.467 F900
G1 X-16.42 Y3.19 F12000
G1 X-16.49 Y2.5
G1 X-15.78 E53.511 F900
G1 X-15.61 Y2 F12000
G1 X-16.34 E53.556 F900
G1 X-16.19 Y1.5 F12000
G1 X-15.44 E53.602 F900
G1 X-15.27 Y1 F12000
G1 X-16.03 E53.65 F900
G1 X-15.85 F12000
G1 X-15.81 Y0.5
G1 X-15.03 E53.699 F900
G1 X-15.4 Y0.13 F12000
G1 X-14.74 Y0
G1 X-15.52 E53.747 F900
G1 X-15.23 Y-0.5 F12000
G1 X-14.46 E53.796 F900
G1 X-14.83 Y-1.06 F12000
G1 X-14.09 Y-1
G1 X-15.43 E53.879 F900
G1 X-15.17 Y-1.5 F12000
G1 X-13.64 E53.975 F900
G1 X-13.09 Y-2 F12000
G1 X-14.92 E54.089 F900
G1 X-14.66 Y-2.5 F12000
G1 X-12.53 E54.221 F900
G1 X-13.28 Y-3.25 F12000
G1 X-11.79 Y-3
G1 X-14.34 E54.381 F900
G1 X-13.98 Y-3.5 F12000
G1 X-11.05 E54.564 F900
G1 X-11.8 Y-4.25 F12000
G1 X-9.87 Y-4.96
G1 X-8.97 Y-4
G1 X-13.62 E54.854 F900
G1 X-13.06 Y-3.44 F12000
G1 X-12.64 Y-4.06
G1 X-13.54 Y-4.5
G1 X-1.04 Y-4.5 E55.634 F900
G1 X-2.16 F12000
G1 X-2.06 Y-3.97
G1 X-1.02 Y-4
G1 X-5.08 Y-4 E55.887 F900
G1 X-4.08 Y-3.5 F12000
G1 X-0.99 Y-3.5 E56.08 F900
G1 X-2.11 Y-3.69 F12000
G1 X-0.97 Y-3
G1 X-3.35 E56.228 F900
G1 X-2.79 Y-3.94 F12000
G1 X-1.83 Y-3.46
G1 X-1.95 Y-2.5
G1 X-0.79 E56.301 F900
G1 X-0.97 Y-2.31 F12000
G1 X-0.26 Y-2
G1 X-1.34 E56.368 F900
G1 X-1.15 Y-2.37 F12000
G1 X-0.72 Y-1.5
G1 X0.18 E56.424 F900
G1 X0.51 Y-1 F12000
G1 X-0.3 E56.475 F900
G1 X0 Y-0.5 F12000
G1 X0.85 E56.528 F900
G1 X0.48 Y-0.13 F12000
G1 X1.14 Y0
G1 X0.31 E56.58 F900
G1 X0.61 Y0.5 F12000
G1 X1.34 E56.625 F900
G1 X1.54 Y1 F12000
G1 X0.92 Y1 E56.664 F900
G1 X1.1 Y0.81 F12000
G1 X1.12 Y1.5
G1 X1.74 E56.703 F900
G1 X1.93 Y2 F12000
G1 X1.08 Y2 E56.756 F900
G1 X1.04 Y2.5 F12000
G1 X2.01 E56.816 F900
G1 X2.09 Y3 F12000
G1 X1 E56.884 F900
G1 X1.75 Y3.19 F12000
G1 X1.09 Y3.5
G1 X2.16 E56.951 F900
G1 Y2.94 F12000
G1 X2.45 Y5.1
G1 X2.89 Y4.55
G1 X2.41 Y3.5
G1 X3.94 Y3.5 E57.046 F900
G1 X3.19 Y4.06 F12000
G1 X3.84 Y3
G1 X2.33 Y3 E57.141 F900
G1 X2.7 Y3.19 F12000
G1 X2.89 Y4.55
G1 X2.24 Y4
G1 X1.23 E57.204 F900
G1 X1.26 Y4.5 F12000
G1 X4.32 E57.395 F900
G1 X4.33 Y5 F12000
G1 X1.21 E57.589 F900
G1 X0.94 Y5.5 F12000
G1 X4.34 E57.802 F900
G1 X4.36 Y6 F12000
G1 X0.73 E58.028 F900
G1 X0.72 Y6.5 F12000
G1 X4.6 E58.27 F900
G1 X4.48 Y7 F12000
G1 X0.71 E58.505 F900
G1 X0.69 Y7.5 F12000
G1 X4.37 E58.735 F900
G1 X4.25 Y8 F12000
G1 X1.61 E58.899 F900
G1 X0.51 E58.968
G1 X0.27 Y8.5 F12000
G1 X4.14 E59.209 F900
G1 X3.01 Y8.31 F12000
G1 X2.85 Y8.96
G1 X4.04 Y9
G1 X1.47 E59.369 F900
G1 X1.85 Y8.63 F12000
G1 X1.32 Y9
G1 X0.09 E59.447 F900
G1 X0.84 Y8.63 F12000
G1 X-0.11 Y9.5
G1 X1.06 E59.52 F900
G1 X0.69 Y8.94 F12000
G1 X1.56 Y9.5
G1 X3.98 E59.671 F900
G1 X2.86 Y9.31 F12000
G1 X3.8 Y10
G1 X1.42 E59.819 F900
G1 X2.36 F12000
G1 X2.28 Y10.26
G1 X1.14 Y10.12
G1 X1.05 Y10.26 E59.829 F900
G1 X1.1 Y10.1 E59.84
G1 X1.14 Y10.12 E59.843
G1 X2.26 Y10.31 F12000
G1 X2.55 Y9.37
G1 X1.7 Y8.44
G1 X0.81 Y9.07
G1 X0.87 Y10
G1 X-0.65 E59.938 F900
G1 X-1.19 Y10.5 F12000
G1 X0.7 E60.056 F900
G1 X0.53 Y11 F12000
G1 X-1.73 E60.197 F900
G1 X-1.35 Y11.37 F12000
G1 X-2.43 Y11.5
G1 X0.36 E60.371 F900
G1 X0.19 Y12 F12000
G1 X-3.24 E60.585 F900
G1 X-4.05 Y12.5 F12000
G1 X-0.06 E60.834 F900
G1 X-1 Y11.75 F12000
G1 X-1.27 Y12.99
G1 X-0.15 Y13
G1 X-5.84 E61.188 F900
G1 X-5.46 Y13.94 F12000
G1 X-7.54 Y14.35
G1 X-8.79 Y13
G1 X-14.04 E61.516 F900
G1 X-13.29 Y12.25 F12000
G1 X-14.27 Y12.5
G1 X-10.3 E61.764 F900
G1 X-10.49 Y13.44 F12000
G1 X-11.77 Y12.76
G1 X-11.51 Y12
G1 X-14.28 E61.936 F900
G1 X-13.34 F12000
G1 X-14.52 Y11.5
G1 X-12.24 E62.078 F900
G1 X-12.81 Y11 F12000
G1 X-14.56 E62.188 F900
G1 X-14 Y10.63 F12000
G1 X-14.53 Y10.5
G1 X-13.37 E62.26 F900
G1 X-13.75 Y11.06 F12000
G1 X-13.84 Y10
G1 X-14.86 E62.324 F900
G1 X-15.19 Y9.5 F12000
G1 X-14.19 E62.386 F900
G1 X-14.57 Y9.69 F12000
G1 X-14.48 Y9
G1 X-15.52 E62.451 F900
G1 X-15.75 Y8.5 F12000
G1 X-14.76 E62.513 F900
G1 X-15.14 Y8.87 F12000
G1 X-13.38 Y12.11
G1 X-13.78 Y13.5
G1 X-0.44 E63.345 F900
G1 X-0.73 Y14 F12000
G1 X-13.59 E64.146 F900
G1 X-12.84 Y14.19 F12000
G1 X-13.73 Y14.5
G1 X-1.02 E64.939 F900
G1 X-2.14 F12000
G1 X-1.13 Y15
G1 X-13.48 E65.709 F900
G1 X-13.39 Y15.5 F12000
G1 X-1.49 E66.451 F900
G1 X-1.84 Y16 F12000
G1 X-13.13 E67.156 F900
G1 X-12.7 Y16.5 F12000
G1 X-2.2 E67.81 F900
G1 X-2.95 Y15.75 F12000
G1 X-2.83 Y17
G1 X-12.21 E68.395 F900
G1 X-11.66 Y17.5 F12000
G1 X-3.27 E68.918 F900
G1 X-3.73 Y18 F12000
G1 X-10.95 E69.369 F900
G1 X-10.39 Y17.44 F12000
G1 X-11 Y18.5
G1 X-4.1 E69.798 F900
G1 X-4.85 Y17.75 F12000
G1 X-4.99 Y19
G1 X-9.79 E70.098 F900
G1 Y17.88 F12000
G1 X-8.09 Y17.45
G1 X-0.18 Y10.37
G1 X1.79 Y8.47
G1 X2.55 Y9.37
G1 X1.39 Y11.5
G1 X2.7 E70.18 F900
G1 X3.07 Y11 F12000
G1 X1.28 E70.291 F900
G1 X2.03 Y10.81 F12000
G1 X1.3 Y10.5
G1 X3.43 E70.424 F900
G1 X2.68 Y9.75 F12000
G1 X2.34 Y12
G1 X2.2 E70.433 F900
G1 X2.01 Y11.07 F12000
G1 X2.85 Y4.55
G1 X2.49 Y4
G1 X4.31 Y4 E70.546 F900
G1 X3.19 Y4.19 F12000
G1 X3.74 Y2.5
G1 X3.26 Y2.5 E70.576 F900
G1 X2.88 Y3.25 F12000
G1 X3.07 Y3.15
G1 X2.89 Y4.55
G1 X2.32 Y3.07
G1 X1.75 Y3.09
G1 X0.61 Y-0.08
G1 X-2.01 Y-3.92
G1 X-1.38 Y-5
G1 X-13.17 Y-5 E71.311 F900
G1 X-12.61 Y-4.44 F12000
G1 X-12.98 Y-5.5
G1 X-1.8 Y-5.5 E72.009 F900
G1 X-2.55 Y-4.75 F12000
G1 X-2.31 Y-6
G1 X-12.22 Y-6 E72.627 F900
G1 X-11.66 Y-5.44 F12000
G1 X-11.62 Y-6.5
G1 X-3.19 Y-6.5 E73.153 F900
G1 X-3.75 Y-5.94 F12000
G1 X-3.62 Y-7
G1 X-11.46 Y-7 E73.642 F900
G1 X-10.41 Y-7.5 F12000
G1 X-5.03 Y-7.5 E73.977 F900
G1 X-5.22 Y-6.57 F12000
G1 X-7.79 Y-6.95
G1 X-7.47 Y-8
G1 X-7.82 E73.999 F900
G1 E71.499 F6000
G1 Z0.8
G1 X-7.71 Y-9.75 F12000
G1 Z0.3
G1 E73.999 F6000
G1 X-8.5 Y-9.64 E74.049 F900
G1 X-9.57 Y-9.18 E74.121
G1 X-10.22 Y-10.87 E74.234
G1 X-10.43 Y-12.87 E74.359
G1 X-10.25 Y-14.46 E74.459
G1 X-9.73 Y-16.19 E74.572
G1 X-9.4 Y-16.11 E74.594
G1 X-9.58 Y-17.26 E74.666
G1 X-9.52 Y-17.28 E74.67
G1 X-9.65 Y-18.09 E74.722
G1 X-9.37 Y-18.15 E74.74
G1 X-9.34 Y-19.36 E74.816
G1 X-9.75 Y-19.43 E74.841
G1 X-9.44 Y-21.59 E74.977
G1 X-9.04 Y-22.45 E75.036
G1 X-8.89 Y-22.6 E75.049
G1 X-9 Y-22.7 E75.059
G1 X-8.17 Y-24.2 E75.166
G1 X-7.29 Y-24.7 E75.229
G1 X-6.76 Y-24.81 E75.263
G1 X-5.67 Y-24.73 E75.331
G1 X-4.72 Y-24.06 E75.404
G1 X-4.08 Y-22.7 E75.497
G1 X-4.18 Y-22.61 E75.505
G1 X-3.99 Y-22.39 E75.523
G1 X-3.59 Y-21.24 E75.599
G1 X-3.54 Y-19.22 E75.725
G1 X-3.95 Y-19.2 E75.75
G1 X-4.25 Y-17.32 E75.869
G1 X-3.87 Y-16.99 E75.9
G1 X-4.45 Y-16.24 E75.959
G1 X-4.44 Y-16.02 E75.973
G1 X-4.36 Y-15.93 E75.98
G1 X-3.98 Y-14.79 E76.056
G1 X-3.97 Y-14.51 E76.073
G1 X-3.86 Y-14.52 E76.079
G1 X-3.62 Y-13.26 E76.159
G1 X-3.82 Y-12.27 E76.222
G1 X-3.57 Y-12.17 E76.239
G1 X-4.23 Y-9.68 E76.4
G1 X-4.56 Y-9.74 E76.421
G1 X-4.78 Y-9.19 E76.458
G1 X-6.15 Y-9.71 E76.549
G1 X-7.71 Y-9.75 E76.647
G1 X-7.73 Y-11.12 F12000
G1 X-9.62 Y-10
G1 X-4.72 E76.952 F900
G1 X-5.48 Y-10.75 F12000
G1 X-4.57 Y-10
G1 X-4.4 E76.962 F900
G1 X-5.53 Y-10.94 F12000
G1 X-4.27 Y-10.5
G1 X-9.81 E77.308 F900
G1 X-9.98 Y-11 F12000
G1 X-4.14 E77.673 F900
G1 X-5.26 Y-11.19 F12000
G1 X-4 Y-11.5
G1 X-10.04 E78.049 F900
G1 X-10.09 Y-12 F12000
G1 X-3.87 E78.436 F900
G1 X-5 F12000
G1 X-4.03 Y-12.5
G1 X-10.14 E78.818 F900
G1 X-9.01 F12000
G1 X-9.04 Y-12.99
G1 X-10.17 Y-13
G1 X-3.93 E79.207 F900
G1 X-5.05 F12000
G1 X-5.05 Y-13.49
G1 X-3.92 Y-13.5
G1 X-10.11 E79.593 F900
G1 X-10.05 Y-14 F12000
G1 X-4.02 E79.969 F900
G1 X-5.15 Y-13.62 F12000
G1 X-5.34 Y-14.26
G1 X-4.22 Y-14.5
G1 X-9.98 E80.328 F900
G1 X-9.83 Y-15 F12000
G1 X-4.31 E80.672 F900
G1 X-4.48 Y-15.5 F12000
G1 X-9.68 E80.996 F900
G1 X-8.92 Y-14.94 F12000
G1 X-9.17 Y-16
G1 X-4.68 E81.276 F900
G1 X-5.81 F12000
G1 X-4.57 Y-16.5
G1 X-9.21 E81.565 F900
G1 X-9.29 Y-17 F12000
G1 X-4.27 E81.878 F900
G1 X-4.48 Y-17.5 F12000
G1 X-9.3 E82.179 F900
G1 X-8.36 F12000
G1 X-9.12 Y-18
G1 X-4.39 E82.474 F900
G1 X-4.31 Y-18.5 F12000
G1 X-9.11 E82.773 F900
G1 X-9.1 Y-19 F12000
G1 X-4.23 E83.077 F900
G1 X-5.36 F12000
G1 X-4.93 Y-19.88
G1 X-3.8 Y-19.5
G1 X-9.09 E83.406 F900
G1 X-8.53 Y-19.88 F12000
G1 X-9.41 Y-20
G1 X-3.81 E83.756 F900
G1 X-4.94 F12000
G1 X-4.95 Y-20.5
G1 X-3.82
G1 X-9.34 E84.1 F900
G1 X-9.27 Y-21 F12000
G1 X-3.83 E84.439 F900
G1 X-4.96 F12000
G1 X-3.94 Y-21.5
G1 X-9.2 E84.767 F900
G1 X-8.97 Y-22 F12000
G1 X-4.12 E85.069 F900
G1 X-5.06 Y-21.62 F12000
G1 X-5.35 Y-22.12
G1 X-4.41 Y-22.5
G1 X-8.63 E85.332 F900
G1 X-8.07 Y-21.94 F12000
G1 X-8.55 Y-23
G1 X-4.5 E85.585 F900
G1 X-4.73 Y-23.5 F12000
G1 X-8.27 E85.805 F900
G1 X-8 Y-24 F12000
G1 X-5.07 E85.988 F900
G1 X-5.82 Y-23.25 F12000
G1 X-5.96 Y-24.5
G1 X-7.03 E86.055 F900
; Layer Change GCode
; LAYER:1
; LAYER_HEIGHT:0.3
; TYPE:FILL
G1 E83.555 F6000
G1 Z0.8
G1 X-7.16 Y-12.39 Z0.9 F12000
G1 X-7.29 Y-0.27 Z1
G1 X-7.42 Y11.84 Z1.1
; TYPE:WALL-INNER
G1 Z0.6
G1 E86.055 F6000
G1 X-9.51 Y11.46 E86.187 F2160
G1 X-11.12 Y10.67 E86.299
G1 X-12.12 Y9.92 E86.377
G1 X-12.34 Y9.72 E86.396
G1 X-13.11 Y8.8 E86.47
G1 X-13.53 Y8.19 E86.517
G1 X-14.21 Y6.71 E86.618
G1 X-14.49 Y5.42 E86.7
G1 X-14.51 Y3.82 E86.8
G1 X-14.38 Y2.71 E86.87
G1 X-14.13 Y1.97 E86.918
G1 X-13.95 Y1.49 E86.95
G1 X-13.81 Y1.22 E86.969
G1 X-13.31 Y0.38 E87.03
G1 X-11.98 Y-1.14 E87.156
G1 X-11.73 Y-1.37 E87.177
G1 X-10.94 Y-1.87 E87.236
G1 X-9.68 Y-2.43 E87.322
G1 X-9.09 Y-2.63 E87.361
G1 X-6.7 Y-2.88 E87.51
G1 X-4.85 Y-2.47 E87.629
G1 X-4.17 Y-2.23 E87.674
G1 X-3.51 Y-1.88 E87.72
G1 X-2.54 Y-1.24 E87.793
G1 X-2.34 Y-1.08 E87.809
G1 X-2.2 Y-0.95 E87.821
G1 X-1.41 Y-0.11 E87.893
G1 X-1.23 Y0.1 E87.91
G1 X-0.5 Y1.53 E88.01
G1 X-0.36 Y1.98 E88.04
G1 X-0.04 Y3.14 E88.114
G1 X0.03 Y3.48 E88.136
G1 X0.08 Y5.01 E88.231
G1 X0.06 Y5.51 E88.263
G1 X-0.01 Y5.81 E88.282
G1 X-0.45 Y7.14 E88.369
G1 X-0.78 Y7.94 E88.423
G1 X-0.95 Y8.3 E88.448
G1 X-2.3 Y9.91 E88.579
G1 X-3.97 Y11.06 E88.705
G1 X-4.94 Y11.44 E88.77
G1 X-5.33 Y11.51 E88.795
G1 X-7.37 Y11.84 E88.924
G1 X-7.42 Y11.84
G1 X-7.43 Y12.35 F12000
G1 X-9.67 Y11.94 E89.066 F2160
G1 X-11.39 Y11.1 E89.185
G1 X-12.45 Y10.3 E89.268
G1 X-12.7 Y10.06 E89.29
G1 X-13.5 Y9.1 E89.368
G1 X-13.97 Y8.44 E89.419
G1 X-14.68 Y6.87 E89.526
G1 X-14.99 Y5.48 E89.615
G1 X-15.01 Y3.8 E89.719
G1 X-14.87 Y2.6 E89.795
G1 X-14.6 Y1.81 E89.847
G1 X-14.41 Y1.3 E89.881
G1 X-14.24 Y0.98 E89.903
G1 X-13.71 Y0.09 E89.968
G1 X-12.34 Y-1.5 E90.099
G1 X-12.04 Y-1.77 E90.124
G1 X-11.17 Y-2.32 E90.188
G1 X-9.86 Y-2.9 E90.277
G1 X-9.2 Y-3.12 E90.321
G1 X-6.68 Y-3.39 E90.479
G1 X-4.71 Y-2.95 E90.605
G1 X-3.97 Y-2.69 E90.654
G1 X-3.25 Y-2.31 E90.705
G1 X-2.25 Y-1.64 E90.78
G1 X-2.01 Y-1.46 E90.798
G1 X-1.84 Y-1.3 E90.813
G1 X-1.04 Y-0.44 E90.886
G1 X-0.82 Y-0.19 E90.907
G1 X-0.8 Y-0.16 E90.909
G1 X-0.04 Y1.34 E91.014
G1 X0.12 Y1.82 E91.045
G1 X0.45 Y3.04 E91.124
G1 X0.53 Y3.42 E91.148
G1 X0.58 Y5.02 E91.249
G1 X0.56 Y5.58 E91.283
G1 X0.47 Y5.95 F12000
G1 X0.02 Y7.31 E91.373 F2160
G1 X-0.32 Y8.13 E91.428
G1 X-0.53 Y8.57 E91.458
G1 X-1.94 Y10.26 E91.596
G1 X-1.97 Y10.29 E91.598
G1 X-3.73 Y11.51 E91.732
G1 X-4.81 Y11.92 E91.804
G1 X-5.23 Y12 E91.83
G1 X-7.43 Y12.35 E91.969
G1 X-7.43 Y12.86 F12000
; TYPE:WALL-OUTER
G1 X-5.15 Y12.5 E92.114 F1620
G1 X-4.66 Y12.4 E92.144
G1 E89.644 F6000
G1 Z1.1
G1 X-11.65 Y11.53 F12000
G1 Z0.6
G1 E92.144 F6000
G1 X-12.77 Y10.68 E92.232 F1620
G1 X-13.07 Y10.41 E92.257
G1 X-13.9 Y9.4 E92.339
G1 X-15.16 Y7.04 F12000
G1 X-15.49 Y5.54 E92.435 F1620
G1 X-15.51 Y3.77 E92.545
G1 X-15.36 Y2.49 E92.625
G1 X-15.07 Y1.64 E92.682
G1 X-14.86 Y1.08 E92.719
G1 X-14.68 Y0.74 E92.742
G1 X-14.12 Y-0.2 E92.811
G1 X-12.69 Y-1.85 E92.947
G1 X-12.34 Y-2.17 E92.977
G1 X-11.41 Y-2.76 E93.045
G1 X-10.03 Y-3.36 E93.139
G1 X-9.3 Y-3.61 E93.187
G1 X-6.65 Y-3.89 E93.354
G1 X-4.58 Y-3.44 E93.486
G1 E90.986 F6000
G1 Z1.1
G1 X-1.95 Y-2.05 F12000
G1 Z0.6
G1 E93.486 F6000
G1 X-1.67 Y-1.83 E93.508 F1620
G1 X-1.5 Y-1.66 E93.523
G1 X-0.66 Y-0.77 E93.599
G1 X-0.42 Y-0.49 E93.622
G1 X-0.36 Y-0.4 E93.629
G1 X0.43 Y1.15 E93.737
G1 X0.6 Y1.69 E93.772
G1 X-0.36 Y1.98 F12000
G1 X-6.13 Y-2.5
; TYPE:FILL
G1 X-7.93 E93.884 F2160
G1 X-10.03 Y-2 F12000
G1 X-7.15 E94.064 F2160
G1 X-4.26 E94.244
G1 X-3.39 Y-1.5 F12000
G1 X-7.22 E94.483 F2160
G1 X-11.06 E94.722
G1 X-11.77 Y-1 F12000
G1 X-7.21 E95.006 F2160
G1 X-2.64 E95.291
G1 X-2.13 Y-0.5 F12000
G1 X-5.49 E95.501 F2160
G1 X-8.85 E95.71
G1 X-12.21 E95.92
G1 X-12.65 Y0 F12000
G1 X-8.98 E96.148 F2160
G1 X-5.32 E96.377
G1 X-1.66 E96.605
G1 X-1.31 Y0.5 F12000
G1 X-5.23 E96.85 F2160
G1 X-9.15 E97.094
G1 X-13.08 E97.339
G1 X-13.38 Y1 F12000
G1 X-9.27 E97.595 F2160
G1 X-5.16 E97.852
G1 X-1.05 E98.108
G1 X-0.79 Y1.5 F12000
G1 X-5.09 E98.376 F2160
G1 X-9.38 E98.644
G1 X-13.67 E98.911
G1 X-13.86 Y2 F12000
G1 X-9.45 E99.187 F2160
G1 X-5.03 E99.462
G1 X-0.61 E99.738
G1 X-0.47 Y2.5 F12000
G1 X-5 E100.02 F2160
G1 X-9.52 E100.302
G1 X-14.04 E100.584
G1 X-14.16 Y3 F12000
G1 X-9.56 E100.871 F2160
G1 X-4.95 E101.159
G1 X-0.34 E101.446
G1 X-0.22 Y3.5 F12000
G1 X-4.89 E101.737 F2160
G1 X-9.56 E102.028
G1 X-14.22 E102.319
G1 X-14.26 Y4 F12000
G1 X-9.58 E102.611 F2160
G1 X-4.89 E102.903
G1 X-0.21 E103.196
G1 X-0.19 Y4.5 F12000
G1 X-4.88 E103.488 F2160
G1 X-9.57 E103.78
G1 X-14.25 E104.073
G1 X-14.25 Y5 F12000
G1 X-9.56 E104.365 F2160
G1 X-4.86 E104.658
G1 X-0.17 E104.95
G1 X-0.19 Y5.5 F12000
G1 X-4.87 E105.242 F2160
G1 X-9.54 E105.534
G1 X-14.22 E105.825
G1 X-14.11 Y6 F12000
G1 X-9.52 E106.112 F2160
G1 X-4.92 E106.398
G1 X-0.33 E106.684
G1 X-0.5 Y6.5 F12000
G1 X-5 E106.965 F2160
G1 X-9.5 E107.245
G1 X-14 E107.526
G1 X-13.8 Y7 F12000
G1 X-9.42 E107.799 F2160
G1 X-5.04 E108.072
G1 X-0.66 E108.345
G1 X-0.87 Y7.5 F12000
G1 X-5.1 E108.609 F2160
G1 X-9.33 E108.873
G1 X-13.57 E109.137
G1 X-13.34 Y8 F12000
G1 X-9.25 E109.392 F2160
G1 X-5.17 E109.646
G1 X-1.09 E109.901
G1 X-1.45 Y8.5 F12000
G1 X-5.3 E110.141 F2160
G1 X-9.15 E110.382
G1 X-13.01 E110.622
G1 X-12.61 Y9 F12000
G1 X-9.03 E110.845 F2160
G1 X-5.45 E111.069
G1 X-1.87 E111.292
G1 X-2.28 Y9.5 F12000
G1 X-7.24 E111.601 F2160
G1 X-12.2 E111.911
G1 X-11.6 Y10 F12000
G1 X-7.24 E112.183 F2160
G1 X-2.87 E112.455
G1 X-3.59 Y10.5 F12000
G1 X-7.25 E112.683 F2160
G1 X-10.91 E112.911
G1 X-9.89 Y11 F12000
G1 X-7.2 E113.079 F2160
G1 X-4.51 E113.246
G1 E110.746 F6000
G1 Z1.1
G1 X-6.84 Y11.5 F12000
G1 Z0.6
G1 E113.246 F6000
G1 X-7.92 E113.313 F2160
G1 E110.813 F6000
G1 Z1.1
G1 X-8.36 Y14.9 F12000
G1 X-12.45 Y13.63
G1 X-12.44 Y12.5
; TYPE:SUPPORT
G1 Z0.6
G1 E113.313 F6000
G1 X-14.27 E113.428 F2160
G1 X-13.71 Y12.31 F12000
G1 X-12.42 Y14.8
G1 X-13.48 Y15
G1 X-9.37 E113.685 F2160
G1 X-5.25 E113.942
G1 X-1.13 E114.198
G1 X-2.07 Y14.44 F12000
G1 X-2.09 Y12.5
G1 X-0.06 E114.325 F2160
G1 X-0.63 Y11.94 F12000
G1 X0.81 Y9.82
G1 X2.17 Y8.85
G1 X2.56 Y9.37
G1 X1.42 Y10
G1 X3.8 E114.473 F2160
G1 X2.86 Y9.44 F12000
G1 X3.07 Y8.25
G1 X4.37 Y7.5
G1 X1.79 E114.634 F2160
G1 X2.73 F12000
G1 X3.24 Y5
G1 X2.3
G1 X4.33 E114.76 F2160
G1 X3.39 F12000
G1 X3.74 Y2.5
G1 X3.26 Y2.5 E114.791 F2160
G1 X3.07 Y3.25 F12000
G1 X2.99 Y6.88
G1 X2.45 Y8.42
G1 X-0.6 Y11.75
G1 X-2.79 Y15.78
G1 X-3.5 Y16.17
G1 X-3.27 Y17.5
G1 X-7.46 E115.052 F2160
G1 X-11.66 E115.314
G1 E112.814 F6000
G1 Z1.1
G1 X-16.97 Y7.66 F12000
G1 X-16.5 Y7.5
G1 Z0.6
G1 E115.314 F6000
G1 X-18.06 E115.411 F2160
G1 X-17.32 Y7.38 F12000
G1 X-17.53 Y5.83
G1 X-18.38 Y5
G1 X-16.73 E115.514 F2160
G1 E113.014 F6000
G1 Z1.1
G1 X-14.66 Y-2.5 F12000
G1 Z0.6
G1 E115.514 F6000
G1 X-13.78 E115.569 F2160
G1 X-14.16 Y-2.87 F12000
G1 X-13.17 Y-5
G1 X-10.61 E115.729 F2160
G1 X-8.04 E115.889
G1 X-8.04 Y-6.12 F12000
G1 X-6.58 Y-6.27
G1 X-5.87 Y-5
G1 X-1.38 E116.168 F2160
G1 X-1.95 Y-4.44 F12000
G1 X-4.3 Y-6.26
G1 X-5.03 Y-7.5
G1 X-7.72 E116.336 F2160
G1 X-10.41 E116.504
G1 E114.004 F6000
G1 Z1.1
G1 X-9.62 Y-10 F12000
G1 Z0.6
G1 E116.504 F6000
G1 X-4.72 E116.809 F2160
G1 X-5.48 Y-10.75 F12000
G1 X-4.57 Y-10
G1 X-4.4 E116.819 F2160
G1 X-5.53 Y-10.94 F12000
G1 X-4.03 Y-12.5
G1 X-7.08 E117.01 F2160
G1 X-10.14 E117.201
G1 X-9.01 F12000
G1 X-8.99 Y-14.17
G1 X-9.83 Y-15
G1 X-7.07 E117.373 F2160
G1 X-4.31 E117.545
G1 X-5.44 F12000
G1 X-5.83 Y-16.32
G1 X-4.48 Y-17.5
G1 X-9.3 E117.846 F2160
G1 X-8.36 F12000
G1 X-8.53 Y-19.76
G1 X-9.41 Y-20
G1 X-6.61 E118.02 F2160
G1 X-3.81 E118.195
G1 X-4.94 F12000
G1 X-4.41 Y-22.5
G1 X-8.63 E118.458 F2160
G1 E115.958 F6000
G1 Z1.1
G1 X-4.03 Y-8.46 Z1.4 F12000
G1 X0.56 Y5.58 Z1.7
; TYPE:AIR-GAP-INSET
G1 Z1.2
G1 E118.458 F6000
G1 X0.47 Y5.95 E118.482 F810
G1 X0.95 Y6.1 F12000
G1 X0.5 Y7.47 E118.572 F810
G1 X0.14 Y8.34 E118.631
G1 X-0.11 Y8.84 E118.666
G1 X-1.58 Y10.6 E118.809
G1 X-1.65 Y10.68 E118.815
G1 X-3.5 Y11.95 E118.955
G1 X-4.66 Y12.4 E119.033
G1 X-7.43 Y12.86 F12000
G1 X-9.82 Y12.42 E119.185 F810
G1 X-11.65 Y11.53 E119.311
G1 X-13.9 Y9.4 F12000
G1 X-14.4 Y8.68 E119.366 F810
G1 X-15.16 Y7.04 E119.479
G1 X-4.58 Y-3.44 F12000
G1 X-3.77 Y-3.15 E119.533 F810
G1 X-2.99 Y-2.74 E119.588
G1 X-1.95 Y-2.05 E119.665
G1 X0.6 Y1.69 F12000
G1 X0.93 Y2.91 E119.744 F810
G1 X1.02 Y3.36 E119.773
G1 X1.08 Y5.01 E119.876
G1 X1.06 Y5.64 E119.915
G1 X0.95 Y6.1 E119.945
; Layer Change GCode
; LAYER:2
; LAYER_HEIGHT:0.3
; TYPE:FILL
M400
M106 S255
G1 E117.445 F6000
G1 Z1.7
G1 X0.39 Y5.91 Z1.4 F12000
G1 X-1 Y7.51
G1 X-7.52 Y12.2
; TYPE:WALL-INNER
G1 Z0.9
G1 E119.945 F6000
G1 X-8.68 Y12.07 E120.018 F1920
G1 X-9.75 Y11.74 E120.088
G1 X-10.75 Y11.31 E120.155
G1 X-11.1 Y11.14 E120.179
G1 X-11.71 Y10.74 E120.225
G1 X-12.08 Y10.48 E120.253
G1 X-13.01 Y9.62 E120.332
G1 X-13.08 Y9.53 E120.339
G1 X-13.84 Y8.42 E120.423
G1 X-14.02 Y8.11 E120.446
G1 X-14.23 Y7.66 E120.477
G1 X-14.49 Y6.98 E120.522
G1 X-14.66 Y6.27 E120.568
G1 X-14.86 Y5.54 E120.615
G1 X-14.9 Y5.11 E120.642
G1 X-14.91 Y4.3 E120.692
G1 X-14.86 Y3.16 E120.764
G1 X-14.79 Y2.88 E120.781
G1 X-14.41 Y1.63 E120.863
G1 X-14.35 Y1.46 E120.874
G1 X-14.27 Y1.31 E120.885
G1 X-13.38 Y-0.21 E120.995
G1 X-12.74 Y-0.99 E121.058
G1 X-11.86 Y-1.73 E121.129
G1 X-11.18 Y-2.18 E121.18
G1 X-10.66 Y-2.48 E121.218
G1 X-9.56 Y-2.84 E121.29
G1 X-8.2 Y-3.22 E121.378
G1 X-8.06 Y-3.23 E121.387
G1 X-6.64 Y-3.23 E121.475
G1 X-6.1 Y-3.16 E121.509
G1 X-5.37 Y-3.03 E121.555
G1 X-5.02 Y-2.94 E121.578
G1 X-4.2 Y-2.66 E121.632
G1 X-3.84 Y-2.49 E121.657
G1 X-3.03 Y-2.02 E121.715
G1 X-2.4 Y-1.63 E121.761
G1 X-1.88 Y-1.15 E121.805
G1 X-1.32 Y-0.59 E121.855
G1 X-0.61 Y0.4 E121.931
G1 X-0.5 Y0.6 E121.945
G1 X-0.16 Y1.46 E122.003
G1 X0.2 Y2.29 E122.059
G1 X0.23 Y2.41 E122.067
G1 X0.3 Y2.75 E122.088
G1 X0.47 Y3.91 E122.162
G1 X0.47 Y4.53 E122.2
G1 X0.44 Y5.42 E122.256
G1 X0.18 Y6.66 E122.335
G1 X0.13 Y6.85 E122.347
G1 X-0.19 Y7.64 E122.4
G1 X-0.3 Y7.85 E122.415
G1 X-0.68 Y8.51 E122.462
G1 X-1.21 Y9.27 E122.52
G1 X-1.47 Y9.59 E122.546
G1 X-2.55 Y10.64 E122.64
G1 X-3.77 Y11.38 E122.729
G1 X-5.28 Y11.94 E122.829
G1 X-6.23 Y12.14 E122.89
G1 X-6.47 Y12.17 E122.905
G1 X-7.47 Y12.2 E122.967
G1 X-7.52 Y12.2
G1 X-7.54 Y12.7 F12000
G1 X-8.78 Y12.57 E123.045 F1920
G1 X-9.91 Y12.21 E123.119
G1 X-10.97 Y11.76 E123.191
G1 X-11.34 Y11.58 E123.217
G1 X-12 Y11.15 E123.265
G1 X-12.39 Y10.87 E123.296
G1 X-13.36 Y9.98 E123.377
G1 X-13.48 Y9.84 E123.389
G1 X-14.27 Y8.68 E123.476
G1 X-14.46 Y8.34 E123.501
G1 X-14.69 Y7.86 E123.534
G1 X-14.97 Y7.13 E123.583
G1 X-15.15 Y6.39 E123.63
G1 X-15.36 Y5.62 E123.68
G1 X-15.4 Y5.13 E123.71
G1 X-15.41 Y4.28 E123.763
G1 X-15.36 Y3.09 E123.838
G1 X-15.27 Y2.74 E123.861
G1 X-14.89 Y1.47 E123.943
G1 X-14.81 Y1.26 E123.957
G1 X-14.71 Y1.07 E123.97
G1 X-13.8 Y-0.5 E124.083
G1 X-13.09 Y-1.35 E124.153
G1 X-12.18 Y-2.12 E124.227
G1 X-11.44 Y-2.61 E124.282
G1 X-10.86 Y-2.94 E124.324
G1 X-9.71 Y-3.32 E124.399
G1 X-8.29 Y-3.71 E124.491
G1 X-8.08 Y-3.73 E124.504
G1 X-6.6 Y-3.73 E124.597
G1 X-6.02 Y-3.66 E124.633
G1 X-5.27 Y-3.52 E124.681
G1 X-4.88 Y-3.42 E124.706
G1 X-4.02 Y-3.13 E124.762
G1 X-3.61 Y-2.93 E124.791
G1 X-2.75 Y-2.43 E124.853
G1 X-2.1 Y-2.03 E124.901
G1 X-1.55 Y-1.52 E124.947
G1 X-0.94 Y-0.92 E125.001
G1 X-0.18 Y0.14 E125.082
G1 X-0.05 Y0.39 E125.1
G1 X0.3 Y1.27 E125.159
G1 X0.67 Y2.12 E125.216
G1 X0.72 Y2.3 E125.228
G1 X0.79 Y2.65 E125.25
G1 X0.97 Y3.87 E125.327
G1 X0.97 Y4.52 E125.368
G1 X0.94 Y5.49 E125.428
G1 X0.67 Y6.77 E125.51
G1 X0.6 Y7.02 E125.526
G1 X0.27 Y7.83 E125.581
G1 X0.15 Y8.09 E125.599
G1 X-0.26 Y8.79 E125.649
G1 X-0.8 Y9.55 E125.707
G1 X-1.11 Y9.94 E125.738
G1 X-2.24 Y11.03 E125.836
G1 X-3.56 Y11.84 E125.932
G1 X-5.14 Y12.42 E126.038
G1 X-6.15 Y12.64 E126.102
G1 X-6.42 Y12.67 E126.119
G1 X-7.49 Y12.7 E126.186
G1 X-7.54 Y12.7
G1 X-7.56 Y13.2 F12000
; TYPE:WALL-OUTER
G1 X-8.89 Y13.06 E126.269 F1440
G1 X-10.09 Y12.68 E126.348
G1 X-11.17 Y12.22 E126.421
G1 X-11.6 Y12.01 E126.451
G1 X-12.27 Y11.57 E126.501
G1 X-12.71 Y11.25 E126.535
G1 X-13.71 Y10.33 E126.62
G1 X-13.88 Y10.15 E126.635
G1 X-14.69 Y8.95 E126.725
G1 X-14.91 Y8.57 E126.753
G1 X-15.15 Y8.04 E126.789
G1 X-15.45 Y7.28 E126.84
G1 X-15.63 Y6.52 E126.889
G1 X-15.85 Y5.71 E126.941
G1 X-15.9 Y5.16 E126.976
G1 X-15.91 Y4.3 E127.029
G1 X-15.86 Y3.01 E127.11
G1 X-15.75 Y2.59 E127.137
G1 X-15.36 Y1.31 E127.22
G1 X-15.27 Y1.06 E127.237
G1 X-15.14 Y0.82 E127.253
G1 X-14.21 Y-0.78 E127.369
G1 X-13.45 Y-1.7 E127.444
G1 X-12.47 Y-2.53 E127.523
G1 X-11.71 Y-3.03 E127.58
G1 X-11.07 Y-3.4 E127.627
G1 X-9.86 Y-3.8 E127.706
G1 X-8.38 Y-4.2 E127.802
G1 X-8.11 Y-4.23 E127.819
G1 X-6.57 Y-4.23 E127.914
G1 X-5.94 Y-4.15 E127.954
G1 X-5.16 Y-4.01 E128.003
G1 X-4.73 Y-3.9 E128.031
G1 X-3.83 Y-3.59 E128.09
G1 X-3.37 Y-3.37 E128.122
G1 X-2.5 Y-2.86 E128.185
G1 X-1.8 Y-2.43 E128.237
G1 X-1.19 Y-1.88 E128.288
G1 X-0.55 Y-1.24 E128.344
G1 X0.25 Y-0.13 E128.429
G1 X0.41 Y0.19 E128.451
G1 X0.76 Y1.08 E128.511
G1 X1.14 Y1.95 E128.571
G1 X1.21 Y2.19 E128.586
G1 X1.28 Y2.54 E128.608
G1 X1.47 Y3.84 E128.69
G1 X1.47 Y4.54 E128.734
G1 X1.44 Y5.54 E128.796
G1 X1.15 Y6.9 E128.883
G1 X1.07 Y7.18 E128.901
G1 X0.73 Y8.04 E128.958
G1 X0.58 Y8.34 E128.979
G1 X0.17 Y9.04 E129.03
G1 X-0.41 Y9.86 E129.093
G1 X-0.74 Y10.27 E129.126
G1 X-1.93 Y11.43 E129.229
G1 X-3.33 Y12.29 E129.332
G1 X-5 Y12.91 E129.443
G1 X-6.07 Y13.13 E129.511
G1 X-6.39 Y13.17 E129.531
G1 X-7.51 Y13.2 E129.601
G1 X-7.56 Y13.2
G1 X-8.89 Y13.06
G1 X-10.09 Y12.68
G1 X-10.46 Y12.52
G1 X-7.52 Y12.2 F12000
G1 E127.101 F6000
G1 Z1.4
G1 X-14.5 Y5.91 F12000
; TYPE:FILL
G1 Z0.9
G1 E129.601 F6000
G1 Y2.81 E129.794 F1920
G1 X-14 Y1.36 F12000
G1 Y4.45 E129.987 F1920
G1 Y7.55 E130.181
G1 X-13.5 Y8.47 F12000
G1 X-13.5 Y4.48 E130.429 F1920
G1 Y0.49 E130.678
G1 X-13 Y-0.28 F12000
G1 Y4.47 E130.974 F1920
G1 Y9.21 E131.27
G1 X-12.5 Y9.74 F12000
G1 X-12.5 Y6.21 E131.491 F1920
G1 Y2.67 E131.711
G1 Y-0.86 E131.932
G1 X-12 Y-1.29 F12000
G1 Y2.55 E132.17 F1920
G1 Y6.38 E132.409
G1 Y10.21 E132.648
G1 X-11.5 Y10.58 F12000
G1 X-11.5 Y6.5 E132.903 F1920
G1 Y2.41 E133.157
G1 Y-1.67 E133.412
G1 X-11 Y-2 F12000
G1 Y2.31 E133.68 F1920
G1 Y6.61 E133.948
G1 Y10.91 E134.216
G1 X-10.5 Y11.15 F12000
G1 X-10.5 Y6.68 E134.495 F1920
G1 Y2.2 E134.774
G1 Y-2.27 E135.053
G1 X-10 Y-2.43 F12000
G1 Y2.16 E135.34 F1920
G1 Y6.76 E135.626
G1 Y11.36 E135.913
G1 X-9.5 Y11.55 F12000
G1 X-9.5 Y6.83 E136.207 F1920
G1 Y2.12 E136.501
G1 Y-2.6 E136.795
G1 X-9 Y-2.74 F12000
G1 Y2.08 E137.095 F1920
G1 Y6.89 E137.396
G1 Y11.71 E137.696
G1 X-8.5 Y11.84 F12000
G1 X-8.5 Y6.94 E138.002 F1920
G1 Y2.03 E138.308
G1 Y-2.87 E138.614
G1 X-8 Y-2.97 F12000
G1 Y1.98 E138.923 F1920
G1 Y6.94 E139.232
G1 Y11.9 E139.541
G1 X-7.5 Y11.95 F12000
G1 X-7.5 Y6.97 E139.851 F1920
G1 Y2 E140.161
G1 Y-2.98 E140.472
G1 X-7 F12000
G1 Y1.99 E140.782 F1920
G1 Y6.96 E141.092
G1 Y11.94 E141.402
G1 X-6.5 Y11.92 F12000
G1 X-6.5 Y6.96 E141.711 F1920
G1 Y2 E142.021
G1 Y-2.96 E142.33
G1 X-6 Y-2.89 F12000
G1 Y2.02 E142.636 F1920
G1 Y6.93 E142.942
G1 Y11.84 E143.248
G1 X-5.5 Y11.73 F12000
G1 X-5.5 Y6.89 E143.55 F1920
G1 Y2.04 E143.852
G1 Y-2.8 E144.155
G1 X-5 Y-2.67 F12000
G1 Y2.08 E144.451 F1920
G1 Y6.83 E144.747
G1 Y11.57 E145.043
G1 X-4.5 Y11.39 F12000
G1 X-4.5 Y6.76 E145.331 F1920
G1 Y2.13 E145.62
G1 Y-2.5 E145.908
G1 X-4 Y-2.29 F12000
G1 Y2.21 E146.189 F1920
G1 Y6.7 E146.469
G1 Y11.2 E146.75
G1 X-3.5 Y10.93 F12000
G1 X-3.5 Y6.62 E147.018 F1920
G1 Y2.31 E147.287
G1 Y-2 E147.556
G1 X-3 Y-1.7 F12000
G1 Y2.41 E147.812 F1920
G1 Y6.51 E148.068
G1 Y10.62 E148.324
G1 X-2.5 Y10.24 F12000
G1 X-2.5 Y6.37 E148.566 F1920
G1 Y2.5 E148.807
G1 Y-1.38 E149.048
G1 X-2 Y-0.91 F12000
G1 Y2.64 E149.27 F1920
G1 Y6.2 E149.492
G1 Y9.75 E149.714
G1 X-1.5 Y9.22 F12000
G1 X-1.5 Y4.4 E150.014 F1920
G1 Y-0.42 E150.315
G1 X-1 Y0.28 F12000
G1 Y4.41 E150.572 F1920
G1 Y8.54 E150.83
G1 X-0.5 Y7.69 F12000
G1 Y4.47 E151.03 F1920
G1 Y1.26 E151.23
G1 X0 Y2.54 F12000
G1 Y6.31 E151.465 F1920
G1 E148.965 F6000
G1 Z1.4
G1 X0.06 Y11.31 F12000
G1 X-0.45 Y11.86
G1 X-0.06 Y12.5
; TYPE:SUPPORT
G1 Z0.9
G1 E151.465 F6000
G1 X-1.28 E151.541 F1920
G1 X-1.1 Y13.06 F12000
G1 X-1.93 Y13.79
G1 X-1.13 Y15
G1 X-5.25 E151.798 F1920
G1 X-9.37 E152.055
G1 X-13.48 E152.312
G1 X-12.55 F12000
G1 X-13.1 Y12.5
G1 X-14.27 E152.385 F1920
G1 X-13.9 Y12.31 F12000
G1 X-11.65 Y16.41
G1 X-11.66 Y17.5
G1 X-7.46 E152.646 F1920
G1 X-3.27 E152.908
G1 E150.408 F6000
G1 Z1.4
G1 X2.36 Y10.24 F12000
G1 X1.42 Y10
G1 Z0.9
G1 E152.908 F6000
G1 X3.8 E153.056 F1920
G1 X2.8 Y9.67 F12000
G1 X3.17 Y8.01
G1 X4.37 Y7.5
G1 X2.28 E153.186 F1920
G1 X3.06 Y7.94 F12000
G1 X3.46 Y5.8
G1 X2.7 Y5
G1 X4.33 E153.288 F1920
G1 X3.56 Y5.22 F12000
G1 X3.74 Y2.5
G1 X3.25 Y2.5 E153.319 F1920
G1 X-6.69 Y5 F12000
G1 X-16.64 Y7.5
G1 X-18.06 E153.407 F1920
G1 X-17.4 F12000
G1 X-18.38 Y5
G1 X-17.13 E153.486 F1920
G1 E150.986 F6000
G1 Z1.4
G1 X-14.65 Y-2.43 F12000
G1 X-13.17 Y-5
G1 Z0.9
G1 E153.486 F6000
G1 X-10.08 E153.679 F1920
G1 X-10.26 Y-6.12 F12000
G1 X-10.41 Y-7.5
G1 X-7.72 Y-7.5 E153.846 F1920
G1 X-5.03 E154.014
G1 X-5.22 Y-6.57 F12000
G1 X-4.42 Y-6.21
G1 X-4.12 Y-5
G1 X-1.38 E154.185 F1920
G1 E151.685 F6000
G1 Z1.4
G1 X-5.54 Y-11.1 F12000
G1 X-4.4 Y-10
G1 Z0.9
G1 E154.185 F6000
G1 X-4.57 E154.195 F1920
G1 X-5.51 Y-10.94 F12000
G1 X-4.72 Y-10
G1 X-9.62 E154.501 F1920
G1 X-9.05 Y-10.56 F12000
G1 X-9.03 Y-11.67
G1 X-10.14 Y-12.5
G1 X-7.08 E154.691 F1920
G1 X-4.03 E154.882
G1 X-5.16 F12000
G1 X-5.35 Y-14.74
G1 X-4.31 Y-15
G1 X-7.07 E155.054 F1920
G1 X-9.83 E155.226
G1 X-8.89 F12000
G1 X-8.36 Y-17.08
G1 X-9.3 Y-17.5
G1 X-4.48 E155.527 F1920
G1 X-5.42 Y-17.12 F12000
G1 X-4.94 Y-20
G1 X-3.81
G1 X-6.61 E155.701 F1920
G1 X-9.41 E155.876
G1 X-8.47 Y-19.81 F12000
G1 X-8.14 Y-21.67
G1 X-8.63 Y-22.5
G1 X-4.41 E156.139 F1920
; Layer Change GCode
; LAYER:3
; LAYER_HEIGHT:0.3
; TYPE:FILL
G1 E153.639 F6000
G1 Z1.4
G1 X-5.42 Y-10.85 Z1.5 F12000
G1 X-6.43 Y0.8 Z1.6
G1 X-7.43 Y12.45 Z1.7
; TYPE:WALL-INNER
G1 Z1.2
G1 E156.139 F6000
G1 X-8.47 Y12.37 E156.204 F1699
G1 X-9.97 Y11.95 E156.301
G1 X-11.05 Y11.44 E156.376
G1 X-11.5 Y11.16 E156.409
G1 X-12.07 Y10.75 E156.452
G1 X-12.74 Y10.19 E156.507
G1 X-13 Y9.94 E156.529
G1 X-13.55 Y9.33 E156.58
G1 X-13.69 Y9.15 E156.595
G1 X-14.26 Y8.21 E156.663
G1 X-14.76 Y7.04 E156.743
G1 X-15.1 Y5.82 E156.822
G1 X-15.2 Y4.57 E156.9
G1 X-15.13 Y3.71 E156.954
G1 X-15.02 Y2.82 E157.009
G1 X-14.87 Y2.31 E157.043
G1 X-14.45 Y1.14 E157.12
G1 X-13.61 Y-0.32 E157.225
G1 X-12.88 Y-1.13 E157.293
G1 X-11.92 Y-1.98 E157.374
G1 X-11.76 Y-2.09 E157.385
G1 X-10.54 Y-2.8 E157.473
G1 X-10.4 Y-2.86 E157.483
G1 X-8.38 Y-3.41 E157.614
G1 X-7.89 Y-3.46 E157.644
G1 X-6.94 Y-3.48 E157.704
G1 X-6.51 Y-3.46 E157.73
G1 X-5.47 Y-3.33 E157.796
G1 X-4.47 Y-3.02 E157.861
G1 X-3.18 Y-2.42 E157.95
G1 X-2.97 Y-2.29 E157.965
G1 X-1.79 Y-1.41 E158.057
G1 X-1.08 Y-0.65 E158.122
G1 X-0.4 Y0.31 E158.196
G1 X0.04 Y1.17 E158.255
G1 X0.24 Y1.67 E158.289
G1 X0.45 Y2.39 E158.336
G1 X0.64 Y3.27 E158.392
G1 X0.71 Y3.71 E158.42
G1 X0.69 Y5.35 E158.522
G1 X0.63 Y5.75 E158.547
G1 X0.38 Y6.74 E158.611
G1 X-0.01 Y7.77 E158.68
G1 X-0.46 Y8.67 E158.742
G1 X-0.52 Y8.77 E158.75
G1 X-1.57 Y10.08 E158.854
G1 X-1.65 Y10.17 E158.862
G1 X-2.51 Y10.89 E158.931
G1 X-3.7 Y11.63 E159.019
G1 X-5.18 Y12.18 E159.117
G1 X-5.31 Y12.21 E159.126
G1 X-6.22 Y12.35 E159.183
G1 X-6.97 Y12.42 E159.23
G1 X-7.39 Y12.44 E159.256
G1 X-7.43 Y12.45
G1 X-7.43 Y12.95 F12000
G1 X-8.56 Y12.86 E159.327 F1699
G1 X-10.14 Y12.42 E159.429
G1 X-11.29 Y11.88 E159.508
G1 X-11.78 Y11.58 E159.544
G1 X-12.37 Y11.15 E159.59
G1 X-13.08 Y10.55 E159.647
G1 X-13.36 Y10.3 E159.671
G1 X-13.93 Y9.65 E159.724
G1 X-14.1 Y9.43 E159.742
G1 X-14.71 Y8.44 E159.815
G1 X-15.23 Y7.22 E159.897
G1 X-15.59 Y5.91 E159.982
G1 X-15.7 Y4.57 E160.066
G1 X-15.63 Y3.67 E160.122
G1 X-15.51 Y2.72 E160.182
G1 X-15.35 Y2.15 E160.219
G1 X-14.91 Y0.92 E160.3
G1 X-14.02 Y-0.61 E160.411
G1 X-13.24 Y-1.49 E160.484
G1 X-12.22 Y-2.38 E160.568
G1 X-12.03 Y-2.51 E160.582
G1 X-10.76 Y-3.25 E160.674
G1 X-10.57 Y-3.33 E160.687
G1 X-8.47 Y-3.91 E160.823
G1 X-7.92 Y-3.96 E160.858
G1 X-6.93 Y-3.98 E160.919
G1 X-6.47 Y-3.96 E160.948
G1 X-5.37 Y-3.82 E161.017
G1 X-4.29 Y-3.49 E161.088
G1 X-2.94 Y-2.85 E161.18
G1 X-2.69 Y-2.7 E161.199
G1 X-1.45 Y-1.78 E161.295
G1 X-0.69 Y-0.96 E161.365
G1 X0.04 Y0.06 E161.443
G1 X0.49 Y0.95 E161.505
G1 X0.71 Y1.5 E161.542
G1 X0.94 Y2.27 E161.592
G1 X1.14 Y3.2 E161.651
G1 X1.21 Y3.68 E161.682
G1 X1.19 Y5.39 E161.789
G1 X1.12 Y5.85 E161.818
G1 X0.86 Y6.89 E161.885
G1 X0.45 Y7.97 E161.956
G1 X-0.02 Y8.91 E162.022
G1 X-0.11 Y9.06 E162.033
G1 X-1.2 Y10.42 E162.141
G1 X-1.3 Y10.53 E162.151
G1 X-2.21 Y11.29 E162.225
G1 X-3.48 Y12.08 E162.318
G1 X-5.04 Y12.66 E162.422
G1 X-5.21 Y12.7 E162.433
G1 X-6.16 Y12.84 E162.493
G1 X-6.95 Y12.92 E162.542
G1 X-7.38 Y12.94 E162.569
G1 X-7.43 Y12.95
G1 X-7.45 Y13.45 F12000
; TYPE:WALL-OUTER
G1 X-8.64 Y13.35 E162.644 F1274
G1 X-10.31 Y12.89 E162.752
G1 X-11.53 Y12.32 E162.836
G1 X-12.05 Y12 E162.874
G1 X-12.68 Y11.54 E162.922
G1 X-13.41 Y10.93 E162.982
G1 X-13.71 Y10.65 E163.008
G1 X-14.31 Y9.98 E163.064
G1 X-14.51 Y9.72 E163.084
G1 X-15.15 Y8.67 E163.161
G1 X-15.7 Y7.38 E163.248
G1 X-16.09 Y5.99 E163.338
G1 X-16.2 Y4.57 E163.427
G1 X-16.13 Y3.63 E163.486
G1 X-16 Y2.62 E163.549
G1 X-15.82 Y2 E163.589
G1 X-15.37 Y0.71 E163.675
G1 X-14.42 Y-0.91 E163.791
G1 X-13.59 Y-1.84 E163.87
G1 X-12.53 Y-2.78 E163.958
G1 X-12.29 Y-2.93 E163.975
G1 X-10.99 Y-3.7 E164.07
G1 X-10.73 Y-3.81 E164.087
G1 X-8.56 Y-4.4 E164.228
G1 X-7.95 Y-4.46 E164.266
G1 X-6.93 Y-4.48 E164.329
G1 X-6.42 Y-4.46 E164.361
G1 X-5.26 Y-4.31 E164.434
G1 X-4.11 Y-3.95 E164.509
G1 X-2.71 Y-3.3 E164.606
G1 X-2.41 Y-3.12 E164.627
G1 X-1.12 Y-2.15 E164.728
G1 X-0.31 Y-1.28 E164.802
G1 X0.46 Y-0.2 E164.885
G1 X0.94 Y0.74 E164.951
G1 X1.19 Y1.34 E164.991
G1 X1.42 Y2.15 E165.044
G1 X1.62 Y3.09 E165.104
G1 X1.71 Y3.64 E165.139
G1 X1.69 Y5.44 E165.251
G1 X1.6 Y5.96 E165.283
G1 X1.34 Y7.04 E165.353
G1 X0.91 Y8.17 E165.429
G1 X0.41 Y9.16 E165.497
G1 X0.3 Y9.34 E165.511
G1 X-0.83 Y10.76 E165.624
G1 X-0.97 Y10.9 E165.636
G1 X-1.92 Y11.7 E165.713
G1 X-3.26 Y12.53 E165.812
G1 X-4.89 Y13.14 E165.921
G1 X-5.14 Y13.19 E165.936
G1 X-6.09 Y13.34 E165.996
G1 X-6.91 Y13.42 E166.048
G1 X-7.4 Y13.44 E166.079
G1 X-7.45 Y13.45
G1 X-8.64 Y13.35
G1 X-10.31 Y12.89
G1 X-10.38 Y12.86
G1 X-7.43 Y12.45 F12000
G1 X-8.25 Y10.2
; TYPE:FILL
G1 Y8.57 E166.18 F1699
G1 X-6.6 Y7.62 E166.299
G1 X-4.95 Y8.57 E166.418
G1 X-3.3 Y7.62 E166.536
G1 X-2.7 Y7.97 E166.579
G1 X-3.3 Y7.62 F12000
G1 Y5.72 E166.698 F1699
G1 X-4.95 Y4.76 E166.817
G1 X-6.6 Y5.72 E166.936
G1 X-8.25 Y4.76 E167.055
G1 X-9.9 Y5.72 E167.173
G1 Y7.62 E167.292
G1 X-11.34 Y8.46 E167.396
G1 X-9.9 Y7.62 F12000
G1 X-8.25 Y8.57 E167.515 F1699
G1 X-6.6 Y7.62 F12000
G1 Y5.72 E167.634 F1699
G1 X-4.95 Y4.76 F12000
G1 Y2.86 E167.753 F1699
G1 X-3.3 Y1.91 E167.871
G1 X-1.86 Y2.74 E167.975
G1 X-3.3 Y1.91 F12000
G1 Y0.11 E168.087 F1699
G1 X-5.21 Y-0.8 F12000
G1 X-6.6 Y0 E168.188 F1699
G1 X-8.25 Y-0.95 E168.306
G1 X-9.9 Y0 E168.425
G1 Y1.91 E168.544
G1 X-11.55 Y2.86 E168.663
G1 Y4.76 E168.782
G1 X-9.9 Y5.72 E168.9
G1 X-11.55 Y4.76 F12000
G1 X-12.99 Y5.59 E169.004 F1699
G1 X-11.55 Y4.76 F12000
G1 Y2.86
G1 X-12.65 Y2.23 E169.083 F1699
G1 X-9.9 Y1.91 F12000
G1 X-8.25 Y2.86 E169.202 F1699
G1 Y4.76 E169.32
G1 Y2.86 F12000
G1 X-6.6 Y1.91 E169.439 F1699
G1 X-4.95 Y2.86 E169.558
G1 X-6.6 Y1.91 F12000
G1 Y0 E169.677 F1699
G1 X-8.25 Y-0.95 F12000
G1 Y-1.21 E169.693 F1699
G1 X-9.9 Y0 F12000
G1 X-10.56 Y-0.38 E169.74 F1699
G1 X-9.9 Y1.91 F12000
G1 Y7.62
G1 X-4.95 Y8.57
G1 Y9.7 E169.81 F1699
G1 X-3.3 Y5.72 F12000
G1 X-2.06 Y5 E169.899 F1699
G1 E167.399 F6000
G1 Z1.7
G1 X-5.62 Y12 F12000
; TYPE:FILL
G1 Z1.2
G1 E169.899 F6000
G1 X-8.85 E170.101 F1699
G1 X-10.33 Y11.5 F12000
G1 X-7.2 E170.296 F1699
G1 X-4.07 E170.491
G1 X-3.16 Y11 F12000
G1 X-7.22 E170.744 F1699
G1 X-11.28 E170.998
G1 X-11.98 Y10.5 F12000
G1 X-7.21 E171.295 F1699
G1 X-2.44 E171.593
G1 E169.093 F6000
G1 Z1.7
G1 X-8.86 Y10 F12000
G1 Z1.2
G1 E171.593 F6000
G1 X-12.57 E171.824 F1699
G1 X-13.06 Y9.5 F12000
G1 X-10.11 E172.008 F1699
G1 X-10.72 Y9 F12000
G1 X-13.49 E172.18 F1699
G1 X-13.79 Y8.5 F12000
G1 X-11.29 E172.336 F1699
G1 X-11.74 Y8 F12000
G1 X-14.08 E172.482 F1699
G1 X-14.29 Y7.5 F12000
G1 X-12.03 E172.623 F1699
G1 X-12.32 Y7 F12000
G1 X-14.5 E172.759 F1699
G1 X-14.65 Y6.5 F12000
G1 X-12.59 E172.887 F1699
G1 X-12.81 Y6 F12000
G1 X-14.79 E173.011 F1699
G1 X-14.87 Y5.5 F12000
G1 X-13.03 E173.126 F1699
G1 X-13.11 Y5 F12000
G1 X-14.91 E173.238 F1699
G1 X-14.94 Y4.5 F12000
G1 X-13.08 E173.354 F1699
G1 X-13.06 Y4 F12000
G1 X-14.9 E173.469 F1699
G1 X-14.86 Y3.5 F12000
G1 X-13.03 E173.583 F1699
G1 X-12.91 Y3 F12000
G1 X-14.79 E173.7 F1699
G1 X-14.67 Y2.5 F12000
G1 X-12.74 E173.82 F1699
G1 X-12.57 Y2 F12000
G1 X-14.5 E173.94 F1699
G1 X-14.32 Y1.5 F12000
G1 X-12.29 E174.067 F1699
G1 X-11.74 Y1 F12000
G1 X-14.09 E174.213 F1699
G1 X-13.8 Y0.5 F12000
G1 X-11.49 E174.357 F1699
G1 X-11.05 Y0 F12000
G1 X-13.51 E174.51 F1699
G1 X-13.11 Y-0.5 F12000
G1 X-10.38 E174.68 F1699
G1 X-9.43 Y-1 F12000
G1 X-12.65 E174.881 F1699
G1 E172.381 F6000
G1 Z1.7
G1 X-5.57 Y10 F12000
G1 Z1.2
G1 E174.881 F6000
G1 X-1.84 E175.114 F1699
G1 X-1.43 Y9.5 F12000
G1 X-4.61 E175.313 F1699
G1 X-3.83 Y9 F12000
G1 X-1.03 E175.488 F1699
G1 X-0.66 Y8.5 F12000
G1 X-3.28 E175.651 F1699
G1 X-2.74 Y8 F12000
G1 X-0.41 E175.797 F1699
G1 X-0.18 Y7.5 F12000
G1 X-2.44 E175.938 F1699
G1 X-2.2 Y7 F12000
G1 X0.01 E176.076 F1699
G1 X0.18 Y6.5 F12000
G1 X-2.16 E176.222 F1699
G1 X-2.14 Y6 F12000
G1 X0.31 E176.375 F1699
G1 X0.41 Y5.5 F12000
G1 X-2.13 E176.533 F1699
G1 X-2.06 Y5 F12000
G1 X0.44 E176.689 F1699
G1 X0.45 Y4.5 F12000
G1 X-1.79 E176.828 F1699
G1 X-1.8 Y4 F12000
G1 X0.45 E176.969 F1699
G1 X0.42 Y3.5 F12000
G1 X-1.92 E177.115 F1699
G1 X-1.88 Y3 F12000
G1 X0.33 E177.253 F1699
G1 X0.22 Y2.5 F12000
G1 X-1.84 E177.381 F1699
G1 X-1.98 Y2 F12000
G1 X0.08 E177.509 F1699
G1 X-0.1 Y1.5 F12000
G1 X-2.13 E177.636 F1699
G1 X-2.44 Y1 F12000
G1 X-0.33 E177.767 F1699
G1 X-0.58 Y0.5 F12000
G1 X-2.82 E177.907 F1699
G1 X-3.71 Y0 F12000
G1 X-0.93 E178.08 F1699
G1 X-1.29 Y-0.5 F12000
G1 X-4.84 E178.302 F1699
G1 X-5.51 Y-1 F12000
G1 X-1.75 E178.537 F1699
G1 X-2.33 Y-1.5 F12000
G1 X-7.21 E178.841 F1699
G1 X-12.09 E179.145
G1 X-11.4 Y-2 F12000
G1 X-7.2 E179.407 F1699
G1 X-3 E179.669
G1 X-3.95 Y-2.5 F12000
G1 X-7.26 E179.875 F1699
G1 X-10.56 E180.081
G1 X-8.94 Y-3 F12000
G1 X-5.26 E180.311 F1699
G1 E177.811 F6000
G1 Z1.7
G1 X0.14 Y11.43 F12000
G1 X-0.93 Y12.5
; TYPE:SUPPORT
G1 Z1.2
G1 E180.311 F6000
G1 X-0.06 E180.365 F1699
G1 X-0.44 Y12.13 F12000
G1 X-2.17 Y14.35
G1 X-1.13 Y15
G1 X-5.25 E180.622 F1699
G1 X-9.37 E180.879
G1 X-13.48 E181.136
G1 X-12.54 F12000
G1 X-13.41 Y12.5
G1 X-14.27 E181.189 F1699
G1 X-14.09 Y12.31 F12000
G1 X-11.47 Y16.23
G1 X-11.66 Y17.5
G1 X-7.46 E181.451 F1699
G1 X-3.27 E181.712
G1 E179.212 F6000
G1 Z1.7
G1 X2.49 Y10.04 F12000
G1 X1.42 Y10
G1 Z1.2
G1 E181.712 F6000
G1 X3.8 E181.86 F1699
G1 X2.8 Y9.67 F12000
G1 X3.28 Y8.01
G1 X4.37 Y7.5
G1 X2.5 E181.977 F1699
G1 X3.27 Y7.94 F12000
G1 X3.61 Y5.8
G1 X2.94 Y5
G1 X4.33 E182.064 F1699
G1 X3.67 Y5.22 F12000
G1 X3.74 Y2.5
G1 X3.26 Y2.5 E182.094 F1699
G1 X-6.84 Y5 F12000
G1 X-16.93 Y7.5
G1 X-18.06 E182.164 F1699
G1 X-17.55 Y7.35 F12000
G1 X-18.38 Y5
G1 X-17.42 E182.224 F1699
G1 E179.724 F6000
G1 Z1.7
G1 X-14.11 Y-3.3 F12000
G1 X-13.17 Y-5
G1 Z1.2
G1 E182.224 F6000
G1 X-11.11 E182.353 F1699
G1 X-11.63 Y-5.69 F12000
G1 X-10.41 Y-7.5
G1 X-7.72 Y-7.5 E182.52 F1699
G1 X-5.03 E182.688
G1 X-4.86 Y-6.46 F12000
G1 X-3.77 Y-6.18
G1 X-3.4 Y-5
G1 X-1.38 E182.814 F1699
G1 E180.314 F6000
G1 Z1.7
G1 X-5.54 Y-11.1 F12000
G1 X-4.4 Y-10
G1 Z1.2
G1 E182.814 F6000
G1 X-4.57 E182.825 F1699
G1 X-5.51 Y-10.94 F12000
G1 X-4.72 Y-10
G1 X-9.62 E183.13 F1699
G1 X-9.05 Y-10.56 F12000
G1 X-9.03 Y-11.67
G1 X-10.14 Y-12.5
G1 X-7.08 E183.32 F1699
G1 X-4.03 E183.511
G1 X-5.16 F12000
G1 X-5.35 Y-14.74
G1 X-4.31 Y-15
G1 X-7.07 E183.683 F1699
G1 X-9.83 E183.855
G1 X-8.89 F12000
G1 X-8.36 Y-17.08
G1 X-9.3 Y-17.5
G1 X-4.48 E184.156 F1699
G1 X-5.42 Y-17.12 F12000
G1 X-4.94 Y-20
G1 X-3.81
G1 X-6.61 E184.331 F1699
G1 X-9.41 E184.505
G1 X-8.47 Y-19.81 F12000
G1 X-8.14 Y-21.67
G1 X-8.63 Y-22.5
G1 X-4.41 E184.769 F1699
; Layer Change GCode
; LAYER:4
; LAYER_HEIGHT:0.3
; TYPE:FILL
G1 E182.269 F6000
G1 Z1.7
G1 X-5.34 Y-10.8 Z1.8 F12000
G1 X-6.27 Y0.9 Z1.9
G1 X-7.2 Y12.6 Z2
; TYPE:WALL-INNER
G1 Z1.5
G1 E184.769 F6000
G1 X-7.66 Y12.58 E184.797 F1463
G1 X-8.39 Y12.5 E184.843
G1 X-9.66 Y12.19 E184.925
G1 X-10.01 Y12.1 E184.947
G1 X-10.99 Y11.66 E185.014
G1 X-12.01 Y11.03 E185.089
G1 X-13.05 Y10.11 E185.176
G1 X-13.76 Y9.25 E185.245
G1 X-14.46 Y8.14 E185.327
G1 X-14.97 Y6.95 E185.408
G1 X-15.19 Y5.98 E185.47
G1 X-15.24 Y5.55 E185.497
G1 X-15.35 Y4.19 E185.582
G1 X-15.35 Y4.03 E185.592
G1 X-15.21 Y3.02 E185.655
G1 X-15.07 Y2.43 E185.693
G1 X-14.69 Y1.34 E185.766
G1 X-14.45 Y0.8 E185.802
G1 X-14.02 Y0.06 E185.856
G1 X-13.72 Y-0.39 E185.889
G1 X-12.97 Y-1.3 E185.963
G1 X-12.18 Y-1.99 E186.028
G1 X-11.57 Y-2.39 E186.074
G1 X-11.03 Y-2.71 E186.113
G1 X-10.67 Y-2.89 E186.138
G1 X-9.8 Y-3.23 E186.196
G1 X-9.31 Y-3.37 E186.228
G1 X-8.67 Y-3.52 E186.269
G1 X-7.55 Y-3.67 E186.339
G1 X-6.31 Y-3.62 E186.417
G1 X-6.25 Y-3.61 E186.421
G1 X-5.19 Y-3.38 E186.488
G1 X-4.05 Y-3.02 E186.563
G1 X-3.83 Y-2.92 E186.578
G1 X-2.93 Y-2.42 E186.642
G1 X-1.82 Y-1.63 E186.727
G1 X-0.95 Y-0.71 E186.806
G1 X-0.47 Y-0.04 E186.858
G1 X-0.13 Y0.49 E186.897
G1 X0.18 Y1.11 E186.94
G1 X0.32 Y1.47 E186.964
G1 X0.67 Y2.49 E187.031
G1 X0.86 Y3.63 E187.103
G1 X0.89 Y4.33 E187.147
G1 X0.88 Y4.82 E187.178
G1 X0.72 Y5.92 E187.247
G1 X0.57 Y6.75 E187.3
G1 X0.18 Y7.83 E187.371
G1 X-0.73 Y9.33 E187.48
G1 X-1.48 Y10.19 E187.552
G1 X-2.41 Y10.99 E187.628
G1 X-2.7 Y11.2 E187.65
G1 X-3.55 Y11.73 E187.713
G1 X-3.6 Y11.75 E187.716
G1 X-4.89 Y12.25 E187.803
G1 X-5.87 Y12.47 E187.866
G1 X-6.01 Y12.49 E187.874
G1 X-7.15 Y12.59 E187.945
G1 X-7.2 Y12.6
G1 X-7.19 Y13.1 F12000
G1 X-7.69 Y13.08 E187.977 F1463
G1 X-8.47 Y13 E188.025
G1 X-9.79 Y12.68 E188.11
G1 X-10.18 Y12.57 E188.136
G1 X-11.23 Y12.1 E188.207
G1 X-12.31 Y11.44 E188.286
G1 X-13.42 Y10.46 E188.378
G1 X-14.16 Y9.55 E188.452
G1 X-14.91 Y8.37 E188.538
G1 X-15.45 Y7.1 E188.625
G1 X-15.68 Y6.07 E188.691
G1 X-15.73 Y5.61 E188.719
G1 X-15.85 Y4.21 E188.807
G1 X-15.85 Y3.99 E188.821
G1 X-15.7 Y2.93 E188.888
G1 X-15.56 Y2.29 E188.928
G1 X-15.15 Y1.15 E189.004
G1 X-14.9 Y0.57 E189.043
G1 X-14.45 Y-0.2 E189.099
G1 X-14.13 Y-0.69 E189.135
G1 X-13.32 Y-1.65 E189.214
G1 X-12.49 Y-2.39 E189.283
G1 X-11.81 Y-2.83 E189.334
G1 X-11.29 Y-3.14 E189.371
G1 X-10.86 Y-3.35 E189.401
G1 X-9.97 Y-3.7 E189.461
G1 X-9.43 Y-3.85 E189.496
G1 X-8.76 Y-4.02 E189.539
G1 X-7.57 Y-4.17 E189.613
G1 X-6.28 Y-4.12 E189.694
G1 X-6.16 Y-4.1 E189.702
G1 X-5.06 Y-3.86 E189.772
G1 X-3.87 Y-3.49 E189.849
G1 X-3.59 Y-3.36 E189.869
G1 X-2.68 Y-2.85 E189.934
G1 X-1.49 Y-2.01 E190.025
G1 X-0.56 Y-1.02 E190.109
G1 X-0.06 Y-0.32 E190.163
G1 X0.3 Y0.24 E190.204
G1 X0.64 Y0.9 E190.251
G1 X0.79 Y1.3 E190.278
G1 X1.15 Y2.37 E190.348
G1 X1.36 Y3.58 E190.425
G1 X1.39 Y4.33 E190.471
G1 X1.38 Y4.86 E190.505
G1 X1.21 Y6.03 E190.578
G1 X1.05 Y6.88 E190.632
G1 X0.63 Y8.05 E190.71
G1 X-0.32 Y9.63 E190.824
G1 X-1.13 Y10.55 E190.901
G1 X-2.1 Y11.39 E190.981
G1 X-2.42 Y11.61 E191.005
G1 X-3.31 Y12.17 E191.071
G1 X-3.4 Y12.21 E191.077
G1 X-4.74 Y12.73 E191.167
G1 X-5.78 Y12.96 E191.233
G1 X-5.96 Y12.99 E191.245
G1 X-7.14 Y13.09 E191.318
G1 X-7.19 Y13.1
G1 X-7.17 Y13.6 F12000
; TYPE:WALL-OUTER
G1 X-7.73 Y13.57 E191.353 F1097
G1 X-8.56 Y13.49 E191.405
G1 X-9.91 Y13.16 E191.492
G1 X-10.35 Y13.04 E191.52
G1 X-11.46 Y12.55 E191.596
G1 X-12.61 Y11.84 E191.68
G1 X-13.78 Y10.81 E191.777
G1 X-14.57 Y9.84 E191.856
G1 X-15.35 Y8.61 E191.946
G1 X-15.93 Y7.25 E192.038
G1 X-16.17 Y6.14 E192.109
G1 X-16.23 Y5.67 E192.139
G1 X-16.35 Y4.22 E192.23
G1 X-16.35 Y3.95 E192.246
G1 X-16.19 Y2.83 E192.317
G1 X-16.04 Y2.15 E192.36
G1 X-15.62 Y0.97 E192.438
G1 X-15.35 Y0.35 E192.48
G1 X-14.87 Y-0.47 E192.54
G1 X-14.52 Y-0.99 E192.579
G1 X-13.69 Y-2 E192.661
G1 X-12.79 Y-2.79 E192.735
G1 X-12.08 Y-3.25 E192.788
G1 X-11.52 Y-3.58 E192.829
G1 X-11.08 Y-3.8 E192.859
G1 X-10.12 Y-4.18 E192.923
G1 X-9.58 Y-4.33 E192.959
G1 X-8.85 Y-4.51 E193.005
G1 X-7.6 Y-4.67 E193.084
G1 X-6.23 Y-4.61 E193.169
G1 X-6.08 Y-4.6 E193.179
G1 X-4.93 Y-4.34 E193.252
G1 X-3.7 Y-3.96 E193.333
G1 X-3.36 Y-3.81 E193.356
G1 X-2.4 Y-3.27 E193.424
G1 X-1.16 Y-2.39 E193.519
G1 X-0.17 Y-1.34 E193.609
G1 X0.36 Y-0.61 E193.665
G1 X0.74 Y-0.01 E193.709
G1 X1.1 Y0.71 E193.76
G1 X1.26 Y1.13 E193.788
G1 X1.64 Y2.25 E193.862
G1 X1.86 Y3.52 E193.942
G1 X1.89 Y4.34 E193.993
G1 X1.88 Y4.91 E194.028
G1 X1.71 Y6.1 E194.104
G1 X1.54 Y7.01 E194.162
G1 X1.08 Y8.27 E194.245
G1 X0.09 Y9.92 E194.365
G1 X-0.77 Y10.91 E194.447
G1 X-1.79 Y11.78 E194.531
G1 X-2.15 Y12.04 E194.558
G1 X-3.06 Y12.6 E194.625
G1 X-3.2 Y12.67 E194.635
G1 X-4.6 Y13.21 E194.728
G1 X-5.7 Y13.45 E194.798
G1 X-5.9 Y13.48 E194.811
G1 X-7.12 Y13.59 E194.887
G1 X-7.17 Y13.6
G1 X-7.73 Y13.57
G1 X-8.56 Y13.49
G1 X-9.91 Y13.16
G1 X-10.12 Y13.1
G1 X-7.2 Y12.6 F12000
G1 X-6.6 Y11.46
; TYPE:FILL
G1 Y11.43 E194.889 F1463
G1 X-8.25 Y10.48 E195.008
G1 Y10.48 E195.008
G1 Y8.57 E195.127
G1 X-6.6 Y7.62 E195.246
G1 X-4.95 Y8.57 E195.364
G1 X-3.3 Y7.62 E195.483
G1 X-1.65 Y8.57 E195.602
G1 Y8.74 E195.612
G1 Y8.57 F12000
G1 X-1.38 Y8.42 E195.632 F1463
G1 X-3.3 Y7.62 F12000
G1 Y7.62 E195.632 F1463
G1 Y5.72 E195.751
G1 X-4.95 Y4.76 E195.87
G1 Y4.76 E195.87
G1 Y2.86 E195.988
G1 X-3.3 Y1.91 E196.107
G1 Y1.91 E196.107
G1 Y0 E196.226
G1 X-4.95 Y-0.95 E196.345
G1 Y-0.95 E196.345
G1 Y-2.24 E196.425
G1 Y-0.95 F12000
G1 X-6.6 Y0 E196.544 F1463
G1 X-8.25 Y-0.95 E196.663
G1 Y-0.95 E196.663
G1 Y-2.47 E196.757
G1 Y-0.95 F12000
G1 X-9.9 Y0 E196.876 F1463
G1 X-11.55 Y-0.95 E196.995
G1 Y-0.95 E196.995
G1 Y-1.19 E197.009
G1 Y-0.95 F12000
G1 X-12.09 Y-0.64 E197.048 F1463
G1 X-13.2 Y0.69 F12000
G1 Y1.91 E197.124 F1463
G1 Y1.91 E197.124
G1 X-11.55 Y2.86 E197.243
G1 Y4.76 E197.361
G1 Y4.76 E197.361
G1 X-9.9 Y5.72 E197.48
G1 Y7.62 E197.599
G1 Y7.62 E197.599
G1 X-8.25 Y8.57 E197.718
G1 X-9.9 Y7.62 F12000
G1 X-11.55 Y8.57 E197.837 F1463
G1 X-13.2 Y7.62 E197.956
G1 Y7.62 E197.956
G1 Y5.72 E198.074
G1 X-11.55 Y4.76 E198.193
G1 X-9.9 Y5.72 F12000
G1 X-8.25 Y4.76 E198.312 F1463
G1 X-6.6 Y5.72 E198.431
G1 Y7.62 E198.55
G1 Y7.62 E198.55
G1 X-4.95 Y8.57 F12000
G1 Y10.48 E198.668 F1463
G1 Y10.48 E198.669
G1 X-6.6 Y11.43 E198.787
G1 X-8.25 Y10.48 F12000
G1 X-9.49 Y11.2 E198.877 F1463
G1 X-11.55 Y10.04 F12000
G1 Y8.57 E198.968 F1463
G1 X-13.2 Y7.62 F12000
G1 X-13.45 Y7.77 E198.986 F1463
G1 X-13.2 Y5.72 F12000
G1 X-14.25 Y5.11 E199.061 F1463
G1 X-13.99 Y2.36 F12000
G1 X-13.2 Y1.91 E199.118 F1463
G1 X-11.55 Y2.86 F12000
G1 X-9.9 Y1.91 E199.237 F1463
G1 Y1.91 E199.237
G1 Y0 E199.356
G1 Y1.91 F12000
G1 X-8.25 Y2.86 E199.474 F1463
G1 Y4.76 E199.593
G1 Y4.76 E199.593
G1 X-6.6 Y5.72 F12000
G1 X-4.95 Y4.76 E199.712 F1463
G1 X-3.3 Y5.72 F12000
G1 X-1.65 Y4.76 E199.831 F1463
G1 Y4.76 E199.831
G1 Y2.86 E199.95
G1 X-3.3 Y1.91 E200.068
G1 X-4.95 Y2.86 F12000
G1 X-6.6 Y1.91 E200.187 F1463
G1 X-8.25 Y2.86 E200.306
G1 X-6.6 Y1.91 F12000
G1 Y1.91 E200.306 F1463
G1 Y0 E200.425
G1 X-3.3 F12000
G1 X-2.23 Y-0.62 E200.502 F1463
G1 X-0.55 Y2.22 F12000
G1 X-1.65 Y2.86 E200.581 F1463
G1 Y4.76 F12000
G1 X-0.21 Y5.59 E200.684 F1463
G1 X-4.23 Y10.9 F12000
G1 X-4.95 Y10.48 E200.736 F1463
G1 E198.236 F6000
G1 Z2
G1 X0.5 Y5.7 F12000
; TYPE:FILL
G1 Z1.5
G1 E200.736 F6000
G1 Y3.01 E200.904 F1463
G1 X0 Y1.34 F12000
G1 Y4.46 E201.099 F1463
G1 Y7.59 E201.294
G1 E198.794 F6000
G1 Z2
G1 X-0.5 Y2.41 F12000
G1 Z1.5
G1 E201.294 F6000
G1 Y0.38 E201.42 F1463
G1 X-1 Y-0.35 F12000
G1 X-1 Y1.1 E201.511 F1463
G1 X-1.5 Y0.18 F12000
G1 Y-0.93 E201.58 F1463
G1 X-2 Y-1.46 F12000
G1 Y-0.36 E201.648 F1463
G1 X-2.5 Y-0.87 F12000
G1 Y-1.81 E201.706 F1463
G1 X-3 Y-2.16 F12000
G1 Y-1.24 E201.764 F1463
G1 X-3.5 Y-1.58 F12000
G1 Y-2.45 E201.818 F1463
G1 X-4 Y-2.72 F12000
G1 Y-1.86 E201.872 F1463
G1 X-4.5 Y-2.08 F12000
G1 Y-2.9 E201.923 F1463
G1 X-5 Y-3.05 F12000
G1 Y-2.25 E201.973 F1463
G1 X-5.5 Y-2.36 F12000
G1 Y-3.19 E202.025 F1463
G1 X-6 Y-3.3 F12000
G1 Y-2.47 E202.076 F1463
G1 X-6.5 Y-2.58 F12000
G1 Y-3.37 E202.126 F1463
G1 X-7 Y-3.39 F12000
G1 Y-2.6 E202.175 F1463
G1 X-7.5 Y-2.54 F12000
G1 Y-3.41 E202.23 F1463
G1 X-8 Y-3.36 F12000
G1 Y-2.49 E202.284 F1463
G1 X-8.5 Y-2.44 F12000
G1 Y-3.29 E202.337 F1463
G1 X-9 Y-3.18 F12000
G1 Y-2.38 E202.387 F1463
G1 X-9.5 Y-2.22 F12000
G1 Y-3.05 E202.438 F1463
G1 X-10 Y-2.88 F12000
G1 Y-2.01 E202.492 F1463
G1 X-10.5 Y-1.79 F12000
G1 Y-2.68 E202.548 F1463
G1 X-11 Y-2.43 F12000
G1 Y-1.54 E202.604 F1463
G1 X-11.5 Y-1.22 F12000
G1 Y-2.14 E202.661 F1463
G1 X-12 Y-1.82 F12000
G1 Y-0.74 E202.728 F1463
G1 X-12.5 Y-0.17 F12000
G1 Y-1.38 E202.804 F1463
G1 X-13 Y-0.87 F12000
G1 Y0.41 E202.884 F1463
G1 X-13.5 Y-0.27 F12000
G1 Y1.2 E202.975 F1463
G1 X-14 Y0.51 F12000
G1 Y2.39 E203.092 F1463
G1 E200.592 F6000
G1 Z2
G1 X-0.5 Y6.5 F12000
G1 Z1.5
G1 E203.092 F6000
G1 Y8.47 E203.215 F1463
G1 X-1 Y7.82 F12000
G1 Y9.27 E203.305 F1463
G1 X-1.5 Y9.84 F12000
G1 Y8.56 E203.385 F1463
G1 X-2 Y9.16 F12000
G1 Y10.31 E203.457 F1463
G1 X-2.5 Y10.74 F12000
G1 Y9.74 E203.519 F1463
G1 X-3 Y10.09 F12000
G1 Y11.09 E203.582 F1463
G1 X-3.5 Y11.4 F12000
G1 Y10.43 E203.642 F1463
G1 X-4 Y10.78 F12000
G1 Y11.64 E203.696 F1463
G1 X-4.5 Y11.83 F12000
G1 Y11 E203.748 F1463
G1 X-5 Y11.19 F12000
G1 Y12.02 E203.799 F1463
G1 X-5.5 Y12.13 F12000
G1 Y11.29 E203.852 F1463
G1 X-6 Y11.37 F12000
G1 Y12.23 E203.906 F1463
G1 X-6.5 Y12.28 F12000
G1 Y11.45 E203.958 F1463
G1 X-7 Y11.52 F12000
G1 Y12.33 E204.008 F1463
G1 X-7.5 Y12.33 F12000
G1 Y11.58 E204.055 F1463
G1 X-8 Y11.48 F12000
G1 Y12.29 E204.106 F1463
G1 X-8.5 Y12.22 F12000
G1 Y11.39 E204.157 F1463
G1 X-9 Y11.3 F12000
G1 Y12.09 E204.206 F1463
G1 X-9.5 Y11.97 F12000
G1 Y11.19 E204.255 F1463
G1 X-10 Y10.94 F12000
G1 Y11.83 E204.31 F1463
G1 X-10.5 Y11.61 F12000
G1 Y10.7 E204.366 F1463
G1 X-11 Y10.45 F12000
G1 Y11.36 E204.423 F1463
G1 X-11.5 Y11.05 F12000
G1 Y10.07 E204.484 F1463
G1 X-12 Y9.69 F12000
G1 Y10.71 E204.547 F1463
G1 X-12.5 Y10.27 F12000
G1 Y9.14 E204.618 F1463
G1 X-13 Y8.51 F12000
G1 Y9.78 E204.697 F1463
G1 X-13.5 Y9.17 F12000
G1 Y7.65 E204.792 F1463
G1 X-14 Y8.4 F12000
G1 X-14 Y6.48 E204.912 F1463
G1 X-14.5 Y7.41 F12000
G1 Y4.49 E205.094 F1463
G1 Y1.56 E205.276
G1 X-15 Y3.34 F12000
G1 Y5.28 E205.398 F1463
G1 E202.898 F6000
G1 Z2
G1 X-14.04 Y12.5 F12000
; TYPE:SUPPORT
G1 Z1.5
G1 E205.398 F6000
G1 X-13.76 E205.415 F1463
G1 X-13.57 Y13.06 F12000
G1 X-12.56 Y14.88
G1 X-13.48 Y15
G1 X-9.37 E205.672 F1463
G1 X-5.25 E205.929
G1 X-1.13 E206.186
G1 X-2.07 Y14.44 F12000
G1 X-0.74 Y12.5
G1 X-0.06 E206.228 F1463
G1 X-0.25 Y12.31 F12000
G1 X-3.83 Y16.55
G1 X-3.27 Y17.5
G1 X-7.46 E206.49 F1463
G1 X-11.66 E206.751
G1 E204.251 F6000
G1 Z2
G1 X1.89 Y11.11 F12000
G1 X2.37 Y10.29
G1 X1.5 Y10
G1 Z1.5
G1 E206.751 F6000
G1 X3.8 E206.895 F1463
G1 X2.8 Y9.67 F12000
G1 X3.39 Y8.01
G1 X4.37 Y7.5
G1 X2.69 E206.999 F1463
G1 X3.47 F12000
G1 X3.13 Y5
G1 X4.33 Y5 E207.074 F1463
G1 X3.67 Y5.22 F12000
G1 X3.74 Y2.5
G1 X3.26 Y2.5 E207.104 F1463
G1 X-7.14 Y3.75 F12000
G1 X-17.53 Y5
G1 X-18.38 E207.158 F1463
G1 X-17.96 Y5.32 F12000
G1 X-18.06 Y7.5
G1 X-17.15 E207.214 F1463
G1 E204.714 F6000
G1 Z2
G1 X-13.17 Y-5 F12000
G1 Z1.5
G1 E207.214 F6000
G1 X-11.43 E207.323 F1463
G1 X-11.88 Y-5.6 F12000
G1 X-10.41 Y-7.5
G1 X-7.72 Y-7.5 E207.491 F1463
G1 X-5.03 E207.658
G1 X-5.18 Y-6.75 F12000
G1 X-3.5 Y-5.93
G1 X-2.99 Y-5
G1 X-1.38 E207.759 F1463
G1 E205.259 F6000
G1 Z2
G1 X-5.54 Y-11.1 F12000
G1 X-4.4 Y-10
G1 Z1.5
G1 E207.759 F6000
G1 X-4.57 E207.769 F1463
G1 X-5.51 Y-10.94 F12000
G1 X-4.72 Y-10
G1 X-9.62 E208.074 F1463
G1 X-9.05 Y-10.56 F12000
G1 X-9.03 Y-11.67
G1 X-10.14 Y-12.5
G1 X-7.08 E208.265 F1463
G1 X-4.03 E208.456
G1 X-5.16 F12000
G1 X-5.35 Y-14.74
G1 X-4.31 Y-15
G1 X-7.07 E208.628 F1463
G1 X-9.83 E208.8
G1 X-8.89 F12000
G1 X-8.36 Y-17.08
G1 X-9.3 Y-17.5
G1 X-4.48 E209.101 F1463
G1 X-5.42 Y-17.12 F12000
G1 X-4.94 Y-20
G1 X-3.81
G1 X-6.61 E209.275 F1463
G1 X-9.41 E209.45
G1 X-8.47 Y-19.81 F12000
G1 X-8.14 Y-21.67
G1 X-8.63 Y-22.5
G1 X-4.41 E209.713 F1463
; Layer Change GCode
; LAYER:5
; LAYER_HEIGHT:0.3
; TYPE:FILL
G1 E207.213 F6000
G1 Z2
G1 X-5.24 Y-10.77 Z2.1 F12000
G1 X-6.06 Y0.95 Z2.2
G1 X-6.89 Y12.68 Z2.3
; TYPE:WALL-INNER
G1 Z1.8
G1 E209.713 F6000
G1 X-8.4 Y12.6 E209.807 F1216
G1 X-8.55 Y12.57 E209.817
G1 X-9.57 Y12.32 E209.883
G1 X-9.94 Y12.2 E209.907
G1 X-10.21 Y12.1 E209.925
G1 X-10.91 Y11.78 E209.973
G1 X-11.3 Y11.58 E210
G1 X-11.75 Y11.29 E210.034
G1 X-12.4 Y10.81 E210.084
G1 X-13.2 Y10.09 E210.151
G1 X-13.82 Y9.36 E210.211
G1 X-14.59 Y8.11 E210.302
G1 X-15.02 Y6.97 E210.378
G1 X-15.26 Y6.2 E210.429
G1 X-15.27 Y6.14 E210.432
G1 X-15.38 Y5.22 E210.49
G1 X-15.41 Y4.83 E210.515
G1 X-15.37 Y3.47 E210.599
G1 X-15.04 Y1.95 E210.697
G1 X-14.46 Y0.59 E210.789
G1 X-13.66 Y-0.62 E210.879
G1 X-13.53 Y-0.77 E210.892
G1 X-12.86 Y-1.51 E210.954
G1 X-12.55 Y-1.78 E210.979
G1 X-12.06 Y-2.18 E211.019
G1 X-11.52 Y-2.57 E211.06
G1 X-11.43 Y-2.62 E211.067
G1 X-10.65 Y-2.99 E211.12
G1 X-9.93 Y-3.26 E211.168
G1 X-9.2 Y-3.49 E211.216
G1 X-8.86 Y-3.57 E211.238
G1 X-8.49 Y-3.62 E211.261
G1 X-7.58 Y-3.7 E211.318
G1 X-6.82 Y-3.71 E211.366
G1 X-6.33 Y-3.69 E211.396
G1 X-4.79 Y-3.37 E211.495
G1 X-4.51 Y-3.29 E211.512
G1 X-3.86 Y-3.01 E211.557
G1 X-2.73 Y-2.41 E211.636
G1 X-1.68 Y-1.6 E211.719
G1 X-0.92 Y-0.8 E211.788
G1 X-0.22 Y0.22 E211.865
G1 X0.04 Y0.64 E211.896
G1 X0.32 Y1.21 E211.936
G1 X0.47 Y1.59 E211.961
G1 X0.59 Y1.95 E211.985
G1 X0.75 Y2.52 E212.022
G1 X0.95 Y3.57 E212.089
G1 X0.96 Y3.85 E212.106
G1 X0.96 Y4.72 E212.16
G1 X0.94 Y5.03 E212.179
G1 X0.78 Y6.26 E212.257
G1 X0.39 Y7.47 E212.336
G1 X0.28 Y7.78 E212.357
G1 X-0.22 Y8.69 E212.421
G1 X-0.5 Y9.16 E212.456
G1 X-1.43 Y10.28 E212.546
G1 X-1.55 Y10.4 E212.557
G1 X-2.16 Y10.9 E212.606
G1 X-3.28 Y11.67 E212.691
G1 X-3.94 Y11.99 E212.736
G1 X-4.26 Y12.11 E212.758
G1 X-5.22 Y12.41 E212.821
G1 X-5.74 Y12.53 E212.854
G1 X-6.84 Y12.67 E212.923
G1 X-6.89 Y12.68
G1 X-6.86 Y13.18 F12000
G1 X-8.46 Y13.1 E213.022 F1216
G1 X-8.66 Y13.06 E213.035
G1 X-9.7 Y12.8 E213.102
G1 X-10.1 Y12.67 E213.128
G1 X-10.39 Y12.56 E213.148
G1 X-11.14 Y12.23 E213.199
G1 X-11.54 Y12.02 E213.227
G1 X-12.04 Y11.7 E213.264
G1 X-12.71 Y11.2 E213.316
G1 X-13.56 Y10.44 E213.387
G1 X-14.22 Y9.66 E213.451
G1 X-15.03 Y8.33 E213.548
G1 X-15.5 Y7.12 E213.629
G1 X-15.74 Y6.31 E213.682
G1 X-15.76 Y6.23 E213.687
G1 X-15.88 Y5.28 E213.746
G1 X-15.91 Y4.84 E213.774
G1 X-15.87 Y3.4 E213.864
G1 X-15.52 Y1.8 E213.966
G1 X-14.9 Y0.35 E214.064
G1 X-14.06 Y-0.92 E214.159
G1 X-13.91 Y-1.1 E214.174
G1 X-13.21 Y-1.87 E214.239
G1 X-12.88 Y-2.16 E214.266
G1 X-12.37 Y-2.57 E214.307
G1 X-11.8 Y-2.98 E214.351
G1 X-11.66 Y-3.07 E214.361
G1 X-10.84 Y-3.45 E214.418
G1 X-10.12 Y-3.72 E214.465
G1 X-9.33 Y-3.97 E214.517
G1 X-8.95 Y-4.07 E214.542
G1 X-8.54 Y-4.12 E214.567
G1 X-7.61 Y-4.2 E214.626
G1 X-6.84 Y-4.21 E214.674
G1 X-6.27 Y-4.19 E214.709
G1 X-4.66 Y-3.86 E214.811
G1 X-4.34 Y-3.76 E214.832
G1 X-3.65 Y-3.47 E214.879
G1 X-2.46 Y-2.83 E214.964
G1 X-1.34 Y-1.97 E215.051
G1 X-0.53 Y-1.12 E215.125
G1 X0.21 Y-0.04 E215.206
G1 X0.48 Y0.4 E215.238
G1 X0.78 Y1.01 E215.281
G1 X0.94 Y1.42 E215.308
G1 X1.07 Y1.79 E215.333
G1 X1.24 Y2.41 E215.373
G1 X1.45 Y3.52 E215.443
G1 X1.46 Y3.83 E215.462
G1 X1.46 Y4.74 E215.519
G1 X1.44 Y5.08 E215.541
G1 X1.27 Y6.37 E215.622
G1 X0.88 Y7.6 E215.702
G1 X0.73 Y7.99 E215.728
G1 X0.22 Y8.94 E215.796
G1 X-0.09 Y9.45 E215.833
G1 X-1.07 Y10.62 E215.928
G1 X-1.21 Y10.76 E215.94
G1 X-1.86 Y11.3 E215.993
G1 X-3.02 Y12.11 E216.081
G1 X-3.74 Y12.45 E216.131
G1 X-4.1 Y12.59 E216.155
G1 X-5.08 Y12.89 E216.219
G1 X-5.65 Y13.02 E216.255
G1 X-6.82 Y13.17 E216.329
G1 X-6.86 Y13.18
G1 X-6.84 Y13.68 F12000
; TYPE:WALL-OUTER
G1 X-8.52 Y13.59 E216.433 F912
G1 X-8.76 Y13.55 E216.449
G1 X-9.84 Y13.28 E216.518
G1 X-10.26 Y13.14 E216.546
G1 X-10.59 Y13.02 E216.568
G1 X-11.35 Y12.68 E216.619
G1 X-11.79 Y12.45 E216.65
G1 X-12.33 Y12.11 E216.69
G1 X-13.03 Y11.59 E216.745
G1 X-13.92 Y10.79 E216.819
G1 X-14.63 Y9.95 E216.888
G1 X-15.49 Y8.55 E216.99
G1 X-15.97 Y7.29 E217.074
G1 X-16.23 Y6.44 E217.129
G1 X-16.26 Y6.31 E217.138
G1 X-16.37 Y5.34 E217.199
G1 X-16.41 Y4.85 E217.229
G1 X-16.37 Y3.35 E217.323
G1 X-16 Y1.64 E217.432
G1 X-15.34 Y0.11 E217.536
G1 X-14.46 Y-1.21 E217.635
G1 X-14.28 Y-1.44 E217.653
G1 X-13.56 Y-2.22 E217.719
G1 X-13.2 Y-2.54 E217.749
G1 X-12.68 Y-2.97 E217.792
G1 X-12.08 Y-3.4 E217.838
G1 X-11.9 Y-3.51 E217.851
G1 X-11.04 Y-3.91 E217.91
G1 X-10.26 Y-4.2 E217.962
G1 X-9.47 Y-4.45 E218.013
G1 X-9.03 Y-4.56 E218.041
G1 X-8.59 Y-4.61 E218.069
G1 X-7.64 Y-4.7 E218.129
G1 X-6.83 Y-4.71 E218.18
G1 X-6.21 Y-4.69 E218.218
G1 X-4.53 Y-4.34 E218.325
G1 X-4.17 Y-4.23 E218.348
G1 X-3.43 Y-3.92 E218.399
G1 X-2.18 Y-3.25 E218.487
G1 X-1.02 Y-2.35 E218.579
G1 X-0.13 Y-1.43 E218.659
G1 X0.62 Y-0.33 E218.741
G1 X0.92 Y0.16 E218.777
G1 X1.24 Y0.81 E218.822
G1 X1.41 Y1.24 E218.851
G1 X1.55 Y1.64 E218.878
G1 X1.72 Y2.29 E218.919
G1 X1.95 Y3.46 E218.994
G1 X1.96 Y3.82 E219.017
G1 X1.96 Y4.76 E219.075
G1 X1.94 Y5.12 E219.098
G1 X1.76 Y6.49 E219.183
G1 X1.35 Y7.77 E219.267
G1 X1.19 Y8.19 E219.296
G1 X0.65 Y9.18 E219.366
G1 X0.31 Y9.75 E219.407
G1 X-0.7 Y10.96 E219.505
G1 X-0.88 Y11.14 E219.521
G1 X-1.55 Y11.7 E219.576
G1 X-2.77 Y12.54 E219.668
G1 X-3.55 Y12.91 E219.722
G1 X-3.93 Y13.06 E219.747
G1 X-4.95 Y13.38 E219.814
G1 X-5.56 Y13.52 E219.853
G1 X-6.79 Y13.67 E219.931
G1 X-6.84 Y13.68
G1 X-8.52 Y13.59
G1 X-8.76 Y13.55
G1 X-9.81 Y13.29
G1 X-6.89 Y12.68 F12000
G1 X-6.6 Y12.39
; TYPE:FILL
G1 Y11.43 E219.99 F1216
G1 X-8.25 Y10.48 E220.109
G1 X-9.9 Y11.43 E220.228
G1 X-11.55 Y10.48 E220.347
G1 X-12.04 Y10.76 E220.382
G1 X-11.55 Y10.48 F12000
G1 Y10.48 E220.382 F1216
G1 Y8.57 E220.501
G1 X-9.9 Y7.62 E220.62
G1 X-8.25 Y8.57 E220.738
G1 X-6.6 Y7.62 E220.857
G1 X-4.95 Y8.57 E220.976
G1 X-3.3 Y7.62 E221.095
G1 Y7.62 E221.095
G1 Y5.72 E221.214
G1 X-1.65 Y4.76 E221.332
G1 X0 Y5.72 E221.451
G1 Y7.62 E221.57
G1 Y7.62 E221.57
G1 X-1.65 Y8.57 E221.689
G1 X-3.3 Y7.62 E221.808
G1 X-4.95 Y8.57 F12000
G1 Y10.48 E221.926 F1216
G1 Y10.48 E221.927
G1 X-6.6 Y11.43 E222.045
G1 X-4.95 Y10.48 F12000
G1 X-3.34 Y11.41 E222.161 F1216
G1 X-1.65 Y10.14 F12000
G1 Y8.57 E222.259 F1216
G1 X0 Y7.62 F12000
G1 X0.06 Y7.66 E222.263 F1216
G1 X0 Y5.72 F12000
G1 X0.65 Y5.34 E222.31 F1216
G1 X-1.65 Y4.76 F12000
G1 Y4.76 E222.31 F1216
G1 Y2.86 E222.429
G1 X-3.3 Y1.91 E222.548
G1 X-4.95 Y2.86 E222.666
G1 Y4.76 E222.785
G1 Y4.76 E222.785
G1 X-3.3 Y5.72 E222.904
G1 X-4.95 Y4.76 F12000
G1 X-6.6 Y5.72 E223.023 F1216
G1 X-8.25 Y4.76 E223.142
G1 X-9.9 Y5.72 E223.26
G1 X-11.55 Y4.76 E223.379
G1 X-13.2 Y5.72 E223.498
G1 Y7.62 E223.617
G1 Y7.62 E223.617
G1 X-11.55 Y8.57 E223.736
G1 X-13.2 Y7.62 F12000
G1 X-14.23 Y8.21 E223.81 F1216
G1 X-13.2 Y5.72 F12000
G1 X-14.85 Y4.76 E223.928 F1216
G1 X-15.15 Y4.94 E223.95
G1 X-14.85 Y4.76 F12000
G1 Y4.76 E223.95 F1216
G1 Y2.86 E224.069
G1 X-13.2 Y1.91 E224.188
G1 Y1.91 E224.188
G1 Y0 E224.306
G1 X-11.55 Y-0.95 E224.425
G1 X-9.9 Y0 E224.544
G1 Y1.91 E224.663
G1 Y1.91 E224.663
G1 X-11.55 Y2.86 E224.782
G1 Y4.76 E224.901
G1 Y4.76 E224.901
G1 X-9.9 Y5.72 F12000
G1 Y7.62 E225.019 F1216
G1 Y7.62 E225.019
G1 X-8.25 Y8.57 F12000
G1 Y10.48 E225.138 F1216
G1 Y10.48 E225.138
G1 X-9.9 Y11.43 F12000
G1 Y11.94 E225.17 F1216
G1 X-6.6 Y7.62 F12000
G1 Y7.62 E225.17 F1216
G1 Y5.72 E225.289
G1 X-8.25 Y4.76 F12000
G1 Y4.76 E225.289 F1216
G1 Y2.86 E225.408
G1 X-6.6 Y1.91 E225.526
G1 Y1.91 E225.526
G1 Y0 E225.645
G1 X-8.25 Y-0.95 E225.764
G1 X-9.9 Y0 E225.883
G1 X-11.55 Y-0.95 F12000
G1 Y-0.95 E225.883 F1216
G1 Y-2.23 E225.963
G1 X-8.99 Y-3.28 F12000
G1 X-8.25 Y-2.86 E226.016 F1216
G1 X-7.22 Y-3.46 E226.09
G1 X-8.25 Y-2.86 F12000
G1 Y-0.95 E226.209 F1216
G1 Y-0.95 E226.209
G1 X-6.6 Y0 F12000
G1 X-4.95 Y-0.95 E226.328 F1216
G1 X-3.3 Y0 E226.447
G1 Y1.91 E226.566
G1 Y1.91 E226.566
G1 X-4.95 Y2.86 F12000
G1 X-6.6 Y1.91 E226.684 F1216
G1 X-8.25 Y2.86 F12000
G1 X-9.9 Y1.91 E226.803 F1216
G1 X-11.55 Y2.86 F12000
G1 X-13.2 Y1.91 E226.922 F1216
G1 X-14.85 Y2.86 F12000
G1 X-14.97 Y2.79 E226.931 F1216
G1 X-13.2 Y0 F12000
G1 X-13.61 Y-0.24 E226.96 F1216
G1 X-5.74 Y-3.31 F12000
G1 X-4.95 Y-2.86 E227.017 F1216
G1 Y-0.95 E227.136
G1 Y-0.95 E227.136
G1 X-3.3 Y0 F12000
G1 X-1.65 Y-0.95 E227.254 F1216
G1 Y-0.95 E227.254
G1 Y-1.21 E227.27
G1 Y-0.95 F12000
G1 X-1.11 Y-0.64 E227.309 F1216
G1 X0 Y1.13 F12000
G1 Y1.91 E227.358 F1216
G1 Y1.91 E227.358
G1 X-1.65 Y2.86 E227.477
G1 X0 Y1.91 F12000
G1 X0.38 Y2.13 E227.504 F1216
G1 X-4.61 Y-3.06 F12000
G1 X-4.95 Y-2.86 E227.529 F1216
G1 E225.029 F6000
G1 Z2.3
G1 X-0.02 Y12.06 F12000
G1 X-0.62 Y12.5
; TYPE:SUPPORT
G1 Z1.8
G1 E227.529 F6000
G1 X-0.4 E227.542 F1216
G1 X-0.59 Y12.69 F12000
G1 X-2 Y14.47
G1 X-1.13 Y15
G1 X-5.25 E227.799 F1216
G1 X-9.37 E228.056
G1 X-13.48 E228.313
G1 X-12.55 F12000
G1 X-11.56 Y16.32
G1 X-11.66 Y17.5
G1 X-7.46 E228.574 F1216
G1 X-3.27 E228.836
G1 E226.336 F6000
G1 Z2.3
G1 X2.37 Y10.4 F12000
G1 X1.6 Y10
G1 Z1.8
G1 E228.836 F6000
G1 X3.8 E228.973 F1216
G1 X2.8 Y9.78 F12000
G1 X3.39 Y8.12
G1 X4.37 Y7.5
G1 X2.74 E229.074 F1216
G1 X3.29 Y7.72 F12000
G1 X3.64 Y5.88
G1 X3.19 Y5
G1 X4.33 E229.146 F1216
G1 X3.78 Y5.22 F12000
G1 X3.74 Y2.5
G1 X3.25 Y2.5 E229.176 F1216
G1 X-6.96 Y5.27 F12000
G1 X-17.17 Y8.04
G1 X-17.18 Y7.5
G1 X-18.06 E229.231 F1216
G1 X-17.65 Y7.46 F12000
G1 X-18.38 Y5
G1 X-17.65 E229.277 F1216
G1 E226.777 F6000
G1 Z2.3
G1 X-13.17 Y-5 F12000
G1 Z1.8
G1 E229.277 F6000
G1 X-11.58 E229.376 F1216
G1 X-11.44 Y-5.99 F12000
G1 X-10.41 Y-7.5
G1 X-7.72 Y-7.5 E229.544 F1216
G1 X-5.03 E229.711
G1 X-5.46 Y-6.8 F12000
G1 X-3.3 Y-5.91
G1 X-2.91 Y-5
G1 X-1.38 E229.807 F1216
G1 E227.307 F6000
G1 Z2.3
G1 X-5.54 Y-11.1 F12000
G1 X-4.4 Y-10
G1 Z1.8
G1 E229.807 F6000
G1 X-4.57 E229.817 F1216
G1 X-5.51 Y-10.94 F12000
G1 X-4.72 Y-10
G1 X-9.62 E230.122 F1216
G1 X-9.05 Y-10.56 F12000
G1 X-9.03 Y-11.67
G1 X-10.14 Y-12.5
G1 X-7.08 E230.313 F1216
G1 X-4.03 E230.504
G1 X-5.16 F12000
G1 X-5.35 Y-14.74
G1 X-4.31 Y-15
G1 X-7.07 E230.676 F1216
G1 X-9.83 E230.848
G1 X-8.89 F12000
G1 X-8.36 Y-17.08
G1 X-9.3 Y-17.5
G1 X-4.48 E231.149 F1216
G1 X-5.42 Y-17.12 F12000
G1 X-4.94 Y-20
G1 X-3.81
G1 X-6.61 E231.323 F1216
G1 X-9.41 E231.498
G1 X-8.47 Y-19.81 F12000
G1 X-8.14 Y-21.67
G1 X-8.63 Y-22.5
G1 X-4.41 E231.761 F1216
; Layer Change GCode
; LAYER:6
; LAYER_HEIGHT:0.3
; TYPE:FILL
M400
M106 S252
G1 E229.261 F6000
G1 Z2.3
G1 X-5.22 Y-10.77 Z2.4 F12000
G1 X-6.03 Y0.96 Z2.5
G1 X-6.84 Y12.7 Z2.6
; TYPE:WALL-INNER
G1 Z2.1
G1 E231.761 F6000
G1 X-8.44 Y12.59 E231.861 F1413
G1 X-9.45 Y12.38 E231.926
G1 X-9.8 Y12.28 E231.948
G1 X-10.59 Y11.97 E232.001
G1 X-10.77 Y11.89 E232.013
G1 X-11.29 Y11.62 E232.05
G1 X-11.63 Y11.42 E232.075
G1 X-12.7 Y10.64 E232.157
G1 X-13.39 Y9.89 E232.221
G1 X-13.8 Y9.4 E232.261
G1 X-14.01 Y9.11 E232.283
G1 X-14.64 Y8.07 E232.359
G1 X-15.04 Y7.03 E232.428
G1 X-15.12 Y6.77 E232.446
G1 X-15.33 Y5.87 E232.503
G1 X-15.43 Y5.22 E232.544
G1 X-15.46 Y4.69 E232.577
G1 X-15.44 Y4.09 E232.614
G1 X-15.37 Y3.34 E232.662
G1 X-15.22 Y2.65 E232.706
G1 X-15.04 Y1.93 E232.752
G1 X-14.61 Y0.79 E232.828
G1 X-13.76 Y-0.52 E232.925
G1 X-12.77 Y-1.64 E233.018
G1 X-12.14 Y-2.15 E233.069
G1 X-11.83 Y-2.37 E233.092
G1 X-11.28 Y-2.7 E233.133
G1 X-10.44 Y-3.12 E233.191
G1 X-10.29 Y-3.18 E233.201
G1 X-8.9 Y-3.6 E233.292
G1 X-8.46 Y-3.66 E233.319
G1 X-7.66 Y-3.74 E233.37
G1 X-6.32 Y-3.73 E233.453
G1 X-6.25 Y-3.72 E233.457
G1 X-4.99 Y-3.45 E233.538
G1 X-4.53 Y-3.3 E233.568
G1 X-3.6 Y-2.93 E233.631
G1 X-3.32 Y-2.78 E233.651
G1 X-2.51 Y-2.27 E233.71
G1 X-1.82 Y-1.74 E233.765
G1 X-1.54 Y-1.5 E233.787
G1 X-1.06 Y-1 E233.831
G1 X-0.8 Y-0.69 E233.856
G1 X-0.19 Y0.17 E233.921
G1 X-0.15 Y0.23 E233.926
G1 X0.45 Y1.45 E234.011
G1 X0.55 Y1.7 E234.028
G1 X0.77 Y2.44 E234.076
G1 X0.86 Y2.89 E234.104
G1 X0.98 Y3.58 E234.148
G1 X1 Y4.72 E234.219
G1 X0.94 Y5.53 E234.27
G1 X0.64 Y6.8 E234.351
G1 X0.38 Y7.62 E234.405
G1 X0.28 Y7.84 E234.42
G1 X-0.29 Y8.89 E234.494
G1 X-0.59 Y9.31 E234.526
G1 X-1.24 Y10.09 E234.59
G1 X-1.84 Y10.67 E234.642
G1 X-2.11 Y10.92 E234.665
G1 X-2.91 Y11.45 E234.725
G1 X-3.35 Y11.71 E234.757
G1 X-3.88 Y11.98 E234.793
G1 X-4.39 Y12.19 E234.828
G1 X-5.43 Y12.52 E234.896
G1 X-6.79 Y12.69 E234.981
G1 X-6.84 Y12.7
G1 X-6.83 Y13.2 F12000
G1 X-8.5 Y13.08 E235.086 F1413
G1 X-9.58 Y12.87 E235.155
G1 X-9.96 Y12.75 E235.179
G1 X-10.77 Y12.44 E235.234
G1 X-11.01 Y12.33 E235.25
G1 X-11.51 Y12.07 E235.285
G1 X-11.91 Y11.84 E235.314
G1 X-13.03 Y11.02 E235.401
G1 X-13.76 Y10.23 E235.468
G1 X-14.2 Y9.7 E235.511
G1 X-14.43 Y9.39 E235.535
G1 X-15.09 Y8.29 E235.615
G1 X-15.52 Y7.19 E235.688
G1 X-15.61 Y6.89 E235.708
G1 X-15.82 Y5.97 E235.767
G1 X-15.93 Y5.28 E235.81
G1 X-15.96 Y4.69 E235.847
G1 X-15.94 Y4.07 E235.886
G1 X-15.87 Y3.26 E235.936
G1 X-15.71 Y2.53 E235.983
G1 X-15.52 Y1.78 E236.031
G1 X-15.06 Y0.57 E236.112
G1 X-14.15 Y-0.83 E236.216
G1 X-13.11 Y-2 E236.314
G1 X-12.46 Y-2.54 E236.367
G1 X-12.11 Y-2.79 E236.393
G1 X-11.51 Y-3.15 E236.437
G1 X-10.64 Y-3.58 E236.497
G1 X-10.46 Y-3.66 E236.51
G1 X-9.01 Y-4.09 E236.604
G1 X-8.52 Y-4.16 E236.635
G1 X-7.68 Y-4.24 E236.687
G1 X-6.29 Y-4.23 E236.774
G1 X-6.18 Y-4.22 E236.781
G1 X-4.86 Y-3.94 E236.865
G1 X-4.36 Y-3.77 E236.898
G1 X-3.39 Y-3.39 E236.963
G1 X-3.07 Y-3.22 E236.986
G1 X-2.22 Y-2.68 E237.049
G1 X-1.5 Y-2.13 E237.105
G1 X-1.2 Y-1.87 E237.13
G1 X-0.68 Y-1.33 E237.176
G1 X-0.4 Y-0.99 E237.204
G1 X0.23 Y-0.1 E237.272
G1 X0.29 Y0 E237.279
G1 X0.9 Y1.23 E237.365
G1 X1.02 Y1.54 E237.386
G1 X1.25 Y2.33 E237.437
G1 X1.34 Y2.76 E237.464
G1 X1.48 Y3.54 E237.514
G1 X1.5 Y4.74 E237.588
G1 X1.44 Y5.6 E237.643
G1 X1.13 Y6.92 E237.727
G1 X0.85 Y7.8 E237.785
G1 X0.73 Y8.07 E237.803
G1 X0.14 Y9.14 E237.879
G1 X-0.2 Y9.62 E237.916
G1 X-0.88 Y10.43 E237.982
G1 X-1.49 Y11.03 E238.035
G1 X-1.8 Y11.31 E238.061
G1 X-2.65 Y11.88 E238.125
G1 X-3.11 Y12.16 E238.159
G1 X-3.65 Y12.42 E238.196
G1 X-4.22 Y12.66 E238.234
G1 X-5.32 Y13.01 E238.306
G1 X-6.78 Y13.19 E238.398
G1 X-6.83 Y13.2
G1 X-6.81 Y13.7 F12000
; TYPE:WALL-OUTER
G1 X-8.57 Y13.58 E238.508 F1060
G1 X-9.69 Y13.36 E238.579
G1 X-10.12 Y13.22 E238.607
G1 X-10.97 Y12.9 E238.664
G1 X-11.22 Y12.79 E238.681
G1 X-11.76 Y12.5 E238.719
G1 X-12.18 Y12.26 E238.749
G1 X-13.37 Y11.39 E238.841
G1 X-14.15 Y10.55 E238.912
G1 X-14.59 Y10.01 E238.956
G1 X-14.85 Y9.66 E238.983
G1 X-15.54 Y8.51 E239.067
G1 X-15.99 Y7.36 E239.144
G1 X-16.09 Y7.03 E239.165
G1 X-16.31 Y6.05 E239.228
G1 X-16.42 Y5.33 E239.273
G1 X-16.46 Y4.69 E239.313
G1 X-16.44 Y4.04 E239.354
G1 X-16.36 Y3.19 E239.407
G1 X-16.19 Y2.41 E239.457
G1 X-16 Y1.63 E239.507
G1 X-15.51 Y0.34 E239.593
G1 X-14.55 Y-1.13 E239.703
G1 X-13.46 Y-2.36 E239.805
G1 X-12.75 Y-2.94 E239.862
G1 X-12.38 Y-3.21 E239.89
G1 X-11.75 Y-3.58 E239.936
G1 X-10.86 Y-4.03 E239.999
G1 X-10.63 Y-4.13 E240.014
G1 X-9.12 Y-4.58 E240.113
G1 X-8.57 Y-4.66 E240.147
G1 X-7.71 Y-4.74 E240.201
G1 X-6.26 Y-4.73 E240.292
G1 X-6.09 Y-4.71 E240.302
G1 X-4.73 Y-4.42 E240.389
G1 X-4.18 Y-4.24 E240.425
G1 X-3.19 Y-3.85 E240.491
G1 X-2.81 Y-3.64 E240.518
G1 X-1.93 Y-3.09 E240.583
G1 X-1.19 Y-2.52 E240.641
G1 X-0.86 Y-2.23 E240.669
G1 X-0.3 Y-1.66 E240.719
G1 X0 Y-1.29 E240.748
G1 X0.65 Y-0.38 E240.818
G1 X0.73 Y-0.25 E240.827
G1 X1.37 Y1.04 E240.917
G1 X1.5 Y1.38 E240.94
G1 X1.74 Y2.2 E240.993
G1 X1.84 Y2.69 E241.024
G1 X1.98 Y3.49 E241.075
G1 X2 Y4.75 E241.154
G1 X1.93 Y5.68 E241.212
G1 X1.61 Y7.06 E241.3
G1 X1.32 Y7.98 E241.36
G1 X1.18 Y8.29 E241.381
G1 X0.56 Y9.41 E241.461
G1 X0.21 Y9.92 E241.5
G1 X-0.52 Y10.78 E241.57
G1 X-1.14 Y11.39 E241.625
G1 X-1.49 Y11.71 E241.654
G1 X-2.38 Y12.3 E241.721
G1 X-2.87 Y12.6 E241.756
G1 X-3.46 Y12.88 E241.797
G1 X-4.04 Y13.13 E241.836
G1 X-5.22 Y13.5 E241.913
G1 X-6.76 Y13.69 E242.01
G1 X-6.81 Y13.7
G1 X-8.57 Y13.58
G1 X-9.69 Y13.36
G1 X-9.78 Y13.33
G1 X-6.84 Y12.7 F12000
G1 X-6.6 Y11.54
; TYPE:FILL
G1 Y11.43 E242.017 F1413
G1 X-8.25 Y10.48 E242.136
G1 X-9.36 Y11.12 E242.216
G1 X-8.25 Y10.48 F12000
G1 Y8.57 E242.335 F1413
G1 X-6.6 Y7.62 E242.454
G1 X-4.95 Y8.57 E242.572
G1 X-3.3 Y7.62 E242.691
G1 X-1.65 Y8.57 E242.81
G1 Y8.81 E242.824
G1 Y8.57 F12000
G1 X-1.37 Y8.41 E242.845 F1413
G1 X-3.3 Y7.62 F12000
G1 Y5.72 E242.964 F1413
G1 X-4.95 Y4.76 E243.083
G1 X-6.6 Y5.72 E243.201
G1 X-8.25 Y4.76 E243.32
G1 X-9.9 Y5.72 E243.439
G1 X-11.55 Y4.76 E243.558
G1 X-13.2 Y5.72 E243.676
G1 Y7.62 E243.795
G1 X-11.55 Y8.57 E243.914
G1 X-9.9 Y7.62 E244.033
G1 X-8.25 Y8.57 E244.152
G1 X-6.6 Y7.62 F12000
G1 Y5.72 E244.271 F1413
G1 X-4.95 Y4.76 F12000
G1 Y2.86 E244.389 F1413
G1 X-3.3 Y1.91 E244.508
G1 X-1.65 Y2.86 E244.627
G1 Y4.76 E244.746
G1 X-3.3 Y5.72 E244.865
G1 X-1.65 Y4.76 F12000
G1 X-0.27 Y5.56 E244.964 F1413
G1 X-1.65 Y4.76 F12000
G1 Y2.86
G1 X-0.52 Y2.21 E245.045 F1413
G1 X-3.3 Y1.91 F12000
G1 Y0 E245.164 F1413
G1 X-4.95 Y-0.95 E245.283
G1 X-6.6 Y0 E245.402
G1 X-8.25 Y-0.95 E245.521
G1 X-9.9 Y0 E245.639
G1 Y1.91 E245.758
G1 X-11.55 Y2.86 E245.877
G1 Y4.76 E245.996
G1 Y4.76 E245.996
G1 X-13.2 Y5.72 F12000
G1 X-14.32 Y5.07 E246.076 F1413
G1 X-13.96 Y2.35 F12000
G1 X-13.2 Y1.91 E246.131 F1413
G1 X-11.55 Y2.86 E246.25
G1 X-9.9 Y1.91 F12000
G1 X-8.25 Y2.86 E246.369 F1413
G1 Y4.76 E246.487
G1 Y2.86 F12000
G1 X-6.6 Y1.91 E246.606 F1413
G1 X-4.95 Y2.86 E246.725
G1 X-6.6 Y1.91 F12000
G1 Y0 E246.844 F1413
G1 X-4.95 Y-0.95 F12000
G1 Y-2.21 E246.922 F1413
G1 X-3.3 Y0 F12000
G1 X-2.27 Y-0.59 E246.996 F1413
G1 X-8.25 Y-0.95 F12000
G1 Y-2.52 E247.094 F1413
G1 X-9.9 Y0 F12000
G1 X-11.55 Y-0.95 E247.212 F1413
G1 X-12.3 Y-0.52 E247.266
G1 X-11.55 Y-0.95 F12000
G1 Y-1.16 E247.279 F1413
G1 X-13.2 Y0.61 F12000
G1 Y1.91 E247.36 F1413
G1 Y1.91 E247.36
G1 X-9.9 F12000
G1 Y5.72
G1 Y7.62 E247.478 F1413
G1 Y7.62 E247.479
G1 X-11.55 Y8.57 F12000
G1 Y9.93 E247.563 F1413
G1 X-13.2 Y7.62 F12000
G1 X-13.29 Y7.67 E247.576 F1413
G1 X-13.2 Y7.62 E247.583
G1 X-6.6 Y11.43 F12000
G1 X-4.95 Y10.48 E247.702 F1413
G1 X-4.26 Y10.88 E247.751
G1 X-4.95 Y10.48 F12000
G1 Y8.57 E247.87 F1413
G1 E245.37 F6000
G1 Z2.6
G1 X0.5 Y6.3 F12000
; TYPE:FILL
G1 Z2.1
G1 E247.87 F6000
G1 Y2.43 E248.112 F1413
G1 X0 Y1.1 F12000
G1 Y4.47 E248.321 F1413
G1 Y7.83 E248.531
G1 E246.031 F6000
G1 Z2.6
G1 X-0.5 Y2.28 F12000
G1 Z2.1
G1 E248.531 F6000
G1 X-0.5 Y0.17 E248.663 F1413
G1 X-1 Y-0.54 F12000
G1 X-1 Y1.01 E248.759 F1413
G1 X-1.5 Y0.32 F12000
G1 Y-1.1 E248.848 F1413
G1 X-2 Y-1.56 F12000
G1 Y-0.27 E248.929 F1413
G1 X-2.5 Y-0.82 F12000
G1 Y-1.95 E248.999 F1413
G1 X-3 Y-2.29 F12000
G1 Y-1.19 E249.067 F1413
G1 X-3.5 Y-1.56 F12000
G1 Y-2.6 E249.132 F1413
G1 X-4 Y-2.82 F12000
G1 Y-1.81 E249.195 F1413
G1 X-4.5 Y-2.02 F12000
G1 Y-3.02 E249.257 F1413
G1 X-5 Y-3.19 F12000
G1 Y-2.23 E249.317 F1413
G1 X-5.5 Y-2.42 F12000
G1 Y-3.3 E249.372 F1413
G1 X-6 Y-3.41 F12000
G1 Y-2.54 E249.426 F1413
G1 X-6.5 Y-2.61 F12000
G1 Y-3.48 E249.481 F1413
G1 X-7 Y-3.48 F12000
G1 Y-2.63 E249.534 F1413
G1 X-7.5 Y-2.62 F12000
G1 Y-3.48 E249.588 F1413
G1 X-8 Y-3.45 F12000
G1 Y-2.55 E249.644 F1413
G1 X-8.5 Y-2.48 F12000
G1 Y-3.4 E249.701 F1413
G1 X-9 Y-3.31 F12000
G1 Y-2.41 E249.757 F1413
G1 X-9.5 Y-2.26 F12000
G1 Y-3.16 E249.813 F1413
G1 X-10 Y-3.01 F12000
G1 Y-2.04 E249.874 F1413
G1 X-10.5 Y-1.82 F12000
G1 Y-2.8 E249.935 F1413
G1 X-11 Y-2.56 F12000
G1 Y-1.59 E249.995 F1413
G1 X-11.5 Y-1.2 F12000
G1 Y-2.28 E250.063 F1413
G1 X-12 Y-1.94 F12000
G1 Y-0.81 E250.134 F1413
G1 X-12.5 Y-0.33 F12000
G1 Y-1.54 E250.209 F1413
G1 X-13 Y-1 F12000
G1 Y0.32 E250.291 F1413
G1 X-13.5 Y-0.43 F12000
G1 Y1.16 E250.391 F1413
G1 X-14 Y0.31 F12000
G1 Y2.45 E250.524 F1413
G1 E248.024 F6000
G1 Z2.6
G1 X-0.5 Y6.65 F12000
G1 Z2.1
G1 E250.524 F6000
G1 Y8.75 E250.654 F1413
G1 X-1 Y9.41 F12000
G1 Y7.76 E250.757 F1413
G1 X-1.5 Y8.6 F12000
G1 Y9.99 E250.844 F1413
G1 X-2 Y10.48 F12000
G1 Y9.26 E250.92 F1413
G1 X-2.5 Y9.71 F12000
G1 Y10.88 E250.993 F1413
G1 X-3 Y11.21 F12000
G1 Y10.12 E251.061 F1413
G1 X-3.5 Y10.44 F12000
G1 Y11.51 E251.128 F1413
G1 X-4 Y11.76 F12000
G1 Y10.77 E251.189 F1413
G1 X-4.5 Y10.97 F12000
G1 Y11.97 E251.251 F1413
G1 X-5 Y12.12 F12000
G1 Y11.16 E251.311 F1413
G1 X-5.5 Y11.35 F12000
G1 Y12.27 E251.368 F1413
G1 X-6 Y12.34 F12000
G1 Y11.44 E251.424 F1413
G1 X-6.5 Y11.52 F12000
G1 Y12.4 E251.479 F1413
G1 X-7 Y12.44 F12000
G1 Y11.55 E251.534 F1413
G1 X-7.5 Y11.55 F12000
G1 Y12.4 E251.587 F1413
G1 X-8 Y12.37 F12000
G1 Y11.52 E251.64 F1413
G1 X-8.5 Y11.43 F12000
G1 Y12.32 E251.695 F1413
G1 X-9 Y12.22 F12000
G1 Y11.25 E251.755 F1413
G1 X-9.5 Y11.07 F12000
G1 Y12.11 E251.82 F1413
G1 X-10 Y11.93 F12000
G1 Y10.89 E251.885 F1413
G1 X-10.5 Y10.69 F12000
G1 Y11.73 E251.95 F1413
G1 X-11 Y11.49 F12000
G1 Y10.34 E252.022 F1413
G1 X-11.5 Y9.97 F12000
G1 Y11.21 E252.099 F1413
G1 X-12 Y10.84 F12000
G1 Y9.6 E252.176 F1413
G1 X-12.5 Y9.06 F12000
G1 Y10.48 E252.264 F1413
G1 X-13 Y9.94 F12000
G1 Y8.41 E252.36 F1413
G1 X-13.5 Y7.51 F12000
G1 Y9.37 E252.476 F1413
G1 X-14 Y8.64 F12000
G1 X-14 Y6.48 E252.61 F1413
G1 X-14.5 Y7.73 F12000
G1 X-14.5 Y4.47 E252.814 F1413
G1 Y1.21 E253.017
G1 X-15 Y2.84 F12000
G1 Y6.19 E253.225 F1413
G1 E250.725 F6000
G1 Z2.6
G1 X-14.15 Y12.38 F12000
G1 X-12.98 Y14.24
G1 X-13.48 Y15
; TYPE:SUPPORT
G1 Z2.1
G1 E253.225 F6000
G1 X-9.37 E253.482 F1413
G1 X-5.25 E253.739
G1 X-1.13 E253.996
G1 X-2.06 Y14.81 F12000
G1 X-3.88 Y16.46
G1 X-3.27 Y17.5
G1 X-7.46 E254.257 F1413
G1 X-11.66 E254.519
G1 E252.019 F6000
G1 Z2.6
G1 X1.89 Y11.11 F12000
G1 X2.37 Y10.4
G1 X1.67 Y10
G1 Z2.1
G1 E254.519 F6000
G1 X3.8 E254.652 F1413
G1 X2.8 Y9.78 F12000
G1 X3.5 Y8.01
G1 X4.37 Y7.5
G1 X2.74 E254.753 F1413
G1 X3.4 F12000
G1 X3.2 Y5
G1 X4.33 E254.824 F1413
G1 X3.78 Y5.22 F12000
G1 X3.74 Y2.5
G1 X3.25 Y2.5 E254.855 F1413
G1 X-6.96 Y5.3 F12000
G1 X-17.16 Y8.1
G1 X-18.01 Y5.5
G1 X-17.68 Y5
G1 X-18.38 E254.899 F1413
G1 X-18.05 Y5.26 F12000
G1 X-18.06 Y7.5
G1 X-17.25 E254.95 F1413
G1 E252.45 F6000
G1 Z2.6
G1 X-13.17 Y-5 F12000
G1 Z2.1
G1 E254.95 F6000
G1 X-11.66 E255.044 F1413
G1 X-12.08 Y-5.56 F12000
G1 X-10.41 Y-7.5
G1 X-7.72 Y-7.5 E255.212 F1413
G1 X-5.03 E255.38
G1 X-5.31 Y-6.81 F12000
G1 X-3.21 Y-5.76
G1 X-2.8 Y-5
G1 X-1.38 E255.468 F1413
G1 E252.968 F6000
G1 Z2.6
G1 X-5.54 Y-11.1 F12000
G1 X-4.4 Y-10
G1 Z2.1
G1 E255.468 F6000
G1 X-4.57 E255.478 F1413
G1 X-5.51 Y-10.94 F12000
G1 X-4.72 Y-10
G1 X-9.62 E255.783 F1413
G1 X-9.05 Y-10.56 F12000
G1 X-9.03 Y-11.67
G1 X-10.14 Y-12.5
G1 X-7.08 E255.974 F1413
G1 X-4.03 E256.165
G1 X-5.16 F12000
G1 X-5.35 Y-14.74
G1 X-4.31 Y-15
G1 X-7.07 E256.337 F1413
G1 X-9.83 E256.509
G1 X-8.89 F12000
G1 X-8.36 Y-17.08
G1 X-9.3 Y-17.5
G1 X-4.48 E256.81 F1413
G1 X-5.42 Y-17.12 F12000
G1 X-4.94 Y-20
G1 X-3.81
G1 X-6.61 E256.984 F1413
G1 X-9.41 E257.159
G1 X-8.47 Y-19.81 F12000
G1 X-8.14 Y-21.67
G1 X-8.63 Y-22.5
G1 X-4.41 E257.422 F1413
; Layer Change GCode
; LAYER:7
; LAYER_HEIGHT:0.3
; TYPE:FILL
G1 E254.922 F6000
G1 Z2.6
G1 X-5.23 Y-10.78 Z2.7 F12000
G1 X-6.05 Y0.94 Z2.8
G1 X-6.88 Y12.66 Z2.9
; TYPE:WALL-INNER
G1 Z2.4
G1 E257.422 F6000
G1 X-8.49 Y12.57 E257.523 F1480
G1 X-9.66 Y12.3 E257.598
G1 X-9.81 Y12.25 E257.608
G1 X-10.62 Y11.93 E257.662
G1 X-10.85 Y11.81 E257.678
G1 X-11.86 Y11.24 E257.75
G1 X-12.15 Y11.03 E257.773
G1 X-12.77 Y10.51 E257.824
G1 X-13.67 Y9.56 E257.905
G1 X-13.83 Y9.34 E257.922
G1 X-14.64 Y7.98 E258.021
G1 X-14.9 Y7.34 E258.064
G1 X-15.09 Y6.82 E258.098
G1 X-15.38 Y5.53 E258.181
G1 X-15.42 Y4.39 E258.252
G1 X-15.34 Y3.14 E258.33
G1 X-15.02 Y1.89 E258.41
G1 X-14.62 Y0.93 E258.475
G1 X-14.02 Y-0.13 E258.552
G1 X-13.91 Y-0.3 E258.564
G1 X-12.75 Y-1.62 E258.674
G1 X-12.05 Y-2.15 E258.728
G1 X-11.18 Y-2.74 E258.794
G1 X-10.98 Y-2.86 E258.808
G1 X-10.14 Y-3.19 E258.865
G1 X-8.89 Y-3.58 E258.946
G1 X-8.32 Y-3.66 E258.982
G1 X-7.61 Y-3.73 E259.026
G1 X-7.42 Y-3.74 E259.039
G1 X-6.64 Y-3.71 E259.087
G1 X-5.52 Y-3.58 E259.158
G1 X-5.45 Y-3.56 E259.162
G1 X-4.17 Y-3.14 E259.246
G1 X-3.79 Y-3 E259.271
G1 X-3.42 Y-2.79 E259.298
G1 X-2.26 Y-2.08 E259.383
G1 X-1.39 Y-1.34 E259.454
G1 X-0.61 Y-0.4 E259.53
G1 X-0.48 Y-0.22 E259.544
G1 X0.21 Y0.95 E259.629
G1 X0.58 Y1.85 E259.689
G1 X0.61 Y1.94 E259.695
G1 X0.95 Y3.59 E259.8
G1 X0.97 Y3.81 E259.814
G1 X0.99 Y4.54 E259.86
G1 X0.94 Y5.04 E259.891
G1 X0.87 Y5.67 E259.93
G1 X0.49 Y7.28 E260.034
G1 X0.07 Y8.22 E260.098
G1 X-0.04 Y8.42 E260.112
G1 X-1.09 Y9.92 E260.226
G1 X-1.91 Y10.69 E260.296
G1 X-2.43 Y11.13 E260.339
G1 X-3.5 Y11.77 E260.417
G1 X-4.47 Y12.17 E260.482
G1 X-5.09 Y12.38 E260.523
G1 X-5.53 Y12.5 E260.551
G1 X-6.25 Y12.6 E260.596
G1 X-6.83 Y12.66 E260.633
G1 X-6.88 Y12.66
G1 X-6.87 Y13.17 F12000
G1 X-8.56 Y13.07 E260.739 F1480
G1 X-9.79 Y12.78 E260.817
G1 X-9.97 Y12.73 E260.829
G1 X-10.83 Y12.38 E260.887
G1 X-11.08 Y12.26 E260.904
G1 X-12.13 Y11.66 E260.979
G1 X-12.46 Y11.42 E261.005
G1 X-13.11 Y10.87 E261.058
G1 X-14.04 Y9.89 E261.143
G1 X-14.25 Y9.61 E261.164
G1 X-15.09 Y8.21 E261.266
G1 X-15.37 Y7.51 E261.313
G1 X-15.57 Y6.96 E261.35
G1 X-15.88 Y5.6 E261.437
G1 X-15.92 Y4.37 E261.513
G1 X-15.83 Y3.06 E261.595
G1 X-15.5 Y1.73 E261.681
G1 X-15.08 Y0.71 E261.749
G1 X-14.44 Y-0.4 E261.829
G1 X-14.31 Y-0.6 E261.844
G1 X-13.09 Y-1.99 E261.959
G1 X-12.35 Y-2.55 E262.017
G1 X-11.44 Y-3.17 E262.086
G1 X-11.19 Y-3.31 E262.104
G1 X-10.31 Y-3.66 E262.163
G1 X-8.99 Y-4.07 E262.249
G1 X-8.37 Y-4.16 E262.288
G1 X-7.65 Y-4.23 E262.333
G1 X-7.44 Y-4.24 E262.346
G1 X-6.6 Y-4.21 E262.399
G1 X-5.43 Y-4.07 E262.472
G1 X-5.32 Y-4.05 E262.479
G1 X-4.01 Y-3.62 E262.565
G1 X-3.58 Y-3.45 E262.594
G1 X-3.14 Y-3.21 E262.625
G1 X-1.97 Y-2.49 E262.711
G1 X-1.03 Y-1.69 E262.788
G1 X-0.21 Y-0.7 E262.868
G1 X-0.05 Y-0.48 E262.885
G1 X0.66 Y0.72 E262.972
G1 X1.05 Y1.69 E263.037
G1 X1.09 Y1.81 E263.045
G1 X1.44 Y3.52 E263.154
G1 X1.47 Y3.78 E263.17
G1 X1.49 Y4.56 E263.219
G1 X1.45 Y5.06 E263.25
G1 X1.36 Y5.76 E263.294
G1 X0.97 Y7.44 E263.402
G1 X0.52 Y8.44 E263.47
G1 X0.39 Y8.69 E263.488
G1 X-0.7 Y10.24 E263.606
G1 X-1.59 Y11.08 E263.682
G1 X-2.14 Y11.54 E263.727
G1 X-3.27 Y12.22 E263.809
G1 X-4.29 Y12.64 E263.878
G1 X-4.94 Y12.86 E263.92
G1 X-5.43 Y12.99 E263.952
G1 X-6.18 Y13.1 E264
G1 X-6.82 Y13.16 E264.039
G1 X-6.87 Y13.17
G1 X-6.86 Y13.67 F12000
; TYPE:WALL-OUTER
G1 X-8.64 Y13.56 E264.151 F1110
G1 X-9.92 Y13.26 E264.233
G1 X-10.14 Y13.2 E264.247
G1 X-11.04 Y12.84 E264.308
G1 X-11.31 Y12.7 E264.327
G1 X-12.39 Y12.09 E264.404
G1 X-12.77 Y11.82 E264.433
G1 X-13.46 Y11.24 E264.489
G1 X-14.43 Y10.21 E264.577
G1 X-14.66 Y9.9 E264.601
G1 X-15.54 Y8.43 E264.708
G1 X-15.84 Y7.7 E264.757
G1 X-16.05 Y7.1 E264.797
G1 X-16.37 Y5.66 E264.889
G1 X-16.42 Y4.37 E264.97
G1 X-16.33 Y2.98 E265.056
G1 X-15.98 Y1.57 E265.147
G1 X-15.52 Y0.48 E265.221
G1 X-14.87 Y-0.66 E265.303
G1 X-14.71 Y-0.9 E265.321
G1 X-13.44 Y-2.35 E265.441
G1 X-12.64 Y-2.96 E265.504
G1 X-11.7 Y-3.6 E265.574
G1 X-11.41 Y-3.76 E265.595
G1 X-10.48 Y-4.14 E265.658
G1 X-9.11 Y-4.56 E265.747
G1 X-8.44 Y-4.65 E265.789
G1 X-7.68 Y-4.73 E265.837
G1 X-7.43 Y-4.74 E265.852
G1 X-6.56 Y-4.71 E265.907
G1 X-5.35 Y-4.57 E265.982
G1 X-5.19 Y-4.53 E265.993
G1 X-3.84 Y-4.09 E266.082
G1 X-3.37 Y-3.91 E266.113
G1 X-2.91 Y-3.66 E266.146
G1 X-1.68 Y-2.9 E266.236
G1 X-0.68 Y-2.04 E266.318
G1 X0.19 Y-1 E266.403
G1 X0.36 Y-0.76 E266.421
G1 X1.11 Y0.5 E266.512
G1 X1.53 Y1.52 E266.581
G1 X1.58 Y1.7 E266.593
G1 X1.94 Y3.44 E266.703
G1 X1.97 Y3.76 E266.723
G1 X1.99 Y4.57 E266.774
G1 X1.94 Y5.12 E266.809
G1 X1.85 Y5.85 E266.854
G1 X1.44 Y7.6 E266.966
G1 X0.97 Y8.65 E267.038
G1 X0.81 Y8.95 E267.059
G1 X-0.32 Y10.57 E267.183
G1 X-1.25 Y11.45 E267.262
G1 X-1.85 Y11.95 E267.311
G1 X-3.05 Y12.67 E267.398
G1 X-4.12 Y13.11 E267.47
G1 X-4.8 Y13.34 E267.515
G1 X-5.32 Y13.48 E267.549
G1 X-6.12 Y13.59 E267.599
G1 X-6.81 Y13.66 E267.642
G1 X-6.86 Y13.67
G1 X-8.64 Y13.56
G1 X-9.82 Y13.29
G1 X-6.88 Y12.66 F12000
G1 X-8.25 Y10.2
; TYPE:FILL
G1 Y8.57 E267.744 F1480
G1 X-6.6 Y7.62 E267.863
G1 Y7.62 E267.863
G1 Y5.72 E267.982
G1 X-8.25 Y4.76 E268.1
G1 Y4.76 E268.1
G1 Y2.86 E268.219
G1 X-6.6 Y1.91 E268.338
G1 Y1.91 E268.338
G1 Y0 E268.457
G1 X-8.25 Y-0.95 E268.576
G1 Y-0.95 E268.576
G1 Y-1.65 E268.619
G1 Y-0.95 F12000
G1 X-9.9 Y0 E268.738 F1480
G1 X-11.11 Y-0.7 E268.825
G1 X-9.9 Y0 F12000
G1 Y1.91 E268.943 F1480
G1 Y1.91 E268.943
G1 X-11.55 Y2.86 E269.062
G1 Y4.76 E269.181
G1 Y4.76 E269.181
G1 X-9.9 Y5.72 E269.3
G1 Y7.62 E269.419
G1 Y7.62 E269.419
G1 X-11.55 Y8.57 E269.538
G1 X-11.55 Y8.57 E269.538
G1 X-11.55 Y8.58 E269.538
G1 X-9.9 Y7.62 F12000
G1 X-8.25 Y8.57 E269.657 F1480
G1 X-6.6 Y7.62 F12000
G1 X-4.95 Y8.57 E269.775 F1480
G1 X-3.3 Y7.62 E269.894
G1 Y7.62 E269.894
G1 Y5.72 E270.013
G1 X-4.95 Y4.76 E270.132
G1 Y4.76 E270.132
G1 Y2.86 E270.251
G1 X-3.3 Y1.91 E270.37
G1 Y1.91 E270.37
G1 Y0 E270.488
G1 X-4.95 Y-0.95 E270.607
G1 Y-0.95 E270.607
G1 Y-1.19 E270.622
G1 Y-0.95 F12000
G1 X-6.6 Y0 E270.741 F1480
G1 Y1.91 F12000
G1 X-4.95 Y2.86 E270.86 F1480
G1 X-3.3 Y1.91 F12000
G1 X-1.65 Y2.86 E270.979 F1480
G1 Y4.76 E271.097
G1 Y4.76 E271.097
G1 X-3.3 Y5.72 E271.216
G1 X-4.95 Y4.76 F12000
G1 X-6.6 Y5.72 E271.335 F1480
G1 X-8.25 Y4.76 F12000
G1 X-9.9 Y5.72 E271.454 F1480
G1 X-11.55 Y4.76 F12000
G1 X-13.2 Y5.72 E271.573 F1480
G1 X-13.26 Y5.68 E271.577
G1 X-13.2 Y5.95 E271.594
G1 X-11.55 Y2.86 F12000
G1 X-12.93 Y2.06 E271.693 F1480
G1 X-9.9 Y1.91 F12000
G1 X-8.25 Y2.86 E271.812 F1480
G1 X-3.3 Y0 F12000
G1 X-3.15 Y-0.09 E271.823 F1480
G1 X-1.65 Y2.86 F12000
G1 X-1.29 Y2.65 E271.849 F1480
G1 X-1.65 Y4.76 F12000
G1 X-0.89 Y5.2 E271.903 F1480
G1 X-2.34 Y8.18 F12000
G1 X-3.3 Y7.62 E271.972 F1480
G1 X-4.95 Y8.57 F12000
G1 Y10.36 E272.084 F1480
G1 X-4.75 Y12 F12000
; TYPE:FILL
G1 X-7.26 E272.24 F1480
G1 X-9.77 E272.397
G1 X-10.88 Y11.5 F12000
G1 X-7.2 E272.626 F1480
G1 X-3.53 E272.855
G1 X-2.7 Y11 F12000
G1 X-7.23 E273.138 F1480
G1 X-11.76 E273.42
G1 E270.92 F6000
G1 Z2.9
G1 X-5.44 Y10.5 F12000
G1 Z2.4
G1 E273.42 F6000
G1 X-2.07 E273.63 F1480
G1 X-1.54 Y10 F12000
G1 X-4.28 E273.801 F1480
G1 X-3.43 Y9.5 F12000
G1 X-1.1 E273.947 F1480
G1 X-0.75 Y9 F12000
G1 X-2.97 E274.085 F1480
G1 X-2.58 Y8.5 F12000
G1 X-0.4 E274.221 F1480
G1 X-0.1 Y8 F12000
G1 X-2.21 E274.353 F1480
G1 X-1.87 Y7.5 F12000
G1 X0.12 E274.476 F1480
G1 X0.3 Y7 F12000
G1 X-1.58 E274.593 F1480
G1 X-1.31 Y6.5 F12000
G1 X0.41 E274.701 F1480
G1 X0.53 Y6 F12000
G1 X-1.04 E274.799 F1480
G1 X-0.88 Y5.5 F12000
G1 X0.63 E274.893 F1480
G1 X0.7 Y5 F12000
G1 X-0.9 E274.993 F1480
G1 X-0.92 Y4.5 F12000
G1 X0.73 E275.096 F1480
G1 X0.72 Y4 F12000
G1 X-0.94 E275.199 F1480
G1 X-0.97 Y3.5 F12000
G1 X0.67 E275.301 F1480
G1 X0.57 Y3 F12000
G1 X-1.13 E275.407 F1480
G1 X-1.36 Y2.5 F12000
G1 X0.47 E275.521 F1480
G1 X0.36 Y2 F12000
G1 X-1.59 E275.643 F1480
G1 X-1.84 Y1.5 F12000
G1 X0.16 E275.768 F1480
G1 X-0.05 Y1 F12000
G1 X-2.14 E275.899 F1480
G1 X-2.56 Y0.5 F12000
G1 X-0.34 E276.037 F1480
G1 X-0.64 Y0 F12000
G1 X-3.02 E276.185 F1480
G1 X-3.75 Y-0.5 F12000
G1 X-1.02 E276.355 F1480
G1 X-1.44 Y-1 F12000
G1 X-4.57 E276.551 F1480
G1 X-5.6 Y-1.5 F12000
G1 X-1.96 E276.778 F1480
G1 E274.278 F6000
G1 Z2.9
G1 X-7.07 Y10.5 F12000
G1 Z2.4
G1 E276.778 F6000
G1 X-9.73 E276.944 F1480
G1 X-12.39 E277.109
G1 X-7.41 Y10 F12000
G1 X-7.16 E277.125 F1480
G1 X-9.12 F12000
G1 X-12.91 E277.361 F1480
G1 X-13.37 Y9.5 F12000
G1 X-10.7 E277.528 F1480
G1 X-11.16 Y9 F12000
G1 X-13.74 E277.689 F1480
G1 X-14.04 Y8.5 F12000
G1 X-11.62 E277.84 F1480
G1 X-12.11 Y8 F12000
G1 X-14.34 E277.979 F1480
G1 X-14.57 Y7.5 F12000
G1 X-12.58 E278.102 F1480
G1 X-12.98 Y7 F12000
G1 X-14.76 E278.214 F1480
G1 X-14.91 Y6.5 F12000
G1 X-13.08 E278.327 F1480
G1 X-13.19 Y6 F12000
G1 X-15.02 E278.441 F1480
G1 X-15.13 Y5.5 F12000
G1 X-13.3 E278.556 F1480
G1 X-13.4 Y5 F12000
G1 X-15.15 E278.665 F1480
G1 X-15.16 Y4.5 F12000
G1 X-13.46 E278.771 F1480
G1 X-13.51 Y4 F12000
G1 X-15.14 E278.873 F1480
G1 X-15.11 Y3.5 F12000
G1 X-13.47 E278.975 F1480
G1 X-13.32 Y3 F12000
G1 X-15.05 E279.082 F1480
G1 X-14.92 Y2.5 F12000
G1 X-13.14 E279.193 F1480
G1 X-12.91 Y2 F12000
G1 X-14.79 E279.311 F1480
G1 X-14.59 Y1.5 F12000
G1 X-12.66 E279.431 F1480
G1 X-12.38 Y1 F12000
G1 X-14.38 E279.556 F1480
G1 X-14.09 Y0.5 F12000
G1 X-12.08 E279.681 F1480
G1 X-11.78 Y0 F12000
G1 X-13.8 E279.807 F1480
G1 X-13.4 Y-0.5 F12000
G1 X-11.29 E279.938 F1480
G1 X-10.56 Y-1 F12000
G1 X-12.96 E280.088 F1480
G1 X-12.49 Y-1.5 F12000
G1 X-9.5 E280.275 F1480
G1 E277.775 F6000
G1 Z2.9
G1 X-11.83 Y-2 F12000
G1 Z2.4
G1 E280.275 F6000
G1 X-7.22 E280.562 F1480
G1 X-2.6 E280.85
G1 X-3.42 Y-2.5 F12000
G1 X-7.26 E281.09 F1480
G1 X-11.1 E281.329
G1 X-9.92 Y-3 F12000
G1 X-7.23 E281.497 F1480
G1 X-4.54 E281.665
G1 E279.165 F6000
G1 Z2.9
G1 X-0.07 Y12.06 F12000
G1 X-0.6 Y12.5
; TYPE:SUPPORT
G1 Z2.4
G1 E281.665 F6000
G1 X-0.54 E281.668 F1480
G1 Y12.69 F12000
G1 X-2 Y14.47
G1 X-1.13 Y15
G1 X-5.25 E281.925 F1480
G1 X-9.37 E282.182
G1 X-13.48 E282.438
G1 X-12.55 F12000
G1 X-11.56 Y16.32
G1 X-11.66 Y17.5
G1 X-7.46 E282.7 F1480
G1 X-3.27 E282.961
G1 E280.461 F6000
G1 Z2.9
G1 X2.28 Y10.34 F12000
G1 X1.6 Y10
G1 Z2.4
G1 E282.961 F6000
G1 X3.8 E283.098 F1480
G1 X2.8 Y9.78 F12000
G1 X3.5 Y8.01
G1 X4.37 Y7.5
G1 X2.75 E283.199 F1480
G1 X3.41 F12000
G1 X3.71 Y5.95
G1 X3.19 Y5
G1 X4.33 E283.27 F1480
G1 X3.78 Y5.22 F12000
G1 X3.74 Y2.5
G1 X3.25 Y2.5 E283.301 F1480
G1 X-6.97 Y5.28 F12000
G1 X-17.19 Y8.05
G1 X-17.97 Y5.78
G1 X-17.65 Y5
G1 X-18.38 E283.347 F1480
G1 X-18.03 Y5.26 F12000
G1 X-18.06 Y7.5
G1 X-17.24 E283.398 F1480
G1 E280.898 F6000
G1 Z2.9
G1 X-13.17 Y-5 F12000
G1 Z2.4
G1 E283.398 F6000
G1 X-11.67 E283.491 F1480
G1 X-11.53 Y-5.71 F12000
G1 X-10.41 Y-7.5
G1 X-7.72 Y-7.5 E283.659 F1480
G1 X-5.03 E283.827
G1 X-5.17 Y-6.79 F12000
G1 X-3.33 Y-5.91
G1 X-2.76 Y-5
G1 X-1.38 E283.913 F1480
G1 E281.413 F6000
G1 Z2.9
G1 X-5.54 Y-11.1 F12000
G1 X-4.4 Y-10
G1 Z2.4
G1 E283.913 F6000
G1 X-4.57 E283.923 F1480
G1 X-5.51 Y-10.94 F12000
G1 X-4.72 Y-10
G1 X-9.62 E284.229 F1480
G1 X-9.05 Y-10.56 F12000
G1 X-9.03 Y-11.67
G1 X-10.14 Y-12.5
G1 X-7.08 E284.419 F1480
G1 X-4.03 E284.61
G1 X-5.16 F12000
G1 X-5.35 Y-14.74
G1 X-4.31 Y-15
G1 X-7.07 E284.782 F1480
G1 X-9.83 E284.954
G1 X-8.89 F12000
G1 X-8.36 Y-17.08
G1 X-9.3 Y-17.5
G1 X-4.48 E285.255 F1480
G1 X-5.42 Y-17.12 F12000
G1 X-4.94 Y-20
G1 X-3.81
G1 X-6.61 E285.43 F1480
G1 X-9.41 E285.604
G1 X-8.47 Y-19.81 F12000
G1 X-8.14 Y-21.67
G1 X-8.63 Y-22.5
G1 X-4.41 E285.867 F1480
; Layer Change GCode
; LAYER:8
; LAYER_HEIGHT:0.3
; TYPE:FILL
G1 E283.367 F6000
G1 Z2.9
G1 X-5.28 Y-10.8 Z3 F12000
G1 X-6.16 Y0.89 Z3.1
G1 X-7.03 Y12.59 Z3.2
; TYPE:WALL-INNER
G1 Z2.7
G1 E285.867 F6000
G1 X-7.97 Y12.52 E285.926 F1816
G1 X-8.74 Y12.43 E285.974
G1 X-9.26 Y12.3 E286.008
G1 X-10.15 Y12.03 E286.066
G1 X-10.39 Y11.93 E286.082
G1 X-11.23 Y11.51 E286.141
G1 X-11.63 Y11.29 E286.169
G1 X-11.97 Y11.04 E286.195
G1 X-12.83 Y10.36 E286.264
G1 X-13.64 Y9.45 E286.34
G1 X-14.61 Y7.88 E286.455
G1 X-15.13 Y6.43 E286.551
G1 X-15.15 Y6.35 E286.556
G1 X-15.25 Y5.67 E286.599
G1 X-15.33 Y4.97 E286.643
G1 X-15.34 Y4.58 E286.667
G1 X-15.24 Y3.26 E286.749
G1 X-15.17 Y2.7 E286.785
G1 X-15.15 Y2.59 E286.792
G1 X-14.66 Y1.13 E286.888
G1 X-13.87 Y-0.2 E286.985
G1 X-13.51 Y-0.63 E287.02
G1 X-12.85 Y-1.37 E287.081
G1 X-12.29 Y-1.9 E287.129
G1 X-11.78 Y-2.27 E287.169
G1 X-11.23 Y-2.61 E287.209
G1 X-10.85 Y-2.79 E287.235
G1 X-9.84 Y-3.23 E287.304
G1 X-9.61 Y-3.3 E287.319
G1 X-8.95 Y-3.46 E287.361
G1 X-8.28 Y-3.55 E287.403
G1 X-7.42 Y-3.63 E287.457
G1 X-6.9 Y-3.66 E287.49
G1 X-6.4 Y-3.62 E287.521
G1 X-5.7 Y-3.53 E287.565
G1 X-4.16 Y-3.06 E287.666
G1 X-3.54 Y-2.77 E287.708
G1 X-3.09 Y-2.52 E287.74
G1 X-2.74 Y-2.3 E287.766
G1 X-2.13 Y-1.85 E287.813
G1 X-1.62 Y-1.41 E287.855
G1 X-1.2 Y-0.99 E287.892
G1 X-0.83 Y-0.55 E287.928
G1 X-0.3 Y0.21 E287.986
G1 X-0.02 Y0.7 E288.021
G1 X0.49 Y1.87 E288.101
G1 X0.71 Y2.79 E288.159
G1 X0.81 Y3.26 E288.19
G1 X0.9 Y4.26 E288.252
G1 X0.78 Y5.81 E288.349
G1 X0.76 Y5.93 E288.357
G1 X0.34 Y7.31 E288.447
G1 X0.04 Y8.05 E288.497
G1 X-0.16 Y8.48 E288.526
G1 X-0.6 Y9.11 E288.574
G1 X-1 Y9.62 E288.614
G1 X-1.81 Y10.54 E288.691
G1 X-2.56 Y11.08 E288.749
G1 X-3.74 Y11.79 E288.835
G1 X-4.04 Y11.91 E288.855
G1 X-5.65 Y12.45 E288.96
G1 X-6.98 Y12.58 E289.044
G1 X-7.03 Y12.59
G1 X-7.02 Y13.09 F12000
G1 X-8.03 Y13.02 E289.107 F1816
G1 X-8.82 Y12.92 E289.157
G1 X-9.38 Y12.79 E289.192
G1 X-10.32 Y12.5 E289.254
G1 X-10.6 Y12.38 E289.273
G1 X-11.45 Y11.96 E289.332
G1 X-11.91 Y11.7 E289.365
G1 X-12.26 Y11.45 E289.392
G1 X-13.17 Y10.73 E289.464
G1 X-14.05 Y9.75 E289.546
G1 X-15.06 Y8.1 E289.667
G1 X-15.61 Y6.57 E289.768
G1 X-15.63 Y6.47 E289.775
G1 X-15.75 Y5.72 E289.822
G1 X-15.83 Y5.01 E289.866
G1 X-15.84 Y4.57 E289.894
G1 X-15.73 Y3.18 E289.981
G1 X-15.67 Y2.62 E290.016
G1 X-15.63 Y2.44 E290.027
G1 X-15.13 Y0.95 E290.126
G1 X-15.11 Y0.9 E290.129
G1 X-14.28 Y-0.49 E290.23
G1 X-13.9 Y-0.94 E290.266
G1 X-13.21 Y-1.73 E290.332
G1 X-12.61 Y-2.29 E290.383
G1 X-12.05 Y-2.68 E290.426
G1 X-11.46 Y-3.06 E290.469
G1 X-11.05 Y-3.24 E290.497
G1 X-10.02 Y-3.7 E290.567
G1 X-9.76 Y-3.78 E290.585
G1 X-9.04 Y-3.95 E290.631
G1 X-8.32 Y-4.05 E290.676
G1 X-7.45 Y-4.13 E290.73
G1 X-6.9 Y-4.16 E290.765
G1 X-6.34 Y-4.11 E290.8
G1 X-5.6 Y-4.02 E290.847
G1 X-3.98 Y-3.53 E290.952
G1 X-3.31 Y-3.21 E290.998
G1 X-2.85 Y-2.96 E291.031
G1 X-2.46 Y-2.72 E291.06
G1 X-1.82 Y-2.24 E291.11
G1 X-1.28 Y-1.77 E291.154
G1 X-0.84 Y-1.34 E291.193
G1 X-0.43 Y-0.85 E291.233
G1 X0.12 Y-0.06 E291.292
G1 X0.43 Y0.48 E291.331
G1 X0.96 Y1.71 E291.414
G1 X1.2 Y2.65 E291.475
G1 X1.31 Y3.2 E291.51
G1 X1.4 Y4.25 E291.576
G1 X1.28 Y5.88 E291.678
G1 X1.25 Y6.05 E291.689
G1 X0.81 Y7.48 E291.782
G1 X0.5 Y8.24 E291.833
G1 X0.27 Y8.73 E291.867
G1 X-0.21 Y9.43 E291.92
G1 X-0.61 Y9.94 E291.96
G1 X-1.47 Y10.91 E292.041
G1 X-2.28 Y11.5 E292.103
G1 X-3.52 Y12.24 E292.193
G1 X-3.87 Y12.39 E292.217
G1 X-5.54 Y12.94 E292.327
G1 X-6.97 Y13.09 E292.417
G1 X-7.02 Y13.09
G1 X-7.02 Y13.59 F12000
; TYPE:WALL-OUTER
G1 X-8.07 Y13.52 E292.482 F1362
G1 X-8.91 Y13.41 E292.535
G1 X-9.51 Y13.27 E292.574
G1 X-10.49 Y12.97 E292.637
G1 X-10.81 Y12.84 E292.659
G1 X-11.68 Y12.4 E292.72
G1 X-12.17 Y12.13 E292.755
G1 X-12.58 Y11.84 E292.786
G1 X-13.51 Y11.1 E292.861
G1 X-14.45 Y10.05 E292.948
G1 X-15.51 Y8.31 E293.075
G1 X-16.08 Y6.73 E293.18
G1 X-16.12 Y6.57 E293.19
G1 X-16.24 Y5.8 E293.239
G1 X-16.33 Y5.05 E293.286
G1 X-16.34 Y4.55 E293.317
G1 X-16.23 Y3.15 E293.405
G1 X-16.16 Y2.53 E293.444
G1 X-16.11 Y2.31 E293.458
G1 X-15.6 Y0.78 E293.559
G1 X-15.56 Y0.68 E293.565
G1 X-14.68 Y-0.78 E293.671
G1 X-14.28 Y-1.27 E293.711
G1 X-13.57 Y-2.08 E293.778
G1 X-12.93 Y-2.67 E293.832
G1 X-12.33 Y-3.1 E293.878
G1 X-11.7 Y-3.5 E293.925
G1 X-11.25 Y-3.7 E293.955
G1 X-10.19 Y-4.17 E294.028
G1 X-9.89 Y-4.26 E294.048
G1 X-9.14 Y-4.44 E294.095
G1 X-8.38 Y-4.55 E294.143
G1 X-7.49 Y-4.63 E294.199
G1 X-6.88 Y-4.66 E294.237
G1 X-6.3 Y-4.61 E294.274
G1 X-5.49 Y-4.51 E294.324
G1 X-3.8 Y-4 E294.435
G1 X-3.08 Y-3.66 E294.484
G1 X-2.59 Y-3.38 E294.519
G1 X-2.18 Y-3.13 E294.549
G1 X-1.49 Y-2.62 E294.603
G1 X-0.95 Y-2.14 E294.648
G1 X-0.47 Y-1.67 E294.69
G1 X-0.03 Y-1.16 E294.732
G1 X0.54 Y-0.33 E294.794
G1 X0.88 Y0.25 E294.836
G1 X1.44 Y1.55 E294.924
G1 X1.68 Y2.54 E294.988
G1 X1.8 Y3.12 E295.025
G1 X1.91 Y4.25 E295.096
G1 X1.78 Y5.95 E295.202
G1 X1.73 Y6.18 E295.217
G1 X1.29 Y7.65 E295.312
G1 X0.95 Y8.46 E295.367
G1 X0.71 Y8.98 E295.403
G1 X0.19 Y9.72 E295.459
G1 X-0.22 Y10.25 E295.501
G1 X-1.13 Y11.29 E295.587
G1 X-2.01 Y11.91 E295.654
G1 X-3.29 Y12.69 E295.748
G1 X-3.7 Y12.86 E295.776
G1 X-5.44 Y13.43 E295.89
G1 X-6.97 Y13.59 E295.986
G1 X-7.02 Y13.59
G1 X-8.07 Y13.52
G1 X-8.91 Y13.41
G1 X-9.51 Y13.27
G1 X-9.97 Y13.13
G1 X-7.03 Y12.59 F12000
G1 E293.486 F6000
G1 Z3.2
G1 X0.5 Y5.93 F12000
; TYPE:FILL
G1 Z2.7
G1 E295.986 F6000
G1 Y2.99 E296.169 F1816
G1 X0 Y1.37 F12000
G1 Y4.42 E296.359 F1816
G1 Y7.47 E296.549
G1 X-0.5 Y8.53 F12000
G1 Y4.45 E296.804 F1816
G1 Y0.37 E297.058
G1 X-1 Y-0.36 F12000
G1 Y4.43 E297.357 F1816
G1 Y9.22 E297.655
G1 X-1.5 Y9.81 F12000
G1 X-1.5 Y6.23 E297.879 F1816
G1 Y2.65 E298.102
G1 Y-0.93 E298.325
G1 X-2 Y-1.4 F12000
G1 Y2.52 E298.57 F1816
G1 Y6.45 E298.815
G1 Y10.37 E299.059
G1 X-2.5 Y10.73 F12000
G1 X-2.5 Y6.55 E299.32 F1816
G1 Y2.37 E299.581
G1 Y-1.81 E299.841
G1 X-3 Y-2.17 F12000
G1 Y2.24 E300.116 F1816
G1 Y6.64 E300.391
G1 Y11.05 E300.666
G1 X-3.5 Y11.35 F12000
G1 X-3.5 Y6.42 E300.974 F1816
G1 Y1.48 E301.282
G1 Y0.93 F12000
G1 Y-2.46 E301.494 F1816
G1 X-4 Y-2.71 F12000
G1 Y2.07 E301.792 F1816
G1 Y6.85 E302.09
G1 Y11.63 E302.388
G1 X-4.5 Y11.8 F12000
G1 X-4.5 Y6.9 E302.693 F1816
G1 Y2 E302.999
G1 Y-2.9 E303.305
G1 X-5 Y-3.05 F12000
G1 Y0.7 E303.539 F1816
G1 Y4.46 E303.773
G1 Y8.22 E304.007
G1 Y11.97 E304.242
G1 X-5.5 Y12.14 F12000
G1 X-5.5 Y8.3 E304.481 F1816
G1 Y4.47 E304.72
G1 Y0.63 E304.959
G1 Y-3.2 E305.198
G1 X-6 Y-3.31 F12000
G1 Y0.58 E305.441 F1816
G1 Y4.46 E305.683
G1 Y8.35 E305.925
G1 Y12.24 E306.168
G1 X-6.5 Y12.29 F12000
G1 X-6.5 Y8.37 E306.412 F1816
G1 Y4.46 E306.656
G1 Y0.54 E306.9
G1 Y-3.37 E307.144
G1 X-7 Y-3.4 F12000
G1 Y0.53 E307.39 F1816
G1 Y4.47 E307.635
G1 Y8.4 E307.88
G1 Y12.34 E308.126
G1 X-7.5 Y12.3 F12000
G1 X-7.5 Y8.38 E308.37 F1816
G1 Y4.47 E308.615
G1 Y0.55 E308.859
G1 Y-3.37 E309.103
G1 X-8 Y-3.33 F12000
G1 Y0.57 E309.347 F1816
G1 Y4.47 E309.59
G1 Y8.37 E309.833
G1 Y12.27 E310.076
G1 X-8.5 Y12.2 F12000
G1 X-8.5 Y8.34 E310.317 F1816
G1 Y4.47 E310.558
G1 Y0.6 E310.799
G1 Y-3.27 E311.04
G1 X-9 Y-3.19 F12000
G1 Y0.64 E311.279 F1816
G1 Y4.46 E311.517
G1 Y8.28 E311.756
G1 Y12.11 E311.994
G1 X-9.5 Y11.96 F12000
G1 X-9.5 Y8.21 E312.228 F1816
G1 Y4.45 E312.463
G1 Y0.69 E312.697
G1 Y-3.07 E312.932
G1 X-10 Y-2.89 F12000
G1 Y2.01 E313.237 F1816
G1 Y6.91 E313.543
G1 Y11.81 E313.848
G1 X-10.5 Y11.59 F12000
G1 X-10.5 Y6.84 E314.144 F1816
G1 Y2.09 E314.441
G1 Y-2.66 E314.737
G1 X-11 Y-2.44 F12000
G1 Y2.15 E315.024 F1816
G1 Y6.75 E315.31
G1 Y11.34 E315.596
G1 X-11.5 Y11.07 F12000
G1 X-11.5 Y6.67 E315.871 F1816
G1 Y2.26 E316.146
G1 Y-2.15 E316.421
G1 X-12 Y-1.8 F12000
G1 Y2.37 E316.68 F1816
G1 Y6.53 E316.94
