;FLAVOR:Marlin
;TIME:18191
;Filament used: 23.2598m
;Layer height: 0.2
;MINX:90.8
;MINY:45.309
;MINZ:0.3
;MAXX:159.2
;MAXY:209.691
;MAXZ:48.1
;Generated with Cura_SteamEngine main
M140 S60
M105
M190 S60
M104 S200
M105
M109 S200
M82 ;absolute extrusion mode
G21 ;metric values
G90 ;absolute positioning
M82 ;set extruder to absolute mode
M107 ;start with the fan off
G28 X0 Y0 ;move X/Y to min endstops
M300 S1318 P266
G28 Z0 ;move Z to min endstops
G0 Z0.2
G92 E0 ;zero the extruded length
G1 X40 E25 F400 ; Extrude 25mm of filament in a 4cm line. Reduce speed (F) if you have a nozzle smaller than 0.4mm!
G92 E0 ;zero the extruded length again
G1 E-1 F500 ; Retract a little
G1 X80 F4000 ; Quickly wipe away from the filament line
M117 ; Printing…
G5
G92 E0
G92 E0
G1 F1500 E-6.5
;LAYER_COUNT:240
;LAYER:0
M107
G0 F3600 X113.485 Y47.309 Z0.3
G0 X112.226 Y52.189
;TYPE:SKIRT
G1 F1500 E0
G1 F1800 X112.918 Y49.532 E0.13698
G1 X113.33 Y47.791 E0.22624
G1 X113.485 Y47.309 E0.2515
G1 X113.714 Y46.859 E0.27669
G1 X114.011 Y46.449 E0.30195
G1 X114.369 Y46.092 E0.32717
G1 X114.778 Y45.796 E0.35236
G1 X115.229 Y45.567 E0.37759
G1 X115.711 Y45.413 E0.40284
G1 X116.381 Y45.329 E0.43653
G1 X117.402 Y45.309 E0.48747
G1 X132.899 Y45.309 E1.26062
G1 X133.597 Y45.319 E1.29545
G1 X134.1 Y45.366 E1.32065
G1 X134.59 Y45.492 E1.34589
G1 X135.054 Y45.694 E1.37114
G1 X135.48 Y45.966 E1.39636
G1 X135.858 Y46.301 E1.42156
G1 X136.178 Y46.692 E1.44676
G1 X136.433 Y47.129 E1.47201
G1 X136.668 Y47.796 E1.50729
G1 X137.42 Y50.874 E1.66537
G1 X138.155 Y53.539 E1.80329
G1 X138.957 Y56.153 E1.9397
G1 X139.831 Y58.736 E2.07574
G1 X140.777 Y61.294 E2.21181
G1 X141.801 Y63.841 E2.34877
G1 X142.896 Y66.353 E2.48548
G1 X144.075 Y68.865 E2.62392
G1 X145.29 Y71.271 E2.75839
G1 X146.591 Y73.68 E2.89499
G1 X147.966 Y76.058 E3.03203
G1 X149.408 Y78.396 E3.16908
G1 X150.898 Y80.669 E3.30467
G1 X152.466 Y82.92 E3.44153
G1 X154.097 Y85.123 E3.57828
G1 X155.784 Y87.274 E3.71467
G1 X157.607 Y89.465 E3.85686
G1 X158.421 Y90.415 E3.91928
G1 X158.718 Y90.824 E3.9445
G1 X158.948 Y91.274 E3.96971
G1 X159.103 Y91.755 E3.99492
G1 X159.2 Y92.489 E4.03186
G1 X159.2 Y205.795 E9.68472
G1 X159.191 Y206.522 E9.72099
G1 X159.145 Y207.025 E9.74619
G1 X159.02 Y207.515 E9.77142
G1 X158.819 Y207.979 E9.79665
G1 X158.548 Y208.406 E9.82188
G1 X158.213 Y208.785 E9.84712
G1 X157.823 Y209.106 E9.87232
G1 X157.387 Y209.362 E9.89754
G1 X156.916 Y209.545 E9.92275
G1 X156.422 Y209.653 E9.94798
G1 X155.76 Y209.69 E9.98106
G1 X94.666 Y209.691 E13.02905
G1 X93.968 Y209.682 E13.06387
G1 X93.464 Y209.635 E13.08913
G1 X92.974 Y209.51 E13.11436
G1 X92.51 Y209.309 E13.13959
G1 X92.084 Y209.038 E13.16477
G1 X91.705 Y208.703 E13.19001
G1 X91.384 Y208.312 E13.21525
G1 X91.129 Y207.876 E13.24045
G1 X90.945 Y207.405 E13.26568
G1 X90.838 Y206.911 E13.29089
G1 X90.801 Y206.458 E13.31357
G1 X90.8 Y93.152 E18.96643
G1 X90.81 Y92.449 E19.0015
G1 X90.857 Y91.946 E19.02671
G1 X90.983 Y91.456 E19.05195
G1 X91.185 Y90.993 E19.07715
G1 X91.578 Y90.415 E19.11202
G1 X93.362 Y88.328 E19.249
G1 X95.074 Y86.208 E19.38495
G1 X96.738 Y84.023 E19.52197
G1 X98.344 Y81.786 E19.65936
G1 X99.865 Y79.535 E19.7949
G1 X101.342 Y77.209 E19.93236
G1 X102.724 Y74.892 E20.06696
G1 X104.076 Y72.472 E20.20525
G1 X105.338 Y70.056 E20.34124
G1 X106.544 Y67.576 E20.47882
G1 X107.671 Y65.083 E20.61532
G1 X108.719 Y62.576 E20.75088
G1 X109.726 Y59.965 E20.8905
G1 X110.613 Y57.454 E21.02336
G1 X111.455 Y54.836 E21.16056
G1 X112.226 Y52.189 E21.29811
G1 F1500 E14.79811
;MESH:ScooterChargeBox v3.stl
G0 F3600 X115.165 Y52.621
G0 X116.238 Y52.777
G0 X117.6 Y54.144
G1 F1500 E21.29811
G0 F3600 X118.009 Y54.144
;TYPE:WALL-INNER
G1 F1800 X118.256 Y53.942 E21.31403
G1 X118.5 Y53.891 E21.32646
G1 X131.5 Y53.891 E21.97503
G1 X131.744 Y53.942 E21.98747
G1 X131.991 Y54.144 E22.00339
G1 X132.096 Y54.403 E22.01733
G1 X132.101 Y64.508 E22.52147
G1 X132.065 Y64.698 E22.53112
G1 X131.97 Y64.866 E22.54075
G1 X131.847 Y64.982 E22.54919
G1 X131.602 Y65.083 E22.56241
G1 X131.5 Y65.091 E22.56751
G1 X118.426 Y65.091 E23.21978
G1 X118.154 Y64.982 E23.23439
G1 X118.03 Y64.865 E23.2429
G1 X117.936 Y64.697 E23.2525
G1 X117.9 Y64.508 E23.2621
G1 X117.9 Y54.418 E23.7655
G1 X118.009 Y54.144 E23.78021
G0 F3600 X117.6 Y54.144
G0 X110.717 Y93.321
G0 X110.327 Y92.996
G1 F1800 X110.112 Y93.091 E23.79193
G1 X94.6 Y93.091 E24.56583
G1 X94.6 Y205.891 E30.19345
G1 X155.4 Y205.891 E33.22677
G1 X155.4 Y108.492 E38.08603
G1 X155.4 Y93.091 E38.85438
G1 X139.969 Y93.091 E39.62424
G1 X139.688 Y93.005 E39.6389
G1 X139.475 Y92.785 E39.65418
G1 X139.416 Y92.637 E39.66213
G1 X133.04 Y49.109 E41.85692
G1 X116.959 Y49.109 E42.65921
G1 X110.584 Y92.637 E44.85399
G1 X110.525 Y92.785 E44.86194
G1 X110.327 Y92.996 E44.87638
G0 F3600 X110.063 Y92.691
;TYPE:WALL-OUTER
G1 F1800 X94.2 Y92.691 E45.66779
G1 X94.2 Y206.291 E51.33531
G1 X155.8 Y206.291 E54.40855
G1 X155.8 Y108.492 E59.28776
G1 X155.8 Y92.691 E60.07608
G1 X139.971 Y92.69 E60.86579
G1 X139.848 Y92.623 E60.87278
G1 X139.806 Y92.555 E60.87676
G1 X133.386 Y48.709 E63.08758
G1 X116.613 Y48.709 E63.92438
G1 X110.196 Y92.54 E66.13443
G1 X110.063 Y92.691 E66.14447
G0 F3600 X109.863 Y92.691
G0 X109.863 Y93.391
G0 X110.717 Y93.321
G0 X118.384 Y65.391
G0 X118.384 Y64.655
G1 F1800 X118.3 Y64.544 E66.15142
G1 X118.302 Y54.461 E66.65446
G1 X118.336 Y54.375 E66.65907
G1 X118.439 Y54.291 E66.6657
G1 X131.561 Y54.291 E67.32036
G1 X131.664 Y54.375 E67.32699
G1 X131.699 Y54.461 E67.33163
G1 X131.701 Y64.544 E67.83467
G1 X131.616 Y64.655 E67.84164
G1 X131.534 Y64.689 E67.84607
G1 X118.466 Y64.689 E68.49804
G1 X118.384 Y64.655 E68.50247
G0 F3600 X118.3 Y64.544
G0 X118.3 Y64.483
G0 X117.6 Y64.483
G0 X117.522 Y54.367
;TYPE:SKIN
G1 F1800 X117.735 Y53.886 E68.52871
G1 X118.14 Y53.583 E68.55395
G1 X118.507 Y53.511 E68.5726
G1 X131.535 Y53.515 E69.22257
G1 X131.943 Y53.623 E69.24363
G1 X132.324 Y53.965 E69.26917
G1 X132.48 Y54.363 E69.2905
G1 X132.482 Y64.513 E69.79689
G1 X132.428 Y64.802 E69.81155
G1 X132.289 Y65.073 E69.82675
G1 X132.084 Y65.278 E69.84121
G1 X131.632 Y65.469 E69.86569
G1 X118.368 Y65.468 E70.52744
G1 X118.328 Y65.457 E70.52951
G1 X117.912 Y65.274 E70.55218
G1 X117.713 Y65.073 E70.56629
G1 X117.573 Y64.802 E70.58151
G1 X117.523 Y64.546 E70.59452
G1 X117.522 Y54.367 E71.10236
G0 F3600 X117.672 Y65.319
G0 X139.283 Y93.321
G0 X139.865 Y93.47
G1 F1800 X139.555 Y93.367 E71.11865
G1 X139.34 Y93.219 E71.13167
G1 X139.148 Y92.981 E71.14693
G1 X139.046 Y92.746 E71.15971
G1 X132.71 Y49.489 E73.34084
G1 X117.289 Y49.489 E74.1102
G1 X110.953 Y92.749 E76.29147
G1 X110.715 Y93.166 E76.31543
G1 X110.499 Y93.338 E76.3292
G1 X110.117 Y93.471 E76.34938
G1 X94.98 Y93.471 E77.10457
G1 X94.98 Y205.511 E82.69427
G1 X155.02 Y205.511 E85.68968
G1 X155.02 Y108.598 E90.52469
G1 X155.02 Y93.471 E91.27937
G1 X139.865 Y93.47 E92.03546
G0 F3600 X132.279 Y49.689
G1 F1800 X132.581 Y49.991 E92.05677
G0 F3600 X132.677 Y50.653
G1 F1800 X131.713 Y49.689 E92.12478
G0 F3600 X131.147 Y49.689
G1 F1800 X132.774 Y51.316 E92.23958
G0 F3600 X132.872 Y51.979
G1 F1800 X130.582 Y49.689 E92.40115
G0 F3600 X130.016 Y49.689
G1 F1800 X132.969 Y52.641 E92.60946
G0 F3600 X133.066 Y53.304
G1 F1800 X129.45 Y49.689 E92.86456
G0 F3600 X128.885 Y49.689
G1 F1800 X133.163 Y53.967 E93.16639
G0 F3600 X133.26 Y54.63
G1 F1800 X132.475 Y53.844 E93.22181
G0 F3600 X132.228 Y53.598
G1 F1800 X128.319 Y49.689 E93.49762
G0 F3600 X127.753 Y49.689
G1 F1800 X131.375 Y53.31 E93.75313
G0 F3600 X130.809 Y53.31
G1 F1800 X127.188 Y49.689 E94.00861
G0 F3600 X126.622 Y49.689
G1 F1800 X130.244 Y53.31 E94.26413
G0 F3600 X129.678 Y53.31
G1 F1800 X126.056 Y49.689 E94.51965
G0 F3600 X125.49 Y49.689
G1 F1800 X129.112 Y53.31 E94.77516
G0 F3600 X128.547 Y53.31
G1 F1800 X124.925 Y49.689 E95.03068
G0 F3600 X124.359 Y49.689
G1 F1800 X127.981 Y53.31 E95.2862
G0 F3600 X127.415 Y53.31
G1 F1800 X123.793 Y49.689 E95.54171
G0 F3600 X123.228 Y49.689
G1 F1800 X126.85 Y53.31 E95.79723
G0 F3600 X126.284 Y53.31
G1 F1800 X122.662 Y49.689 E96.05274
G0 F3600 X122.096 Y49.689
G1 F1800 X125.718 Y53.31 E96.30826
G0 F3600 X125.152 Y53.31
G1 F1800 X121.531 Y49.689 E96.56374
G0 F3600 X120.965 Y49.689
G1 F1800 X124.587 Y53.31 E96.81926
G0 F3600 X124.021 Y53.31
G1 F1800 X120.399 Y49.689 E97.07477
G0 F3600 X119.834 Y49.689
G1 F1800 X123.455 Y53.31 E97.33026
G0 F3600 X122.89 Y53.31
G1 F1800 X119.268 Y49.689 E97.58577
G0 F3600 X118.702 Y49.689
G1 F1800 X122.324 Y53.31 E97.84129
G0 F3600 X121.758 Y53.31
G1 F1800 X118.137 Y49.689 E98.09677
G0 F3600 X117.571 Y49.689
G1 F1800 X121.193 Y53.31 E98.35229
G0 F3600 X120.627 Y53.31
G1 F1800 X117.402 Y50.085 E98.57983
G0 F3600 X117.33 Y50.579
G1 F1800 X120.061 Y53.31 E98.77251
G0 F3600 X119.496 Y53.31
G1 F1800 X117.258 Y51.072 E98.93042
G0 F3600 X117.185 Y51.566
G1 F1800 X118.93 Y53.31 E99.0535
G0 F3600 X118.386 Y53.332
G1 F1800 X117.113 Y52.059 E99.14332
G0 F3600 X117.041 Y52.552
G1 F1800 X117.946 Y53.458 E99.20721
G0 F3600 X117.632 Y53.709
G1 F1800 X116.968 Y53.046 E99.25402
G0 F3600 X116.896 Y53.54
G1 F1800 X117.424 Y54.068 E99.29127
G0 F3600 X117.323 Y54.532
G1 F1800 X116.824 Y54.033 E99.32648
G0 F3600 X116.752 Y54.527
G1 F1800 X117.323 Y55.097 E99.36673
G0 F3600 X117.323 Y55.663
G1 F1800 X116.679 Y55.019 E99.41217
G0 F3600 X116.607 Y55.513
G1 F1800 X117.322 Y56.228 E99.46262
G0 F3600 X117.322 Y56.794
G1 F1800 X116.535 Y56.007 E99.51814
G0 F3600 X116.463 Y56.5
G1 F1800 X117.322 Y57.359 E99.57875
G0 F3600 X117.321 Y57.924
G1 F1800 X116.391 Y56.994 E99.64437
G0 F3600 X116.318 Y57.487
G1 F1800 X117.321 Y58.49 E99.71513
G0 F3600 X117.321 Y59.056
G1 F1800 X116.246 Y57.98 E99.79102
G0 F3600 X116.174 Y58.474
G1 F1800 X117.321 Y59.621 E99.87194
G0 F3600 X117.321 Y60.186
G1 F1800 X116.101 Y58.967 E99.95799
G0 F3600 X116.029 Y59.461
G1 F1800 X117.321 Y60.752 E100.04911
G0 F3600 X117.32 Y61.317
G1 F1800 X115.957 Y59.954 E100.14528
G0 F3600 X115.884 Y60.447
G1 F1800 X117.32 Y61.883 E100.24659
G0 F3600 X117.32 Y62.448
G1 F1800 X115.812 Y60.941 E100.35295
G0 F3600 X115.74 Y61.434
G1 F1800 X117.319 Y63.013 E100.46436
G0 F3600 X117.319 Y63.579
G1 F1800 X115.668 Y61.928 E100.58085
G0 F3600 X115.595 Y62.421
G1 F1800 X117.319 Y64.145 E100.70249
G0 F3600 X117.36 Y64.751
G1 F1800 X115.523 Y62.914 E100.8321
G0 F3600 X115.451 Y63.408
G1 F1800 X137.822 Y85.779 E102.41049
G0 F3600 X137.919 Y86.441
G1 F1800 X115.379 Y63.901 E104.00081
G0 F3600 X115.307 Y64.395
G1 F1800 X138.015 Y87.104 E105.60302
G0 F3600 X138.113 Y87.767
G1 F1800 X115.235 Y64.889 E107.21718
G0 F3600 X115.162 Y65.381
G1 F1800 X138.21 Y88.43 E108.84338
G0 F3600 X138.307 Y89.092
G1 F1800 X115.09 Y65.875 E110.48147
G0 F3600 X115.017 Y66.369
G1 F1800 X138.404 Y89.755 E112.13151
G0 F3600 X138.501 Y90.418
G1 F1800 X114.945 Y66.862 E113.79351
G0 F3600 X114.873 Y67.356
G1 F1800 X138.598 Y91.081 E115.46744
G0 F3600 X138.695 Y91.743
G1 F1800 X114.8 Y67.849 E117.15332
G0 F3600 X114.728 Y68.342
G1 F1800 X138.793 Y92.406 E118.85121
G1 X138.863 Y92.476
G0 F3600 X139.283 Y93.321
G0 X140.057 Y93.671
G1 F1800 X154.819 Y108.433 E119.89274
G0 F3600 X154.819 Y108.999
G1 F1800 X114.656 Y68.836 E122.72646
G0 F3600 X114.584 Y69.329
G1 F1800 X154.819 Y109.564 E125.56526
G0 F3600 X154.819 Y110.13
G1 F1800 X114.512 Y69.823 E128.40913
G0 F3600 X114.439 Y70.316
G1 F1800 X154.819 Y110.696 E131.25816
G0 F3600 X154.819 Y111.261
G1 F1800 X114.367 Y70.809 E134.11227
G0 F3600 X114.295 Y71.303
G1 F1800 X154.819 Y111.827 E136.97146
G0 F3600 X154.819 Y112.393
G1 F1800 X114.223 Y71.796 E139.83576
G0 F3600 X114.151 Y72.29
G1 F1800 X154.819 Y112.958 E142.7051
G0 F3600 X154.819 Y113.524
G1 F1800 X114.078 Y72.783 E145.5796
G0 F3600 X114.006 Y73.276
G1 F1800 X154.819 Y114.09 E148.45921
G0 F3600 X154.819 Y114.655
G1 F1800 X113.933 Y73.77 E151.34391
G0 F3600 X113.861 Y74.263
G1 F1800 X154.819 Y115.221 E154.23372
G0 F3600 X154.819 Y115.787
G1 F1800 X113.789 Y74.757 E157.1286
G0 F3600 X113.717 Y75.251
G1 F1800 X154.819 Y116.353 E160.02857
G0 F3600 X154.819 Y116.918
G1 F1800 X113.644 Y75.743 E162.93369
G0 F3600 X113.572 Y76.237
G1 F1800 X154.819 Y117.484 E165.84389
G0 F3600 X154.819 Y118.05
G1 F1800 X113.5 Y76.73 E168.7592
G0 F3600 X113.428 Y77.224
G1 F1800 X154.819 Y118.615 E171.67956
G0 F3600 X154.819 Y119.181
G1 F1800 X113.356 Y77.718 E174.605
G0 F3600 X113.283 Y78.21
G1 F1800 X154.819 Y119.747 E177.53562
G0 F3600 X154.819 Y120.312
G1 F1800 X113.211 Y78.704 E180.47129
G0 F3600 X113.139 Y79.198
G1 F1800 X154.819 Y120.878 E183.41204
G0 F3600 X154.819 Y121.444
G1 F1800 X113.067 Y79.691 E186.35791
G0 F3600 X112.994 Y80.185
G1 F1800 X154.819 Y122.009 E189.30885
G0 F3600 X154.819 Y122.575
G1 F1800 X112.922 Y80.678 E192.26491
G0 F3600 X112.849 Y81.171
G1 F1800 X154.819 Y123.141 E195.22612
G0 F3600 X154.819 Y123.706
G1 F1800 X112.777 Y81.665 E198.19238
G0 F3600 X112.705 Y82.158
G1 F1800 X154.819 Y124.272 E201.16375
G0 F3600 X154.819 Y124.838
G1 F1800 X112.633 Y82.652 E204.1402
G0 F3600 X112.56 Y83.145
G1 F1800 X154.819 Y125.403 E207.12176
G0 F3600 X154.819 Y125.969
G1 F1800 X112.488 Y83.638 E210.10844
G0 F3600 X112.416 Y84.132
G1 F1800 X154.819 Y126.535 E213.1002
G0 F3600 X154.819 Y127.101
G1 F1800 X112.344 Y84.625 E216.09708
G0 F3600 X112.272 Y85.119
G1 F1800 X154.819 Y127.666 E219.099
G0 F3600 X154.819 Y128.232
G1 F1800 X112.2 Y85.612 E222.10604
G0 F3600 X112.127 Y86.105
G1 F1800 X154.819 Y128.798 E225.11822
G0 F3600 X154.819 Y129.363
G1 F1800 X112.055 Y86.599 E228.13545
G0 F3600 X111.983 Y87.092
G1 F1800 X154.819 Y129.929 E231.1578
G0 F3600 X154.819 Y130.495
G1 F1800 X111.91 Y87.586 E234.18526
G0 F3600 X111.838 Y88.08
G1 F1800 X154.819 Y131.06 E237.21777
G0 F3600 X154.819 Y131.626
G1 F1800 X111.766 Y88.572 E240.25543
G0 F3600 X111.693 Y89.066
G1 F1800 X154.819 Y132.192 E243.2982
G0 F3600 X154.819 Y132.757
G1 F1800 X111.621 Y89.56 E246.34601
G0 F3600 X111.549 Y90.053
G1 F1800 X154.819 Y133.323 E249.39895
G0 F3600 X154.819 Y133.889
G1 F1800 X111.477 Y90.547 E252.45696
G0 F3600 X111.404 Y91.039
G1 F1800 X154.819 Y134.454 E255.52012
G0 F3600 X154.819 Y135.02
G1 F1800 X111.332 Y91.533 E258.58836
G0 F3600 X111.26 Y92.027
G1 F1800 X154.819 Y135.586 E261.66169
G0 F3600 X154.819 Y136.151
G1 F1800 X111.188 Y92.52 E264.74009
G0 F3600 X111.055 Y92.953
G1 F1800 X154.819 Y136.717 E267.82788
G0 F3600 X154.819 Y137.283
G1 F1800 X110.839 Y93.303 E270.9309
G0 F3600 X110.51 Y93.539
G1 F1800 X154.819 Y137.849 E274.05718
G0 F3600 X154.819 Y138.414
G1 F1800 X110.075 Y93.67 E277.21411
G0 F3600 X109.509 Y93.67
G1 F1800 X154.819 Y138.98 E280.41097
G0 F3600 X154.819 Y139.546
G1 F1800 X108.943 Y93.67 E283.64777
G0 F3600 X108.378 Y93.67
G1 F1800 X154.819 Y140.111 E286.92444
G0 F3600 X154.819 Y140.677
G1 F1800 X107.812 Y93.67 E290.24103
G0 F3600 X107.246 Y93.67
G1 F1800 X154.819 Y141.243 E293.59757
G0 F3600 X154.819 Y141.808
G1 F1800 X106.681 Y93.67 E296.99396
G0 F3600 X106.115 Y93.67
G1 F1800 X154.819 Y142.374 E300.43029
G0 F3600 X154.819 Y142.94
G1 F1800 X105.549 Y93.67 E303.90656
G0 F3600 X104.984 Y93.67
G1 F1800 X154.819 Y143.505 E307.42269
G0 F3600 X154.819 Y144.071
G1 F1800 X104.418 Y93.67 E310.97875
G0 F3600 X103.852 Y93.67
G1 F1800 X154.819 Y144.637 E314.57475
G0 F3600 X154.819 Y145.202
G1 F1800 X103.287 Y93.67 E318.21061
G0 F3600 X102.721 Y93.67
G1 F1800 X154.819 Y145.768 E321.8864
G0 F3600 X154.819 Y146.334
G1 F1800 X102.155 Y93.67 E325.60213
G0 F3600 X101.59 Y93.67
G1 F1800 X154.819 Y146.9 E329.35776
G0 F3600 X154.819 Y147.465
G1 F1800 X101.024 Y93.67 E333.15329
G0 F3600 X100.458 Y93.67
G1 F1800 X154.819 Y148.031 E336.98875
G0 F3600 X154.819 Y148.597
G1 F1800 X99.892 Y93.67 E340.86415
G0 F3600 X99.327 Y93.67
G1 F1800 X154.819 Y149.162 E344.77941
G0 F3600 X154.82 Y149.729
G1 F1800 X98.761 Y93.67 E348.73467
G0 F3600 X98.195 Y93.67
G1 F1800 X154.82 Y150.294 E352.72984
G0 F3600 X154.82 Y150.86
G1 F1800 X97.63 Y93.67 E356.7649
G0 F3600 X97.064 Y93.67
G1 F1800 X154.82 Y151.426 E360.8399
G0 F3600 X154.82 Y151.991
G1 F1800 X96.498 Y93.67 E364.95479
G0 F3600 X95.933 Y93.67
G1 F1800 X154.82 Y152.557 E369.10959
G0 F3600 X154.82 Y153.123
G1 F1800 X95.367 Y93.67 E373.30432
G0 F3600 X95.179 Y94.048
G1 F1800 X154.82 Y153.688 E377.51228
