;FLAVOR:Marlin
;TIME:2328
;Filament used: 4.11141m
;Layer height: 0.3
;MINX:102.847
;MINY:106.249
;MINZ:0.3
;MAXX:147.153
;MAXY:147.3
;MAXZ:20.1
;Generated with Cura_SteamEngine main
M140 S60
M105
M190 S60
M104 S200
M105
M109 S200
M82 ;absolute extrusion mode
G21 ;metric values
G90 ;absolute positioning
M82 ;set extruder to absolute mode
M107 ;start with the fan off
G28 X0 Y0 ;move X/Y to min endstops
M300 S1318 P266
G28 Z0 ;move Z to min endstops
G0 Z0.2
G92 E0 ;zero the extruded length
G1 X40 E25 F400 ; Extrude 25mm of filament in a 4cm line. Reduce speed (F) if you have a nozzle smaller than 0.4mm!
G92 E0 ;zero the extruded length again
G1 E-1 F500 ; Retract a little
G1 X80 F4000 ; Quickly wipe away from the filament line
M117 ; Printing…
G5
G92 E0
G92 E0
G1 F1500 E-6.5
;LAYER_COUNT:67
;LAYER:0
M107
G0 F3600 X104.013 Y118.725 Z0.3
;TYPE:SUPPORT
G1 F1500 E0
G1 F1800 X104.013 Y136.275 E0.87557
G0 F3600 X103.499 Y136.016
G1 F1800 X106.499 Y136.016 E1.02524
G0 F3600 X106.499 Y133.349
G1 F1800 X103.499 Y133.349 E1.17491
G0 F3600 X103.499 Y130.683
G1 F1800 X106.499 Y130.683 E1.32458
G0 F3600 X106.499 Y128.016
G1 F1800 X103.499 Y128.016 E1.47426
G0 F3600 X103.499 Y125.349
G1 F1800 X106.499 Y125.349 E1.62393
G0 F3600 X106.499 Y122.682
G1 F1800 X103.499 Y122.682 E1.7736
G0 F3600 X103.499 Y120.015
G1 F1800 X106.499 Y120.015 E1.92327
G1 F1500 E-4.57673
G0 F3600 X108.696 Y106.847
G0 X122.735 Y106.68
G1 F1500 E1.92327
G1 F1800 X130.66 Y106.68 E2.31865
G0 F3600 X128.016 Y106.8
G1 F1800 X128.016 Y106.388 E2.3392
G0 F3600 X125.349 Y106.249
G1 F1800 X125.349 Y106.8 E2.36669
G1 F1500 E-4.13331
;MESH:FirstDingy v1.stl
G0 F3600 X125.349 Y107.92
G0 X110.219 Y108.37
G1 F1500 E2.36669
G0 F3600 X109.95 Y108.1
;TYPE:WALL-INNER
G1 F1800 X109.95 Y146.9 E4.30243
G1 X143.051 Y146.9 E5.95385
G1 X143.051 Y115.329 E7.52893
G1 X143.05 Y108.1 E7.88959
G1 X109.95 Y108.1 E9.54095
G0 F3600 X110.219 Y108.37
G0 X118.102 Y127.553
G0 X118.4 Y127.538
G1 F1800 X118.444 Y126.657 E9.58496
G1 X118.559 Y125.904 E9.62296
G1 X118.762 Y125.1 E9.66433
G1 X119.066 Y124.287 E9.70764
G1 X119.428 Y123.55 E9.7486
G1 X119.861 Y122.861 E9.7892
G1 X120.329 Y122.254 E9.82744
G1 X120.895 Y121.652 E9.86866
G1 X121.54 Y121.094 E9.91121
G1 X122.191 Y120.642 E9.95075
G1 X122.897 Y120.244 E9.99119
G1 X123.707 Y119.897 E10.03515
G1 X124.431 Y119.668 E10.07304
G1 X125.254 Y119.495 E10.11499
G1 X126.053 Y119.413 E10.15506
G1 X126.94 Y119.412 E10.19932
G1 X127.697 Y119.488 E10.23727
G1 X128.557 Y119.665 E10.28108
G1 X129.336 Y119.913 E10.32186
G1 X130.095 Y120.24 E10.3631
G1 X130.753 Y120.607 E10.40068
G1 X131.478 Y121.108 E10.44465
G1 X132.097 Y121.645 E10.48553
G1 X132.661 Y122.242 E10.52651
G1 X133.132 Y122.847 E10.56476
G1 X133.565 Y123.538 E10.60544
G1 X133.951 Y124.326 E10.64922
G1 X134.218 Y125.041 E10.6873
G1 X134.426 Y125.832 E10.7281
G1 X134.561 Y126.703 E10.77208
G1 X134.601 Y127.492 E10.81149
G1 X134.562 Y128.282 E10.85095
G1 X134.439 Y129.109 E10.89266
G1 X134.238 Y129.9 E10.93338
G1 X133.934 Y130.713 E10.97669
G1 X133.572 Y131.45 E11.01765
G1 X133.139 Y132.139 E11.05825
G1 X132.671 Y132.746 E11.09649
G1 X132.105 Y133.348 E11.13771
G1 X131.44 Y133.92 E11.18147
G1 X130.809 Y134.358 E11.2198
G1 X130.103 Y134.756 E11.26023
G1 X129.293 Y135.103 E11.30419
G1 X128.569 Y135.332 E11.34208
G1 X127.746 Y135.505 E11.38403
G1 X126.947 Y135.587 E11.42411
G1 X126.06 Y135.588 E11.46836
G1 X125.303 Y135.512 E11.50631
G1 X124.443 Y135.335 E11.55012
G1 X123.664 Y135.087 E11.59091
G1 X122.903 Y134.758 E11.63227
G1 X122.198 Y134.362 E11.67261
G1 X121.55 Y133.913 E11.71194
G1 X120.944 Y133.395 E11.75171
G1 X120.339 Y132.758 E11.79554
G1 X119.868 Y132.153 E11.8338
G1 X119.404 Y131.407 E11.87763
G1 X119.071 Y130.726 E11.91545
G1 X118.764 Y129.9 E11.95941
G1 X118.561 Y129.109 E12.00015
G1 X118.445 Y128.356 E12.03816
G1 X118.4 Y127.538 E12.07903
G0 F3600 X118.8 Y127.497
;TYPE:WALL-OUTER
G1 F1800 X118.84 Y126.717 E12.118
G1 X118.955 Y125.964 E12.156
G1 X119.156 Y125.178 E12.19648
G1 X119.418 Y124.479 E12.23372
G1 X119.768 Y123.762 E12.27353
G1 X120.178 Y123.105 E12.31216
G1 X120.646 Y122.498 E12.3504
G1 X121.185 Y121.927 E12.38958
G1 X121.788 Y121.408 E12.42927
G1 X122.419 Y120.97 E12.46759
G1 X123.092 Y120.594 E12.50605
G1 X123.827 Y120.279 E12.54595
G1 X124.551 Y120.05 E12.58383
G1 X125.323 Y119.889 E12.62317
G1 X126.093 Y119.811 E12.66179
G1 X126.9 Y119.81 E12.70205
G1 X127.657 Y119.886 E12.74
G1 X128.437 Y120.047 E12.77974
G1 X129.179 Y120.281 E12.81855
G1 X129.881 Y120.58 E12.85662
G1 X130.574 Y120.967 E12.89622
G1 X131.217 Y121.412 E12.93523
G1 X131.793 Y121.907 E12.97312
G1 X132.345 Y122.488 E13.01311
G1 X132.828 Y123.11 E13.0524
G1 X133.235 Y123.767 E13.09095
G1 X133.576 Y124.466 E13.12976
G1 X133.849 Y125.2 E13.16883
G1 X134.039 Y125.932 E13.20656
G1 X134.159 Y126.703 E13.24548
G1 X134.201 Y127.492 E13.2849
G1 X134.16 Y128.283 E13.32442
G1 X134.045 Y129.04 E13.36262
G1 X133.844 Y129.822 E13.4029
G1 X133.582 Y130.521 E13.44014
G1 X133.232 Y131.238 E13.47995
G1 X132.822 Y131.895 E13.51859
G1 X132.354 Y132.502 E13.55683
G1 X131.815 Y133.073 E13.596
G1 X131.212 Y133.592 E13.63569
G1 X130.581 Y134.03 E13.67401
G1 X129.908 Y134.406 E13.71248
G1 X129.173 Y134.721 E13.75237
G1 X128.449 Y134.95 E13.79026
G1 X127.677 Y135.111 E13.8296
G1 X126.907 Y135.189 E13.86821
G1 X126.1 Y135.19 E13.90847
G1 X125.343 Y135.114 E13.94643
G1 X124.563 Y134.953 E13.98616
G1 X123.821 Y134.719 E14.02498
G1 X123.098 Y134.409 E14.06423
G1 X122.426 Y134.033 E14.10264
G1 X121.782 Y133.587 E14.14173
G1 X121.205 Y133.091 E14.17969
G1 X120.655 Y132.512 E14.21953
G1 X120.172 Y131.89 E14.25882
G1 X119.764 Y131.231 E14.29749
G1 X119.423 Y130.532 E14.33629
G1 X119.151 Y129.8 E14.37525
G1 X118.957 Y129.048 E14.41399
G1 X118.841 Y128.295 E14.452
G1 X118.8 Y127.497 E14.49187
G0 F3600 X118.81 Y127.298
G0 X118.112 Y127.264
G0 X109.819 Y107.97
G0 X109.55 Y107.7
G1 F1800 X109.55 Y147.3 E16.46752
G1 X143.451 Y147.3 E18.15885
G1 X143.451 Y115.329 E19.75389
G1 X143.45 Y107.7 E20.1345
G1 X109.55 Y107.7 E21.82578
G0 F3600 X109.55 Y107.9
G0 X110.33 Y108.48
;TYPE:SKIN
G1 F1800 X110.33 Y146.52 E23.7236
G1 X142.671 Y146.52 E25.3371
G1 X142.671 Y115.328 E26.89327
G1 X142.67 Y108.48 E27.23492
G1 X110.33 Y108.48 E28.84837
G0 F3600 X118.02 Y127.56
G1 F1800 X118.06 Y126.68 E28.89232
G1 X118.199 Y125.769 E28.9383
G1 X118.398 Y124.986 E28.9786
G1 X118.716 Y124.137 E29.02383
G1 X119.105 Y123.348 E29.06772
G1 X119.547 Y122.644 E29.10919
G1 X120.092 Y121.946 E29.15337
G1 X120.615 Y121.393 E29.19135
G1 X121.274 Y120.819 E29.23495
G1 X121.989 Y120.319 E29.27848
G1 X122.71 Y119.913 E29.31976
G1 X123.515 Y119.563 E29.36355
G1 X124.313 Y119.306 E29.40538
G1 X125.186 Y119.12 E29.44991
G1 X126.013 Y119.035 E29.49139
G1 X126.978 Y119.033 E29.53953
G1 X127.735 Y119.109 E29.57749
G1 X128.575 Y119.276 E29.62021
G1 X129.413 Y119.537 E29.664
G1 X130.203 Y119.869 E29.70676
G1 X130.953 Y120.285 E29.74954
G1 X131.679 Y120.78 E29.79338
G1 X132.302 Y121.315 E29.83435
G1 X132.963 Y122.009 E29.88217
G1 X133.479 Y122.678 E29.92432
G1 X133.898 Y123.354 E29.964
G1 X134.276 Y124.121 E30.00666
G1 X134.6 Y124.984 E30.05265
G1 X134.81 Y125.81 E30.09517
G1 X134.941 Y126.681 E30.13911
G1 X134.982 Y127.489 E30.17947
G1 X134.931 Y128.4 E30.22499
G1 X134.814 Y129.179 E30.26429
G1 X134.601 Y130.013 E30.30724
G1 X134.276 Y130.881 E30.35348
G1 X133.895 Y131.652 E30.39638
G1 X133.453 Y132.356 E30.43786
G1 X132.908 Y133.054 E30.48204
G1 X132.385 Y133.607 E30.52001
G1 X131.727 Y134.18 E30.56354
G1 X131.011 Y134.681 E30.60714
G1 X130.29 Y135.087 E30.64842
G1 X129.485 Y135.437 E30.69221
G1 X128.687 Y135.694 E30.73404
G1 X127.814 Y135.88 E30.77857
G1 X126.986 Y135.965 E30.8201
G1 X126.022 Y135.967 E30.86819
G1 X125.265 Y135.891 E30.90615
G1 X124.425 Y135.724 E30.94888
G1 X123.606 Y135.469 E30.99167
G1 X122.716 Y135.09 E31.03993
G1 X121.998 Y134.685 E31.08106
G1 X121.339 Y134.23 E31.12101
G1 X120.623 Y133.614 E31.16813
G1 X120.048 Y133.005 E31.20992
G1 X119.514 Y132.31 E31.25365
G1 X119.058 Y131.566 E31.29718
G1 X118.699 Y130.821 E31.33844
G1 X118.4 Y130.014 E31.38138
G1 X118.188 Y129.189 E31.42387
G1 X118.059 Y128.315 E31.46795
G1 X118.02 Y127.56 E31.50567
G0 F3600 X110.681 Y146.319
G1 F1800 X110.529 Y146.167 E31.51639
G0 F3600 X110.529 Y145.601
G1 F1800 X111.246 Y146.319 E31.56702
G0 F3600 X111.812 Y146.319
G1 F1800 X110.529 Y145.036 E31.65754
G0 F3600 X110.529 Y144.47
G1 F1800 X112.378 Y146.319 E31.78799
G0 F3600 X112.944 Y146.319
G1 F1800 X110.529 Y143.904 E31.95839
G0 F3600 X110.529 Y143.339
G1 F1800 X113.509 Y146.319 E32.16864
G0 F3600 X114.075 Y146.319
G1 F1800 X110.529 Y142.773 E32.41883
G0 F3600 X110.529 Y142.207
G1 F1800 X114.641 Y146.319 E32.70895
G0 F3600 X115.206 Y146.319
G1 F1800 X110.529 Y141.641 E33.03898
G0 F3600 X110.529 Y141.076
G1 F1800 X115.772 Y146.319 E33.4089
G0 F3600 X116.338 Y146.319
G1 F1800 X110.529 Y140.51 E33.81876
G0 F3600 X110.529 Y139.944
G1 F1800 X116.903 Y146.319 E34.26851
G0 F3600 X117.469 Y146.319
G1 F1800 X110.529 Y139.379 E34.75817
G0 F3600 X110.529 Y138.813
G1 F1800 X118.035 Y146.319 E35.28775
G0 F3600 X118.6 Y146.319
G1 F1800 X110.529 Y138.247 E35.85724
G0 F3600 X110.529 Y137.682
G1 F1800 X119.166 Y146.319 E36.46663
G0 F3600 X119.732 Y146.319
G1 F1800 X110.529 Y137.116 E37.11595
G0 F3600 X110.529 Y136.55
G1 F1800 X120.297 Y146.319 E37.80517
G0 F3600 X120.863 Y146.319
G1 F1800 X110.529 Y135.985 E38.53429
G0 F3600 X110.529 Y135.419
G1 F1800 X121.429 Y146.319 E39.30334
G0 F3600 X121.995 Y146.319
G1 F1800 X110.529 Y134.853 E40.11233
G0 F3600 X110.529 Y134.288
G1 F1800 X122.56 Y146.319 E40.96118
G0 F3600 X123.126 Y146.319
G1 F1800 X110.529 Y133.722 E41.84997
G0 F3600 X110.529 Y133.156
G1 F1800 X123.692 Y146.319 E42.77869
G0 F3600 X124.257 Y146.319
G1 F1800 X110.529 Y132.591 E43.74728
G0 F3600 X110.529 Y132.025
G1 F1800 X124.823 Y146.319 E44.7558
G0 F3600 X125.389 Y146.319
G1 F1800 X110.529 Y131.459 E45.80425
G0 F3600 X110.529 Y130.893
G1 F1800 X125.954 Y146.319 E46.8926
G0 F3600 X126.52 Y146.319
G1 F1800 X110.529 Y130.328 E48.02085
G0 F3600 X110.529 Y129.762
G1 F1800 X127.086 Y146.319 E49.18904
G0 F3600 X127.651 Y146.319
G1 F1800 X110.529 Y129.196 E50.39712
G0 F3600 X110.529 Y128.631
G1 F1800 X128.217 Y146.319 E51.64511
G0 F3600 X128.783 Y146.319
G1 F1800 X110.529 Y128.065 E52.93303
G0 F3600 X110.529 Y127.499
G1 F1800 X129.348 Y146.319 E54.26084
G0 F3600 X129.914 Y146.319
G1 F1800 X110.529 Y126.934 E55.62856
G0 F3600 X110.529 Y126.368
G1 F1800 X130.48 Y146.319 E57.03621
G0 F3600 X131.045 Y146.319
G1 F1800 X110.529 Y125.802 E58.48376
G0 F3600 X110.529 Y125.237
G1 F1800 X131.611 Y146.319 E59.97121
G0 F3600 X132.177 Y146.319
G1 F1800 X110.529 Y124.671 E61.49859
G0 F3600 X110.529 Y124.105
G1 F1800 X132.743 Y146.319 E63.06591
G0 F3600 X133.308 Y146.319
G1 F1800 X121.733 Y134.744 E63.88259
G1 X121.663 Y134.674
G0 F3600 X122.967 Y135.413
G1 F1800 X133.874 Y146.319 E64.6521
G0 F3600 X134.44 Y146.319
G1 F1800 X123.885 Y135.764 E65.39681
G1 X123.815 Y135.694
G0 F3600 X124.66 Y135.973
G1 F1800 X135.005 Y146.319 E66.12674
G0 F3600 X135.571 Y146.319
G1 F1800 X125.352 Y136.1 E66.84775
G0 F3600 X125.981 Y136.164
G1 F1800 X136.137 Y146.319 E67.56427
G0 F3600 X136.702 Y146.319
G1 F1800 X126.547 Y136.164 E68.28077
G0 F3600 X127.102 Y136.153
G1 F1800 X137.268 Y146.319 E68.99803
G0 F3600 X137.834 Y146.319
G1 F1800 X127.615 Y136.1 E69.71904
G0 F3600 X128.103 Y136.022
G1 F1800 X138.399 Y146.319 E70.44551
G0 F3600 X138.965 Y146.319
G1 F1800 X128.569 Y135.923 E71.179
G0 F3600 X129.008 Y135.797
G1 F1800 X139.531 Y146.319 E71.92142
G0 F3600 X140.096 Y146.319
G1 F1800 X129.436 Y135.659 E72.67354
G0 F3600 X129.842 Y135.499
G1 F1800 X140.662 Y146.319 E73.43695
G0 F3600 X141.228 Y146.319
G1 F1800 X130.236 Y135.327 E74.2125
G0 F3600 X130.61 Y135.135
G1 F1800 X141.794 Y146.319 E75.00159
G0 F3600 X142.359 Y146.319
G1 F1800 X130.971 Y134.931 E75.80508
G0 F3600 X131.316 Y134.71
G1 F1800 X142.471 Y145.865 E76.59212
G0 F3600 X142.471 Y145.299
G1 F1800 X131.649 Y134.477 E77.35567
G0 F3600 X131.97 Y134.232
G1 F1800 X142.471 Y144.734 E78.09661
G0 F3600 X142.471 Y144.168
G1 F1800 X132.272 Y133.969 E78.8162
G0 F3600 X132.569 Y133.701
G1 F1800 X142.471 Y143.602 E79.51481
G0 F3600 X142.471 Y143.037
G1 F1800 X132.844 Y133.409 E80.19408
G0 F3600 X133.114 Y133.114
G1 F1800 X142.471 Y142.471 E80.85427
G0 F3600 X142.471 Y141.905
G1 F1800 X133.362 Y132.796 E81.49696
G0 F3600 X133.609 Y132.477
G1 F1800 X142.471 Y141.34 E82.12225
G0 F3600 X142.471 Y140.774
G1 F1800 X133.827 Y132.13 E82.73213
G0 F3600 X134.046 Y131.783
G1 F1800 X142.471 Y140.208 E83.32656
G0 F3600 X142.471 Y139.642
G1 F1800 X134.236 Y131.408 E83.90755
G0 F3600 X134.423 Y131.029
G1 F1800 X142.471 Y139.077 E84.47538
G0 F3600 X142.471 Y138.511
G1 F1800 X134.582 Y130.623 E85.03196
G0 F3600 X134.737 Y130.211
G1 F1800 X142.471 Y137.945 E85.57763
G0 F3600 X142.471 Y137.38
G1 F1800 X134.867 Y129.776 E86.11414
G0 F3600 X134.981 Y129.324
G1 F1800 X142.471 Y136.814 E86.6426
G0 F3600 X142.471 Y136.248
G1 F1800 X135.065 Y128.842 E87.16513
G0 F3600 X135.134 Y128.346
G1 F1800 X142.471 Y135.683 E87.68279
G0 F3600 X142.471 Y135.117
G1 F1800 X135.163 Y127.809 E88.19841
G0 F3600 X135.168 Y127.248
G1 F1800 X142.471 Y134.551 E88.71368
G0 F3600 X142.471 Y133.986
G1 F1800 X135.136 Y126.651 E89.2312
G0 F3600 X135.039 Y125.988
G1 F1800 X142.47 Y133.419 E89.7555
G0 F3600 X142.47 Y132.854
G1 F1800 X134.872 Y125.256 E90.29158
G1 X134.802 Y125.186
G0 F3600 X134.597 Y124.415
G1 F1800 X142.47 Y132.288 E90.84706
G0 F3600 X142.47 Y131.722
G1 F1800 X134.138 Y123.39 E91.43493
G1 X134.068 Y123.32
G0 F3600 X130.618 Y119.87
G1 F1800 X119.427 Y108.679 E92.22452
G0 F3600 X118.861 Y108.679
G1 F1800 X129.568 Y119.386 E92.97995
G1 X129.638 Y119.456
G0 F3600 X128.734 Y119.117
G1 F1800 X118.296 Y108.679 E93.71641
G0 F3600 X117.73 Y108.679
G1 F1800 X128.011 Y118.96 E94.44179
G0 F3600 X127.354 Y118.869
G1 F1800 X117.164 Y108.679 E95.16075
G0 F3600 X116.599 Y108.679
G1 F1800 X126.753 Y118.834 E95.8772
G0 F3600 X126.188 Y118.834
G1 F1800 X116.033 Y108.679 E96.59369
G0 F3600 X115.467 Y108.679
G1 F1800 X125.658 Y118.87 E97.31273
G0 F3600 X125.146 Y118.924
G1 F1800 X114.902 Y108.679 E98.03553
G0 F3600 X114.336 Y108.679
G1 F1800 X124.679 Y119.022 E98.76528
G0 F3600 X124.218 Y119.127
G1 F1800 X113.77 Y108.679 E99.50245
G0 F3600 X113.204 Y108.679
G1 F1800 X123.791 Y119.265 E100.24938
G0 F3600 X123.367 Y119.407
G1 F1800 X112.639 Y108.679 E101.0063
G0 F3600 X112.073 Y108.679
G1 F1800 X122.974 Y119.58 E101.77542
G0 F3600 X122.583 Y119.754
G1 F1800 X111.507 Y108.679 E102.55686
G0 F3600 X110.942 Y108.679
G1 F1800 X122.221 Y119.958 E103.35266
G0 F3600 X121.861 Y120.164
G1 F1800 X110.529 Y108.832 E104.15219
G0 F3600 X110.529 Y109.397
G1 F1800 X121.528 Y120.396 E104.92823
G0 F3600 X121.194 Y120.628
G1 F1800 X110.529 Y109.963 E105.6807
G0 F3600 X110.529 Y110.529
G1 F1800 X120.889 Y120.889 E106.41166
G0 F3600 X120.587 Y121.152
G1 F1800 X110.529 Y111.094 E107.1213
G0 F3600 X110.529 Y111.66
G1 F1800 X120.302 Y121.434 E107.81087
G0 F3600 X120.027 Y121.724
G1 F1800 X110.529 Y112.226 E108.48101
G0 F3600 X110.529 Y112.792
G1 F1800 X119.769 Y122.032 E109.13294
G0 F3600 X119.521 Y122.349
G1 F1800 X110.529 Y113.357 E109.76738
G0 F3600 X110.529 Y113.923
G1 F1800 X119.288 Y122.683 E110.38541
G0 F3600 X119.071 Y123.03
G1 F1800 X110.529 Y114.489 E110.98806
G0 F3600 X110.529 Y115.054
G1 F1800 X118.862 Y123.388 E111.57603
G0 F3600 X118.676 Y123.767
G1 F1800 X110.529 Y115.62 E112.15084
G0 F3600 X110.529 Y116.186
G1 F1800 X118.496 Y124.153 E112.71296
G0 F3600 X118.342 Y124.565
G1 F1800 X110.529 Y116.751 E113.26424
G0 F3600 X110.529 Y117.317
G1 F1800 X118.194 Y124.982 E113.80505
G0 F3600 X118.079 Y125.432
G1 F1800 X110.529 Y117.883 E114.33771
G0 F3600 X110.529 Y118.448
G1 F1800 X117.977 Y125.896 E114.8632
G0 F3600 X117.902 Y126.387
G1 F1800 X110.529 Y119.014 E115.38341
G0 F3600 X110.529 Y119.58
G1 F1800 X117.85 Y126.901 E115.89995
G0 F3600 X117.825 Y127.442
G1 F1800 X110.529 Y120.145 E116.41475
G0 F3600 X110.529 Y120.711
G1 F1800 X117.843 Y128.025 E116.9308
G0 F3600 X117.908 Y128.656
