; Generated with MatterSlice 2.22.04
; filamentDiameter = 1.75
; extrusionWidth = 0.5
; firstLayerExtrusionWidth = 0.65
; layerThickness = 0.3
; firstLayerThickness = 0.3
; automatic settings before start_gcode
G21 ; set units to millimeters
M107 ; fan off
M140 S60 ; start heating the bed
M104 T0 S210 ; start heating T0
M109 T0 S210 ; wait for T0
T0 ; set the active extruder to 0
; settings from start_gcode
G28
; automatic settings after start_gcode
M190 S60 ; wait for bed temperature to be reached
M109 T0 S210 ; Finish heating T0
T0 ; set the active extruder to 0
G90 ; use absolute coordinates
G92 E0 ; reset the expected extruder position
M82 ; use absolute distance for extrusion
; Layer count: 67
; Layer Change GCode
; LAYER:0
; LAYER_HEIGHT:0.3
; TYPE:FILL
M400
M107
G1 X16.37 Y17.03 Z0.8 F12000
G1 X18.02 Y17.58
G1 X17.96 Y18.68
G1 X21.13 Y21.98
; TYPE:SKIRT
G1 Z0.3
G1 F6000
G1 X-19.38 E3.284 F900
G1 X-27.47 Y8.7 E4.545
G1 Y-12.7 E6.279
G1 X-19.38 Y-25.97 E7.54
G1 X21.13 E10.823
G1 Y21.98 E14.711
G1 X20.48 Y21.33 F12000
G1 X-19.02 E17.912 F900
G1 X-26.82 Y8.51 E19.129
G1 Y-12.51 E20.833
G1 X-19.02 Y-25.32 E22.05
G1 X20.48 E25.251
G1 Y21.33 E29.033
G1 E26.533 F6000
G1 Z0.8
G1 X15.53 Y16.38 F12000
; TYPE:WALL-INNER
G1 Z0.3
G1 E29.033 F6000
G1 X-15.52 E31.55 F900
G1 Y-20.37 E34.53
G1 X15.53 E37.047
G1 Y16.31 E40.021
G1 Y16.38
G1 X16.83 Y17.68 F12000
; TYPE:WALL-OUTER
G1 X-16.82 E42.749 F900
G1 Y-21.67 E45.939
G1 X16.83 E48.667
G1 Y17.61 E51.852
G1 Y17.68
G1 X13.83
G1 X16.18 Y17.03 F12000
; TYPE:WALL-INNER
G1 X-16.17 E54.474 F900
G1 Y-21.02 E57.559
G1 X16.18 E60.182
G1 Y16.96 E63.261
G1 Y17.03
G1 E60.761 F6000
G1 Z0.8
G1 X15.45 Y16.3 F12000
G1 X5.59 Y5.21
G1 Z0.3
G1 E63.261 F6000
G1 X4.83 Y5.74 E63.336 F900
G1 X4.03 Y6.19 E63.411
G1 X3.18 Y6.56 E63.486
G1 X2.3 Y6.83 E63.561
G1 X1.39 Y7.02 E63.636
G1 X0.47 Y7.11 E63.711
G1 X-0.45 Y7.12 E63.786
G1 X-1.37 Y7.02 E63.861
G1 X-2.28 Y6.84 E63.936
G1 X-3.16 Y6.56 E64.011
G1 X-4.01 Y6.2 E64.086
G1 X-4.82 Y5.75 E64.161
G1 X-5.58 Y5.22 E64.235
G1 X-6.28 Y4.62 E64.31
G1 X-6.92 Y3.95 E64.385
G1 X-7.49 Y3.22 E64.46
G1 X-7.97 Y2.44 E64.535
G1 X-8.38 Y1.61 E64.61
G1 X-8.71 Y0.74 E64.685
G1 X-8.94 Y-0.15 E64.76
G1 X-9.08 Y-1.07 E64.835
G1 X-9.13 Y-1.99 E64.91
G1 X-9.08 Y-2.91 E64.985
G1 X-8.94 Y-3.83 E65.06
G1 X-8.71 Y-4.72 E65.135
G1 X-8.39 Y-5.59 E65.21
G1 X-7.98 Y-6.42 E65.285
G1 X-7.49 Y-7.21 E65.36
G1 X-6.93 Y-7.94 E65.435
G1 X-6.29 Y-8.61 E65.509
G1 X-5.59 Y-9.21 E65.584
G1 X-4.83 Y-9.74 E65.659
G1 X-4.03 Y-10.19 E65.734
G1 X-3.18 Y-10.55 E65.809
G1 X-2.29 Y-10.83 E65.884
G1 X-1.39 Y-11.02 E65.959
G1 X-0.47 Y-11.11 E66.034
G1 X0.45 Y-11.11 E66.109
G1 X1.37 Y-11.02 E66.184
G1 X2.28 Y-10.84 E66.259
G1 X3.16 Y-10.56 E66.334
G1 X4.01 Y-10.2 E66.409
G1 X4.82 Y-9.75 E66.484
G1 X5.58 Y-9.22 E66.559
G1 X6.28 Y-8.62 E66.634
G1 X6.92 Y-7.95 E66.709
G1 X7.49 Y-7.22 E66.784
G1 X7.98 Y-6.44 E66.858
G1 X8.38 Y-5.61 E66.933
G1 X8.71 Y-4.74 E67.008
G1 X8.94 Y-3.84 E67.083
G1 X9.08 Y-2.93 E67.158
G1 X9.13 Y-2.01 E67.233
G1 X9.08 Y-1.08 E67.308
G1 X8.94 Y-0.17 E67.383
G1 X8.71 Y0.73 E67.458
G1 X8.39 Y1.59 E67.533
G1 X7.98 Y2.42 E67.608
G1 X7.5 Y3.21 E67.683
G1 X6.93 Y3.94 E67.758
G1 X6.29 Y4.61 E67.833
G1 X5.64 Y5.17 E67.902
G1 X5.59 Y5.21
G1 X4.79 Y4.18 F12000
; TYPE:WALL-OUTER
G1 X4.14 Y4.64 E67.967 F900
G1 X3.45 Y5.02 E68.031
G1 X2.72 Y5.34 E68.095
G1 X1.97 Y5.57 E68.159
G1 X1.19 Y5.73 E68.224
G1 X0.4 Y5.81 E68.288
G1 X-0.39 Y5.82 E68.352
G1 X-1.18 Y5.74 E68.416
G1 X-1.95 Y5.58 E68.481
G1 X-2.71 Y5.34 E68.545
G1 X-3.44 Y5.03 E68.609
G1 X-4.13 Y4.64 E68.673
G1 X-4.78 Y4.19 E68.738
G1 X-5.39 Y3.68 E68.802
G1 X-5.93 Y3.1 E68.866
G1 X-6.42 Y2.48 E68.93
G1 X-6.84 Y1.8 E68.995
G1 X-7.19 Y1.09 E69.059
G1 X-7.46 Y0.35 E69.123
G1 X-7.66 Y-0.42 E69.187
G1 X-7.78 Y-1.2 E69.252
G1 X-7.82 Y-1.99 E69.316
G1 X-7.78 Y-2.78 E69.38
G1 X-7.67 Y-3.57 E69.444
G1 X-7.47 Y-4.34 E69.509
G1 X-7.19 Y-5.08 E69.573
G1 X-6.84 Y-5.79 E69.637
G1 X-6.43 Y-6.46 E69.701
G1 X-5.94 Y-7.09 E69.766
G1 X-5.4 Y-7.67 E69.83
G1 X-4.79 Y-8.18 E69.894
G1 X-4.14 Y-8.64 E69.958
G1 X-3.45 Y-9.02 E70.023
G1 X-2.72 Y-9.33 E70.087
G1 X-1.97 Y-9.57 E70.151
G1 X-1.19 Y-9.73 E70.215
G1 X-0.4 Y-9.81 E70.28
G1 X0.39 Y-9.81 E70.344
G1 X1.18 Y-9.74 E70.408
G1 X1.95 Y-9.58 E70.472
G1 X2.71 Y-9.34 E70.537
G1 X3.44 Y-9.03 E70.601
G1 X4.13 Y-8.64 E70.665
G1 X4.78 Y-8.19 E70.729
G1 X5.39 Y-7.67 E70.794
G1 X5.93 Y-7.1 E70.858
G1 X6.42 Y-6.47 E70.922
G1 X6.84 Y-5.8 E70.986
G1 X7.19 Y-5.09 E71.051
G1 X7.46 Y-4.35 E71.115
G1 X7.66 Y-3.58 E71.179
G1 X7.78 Y-2.8 E71.244
G1 X7.83 Y-2.01 E71.308
G1 X7.79 Y-1.21 E71.372
G1 X7.67 Y-0.43 E71.436
G1 X7.47 Y0.34 E71.5
G1 X7.19 Y1.08 E71.565
G1 X6.85 Y1.79 E71.629
G1 X6.43 Y2.46 E71.693
G1 X5.94 Y3.09 E71.758
G1 X5.4 Y3.67 E71.822
G1 X4.84 Y4.14 E71.881
G1 X4.79 Y4.18
G1 X4.14 Y4.64
G1 X3.45 Y5.02
G1 X2.72 Y5.34
G1 X2.13 Y5.52
G1 X5.19 Y4.7 F12000
; TYPE:WALL-INNER
G1 X4.49 Y5.19 E71.95 F900
G1 X3.74 Y5.61 E72.02
G1 X2.95 Y5.95 E72.09
G1 X2.13 Y6.2 E72.159
G1 X1.29 Y6.38 E72.229
G1 X0.44 Y6.46 E72.298
G1 X-0.42 Y6.47 E72.368
G1 X-1.27 Y6.38 E72.437
G1 X-2.12 Y6.21 E72.507
G1 X-2.94 Y5.95 E72.577
G1 X-3.73 Y5.61 E72.646
G1 X-4.48 Y5.2 E72.716
G1 X-5.18 Y4.71 E72.786
G1 X-5.83 Y4.15 E72.855
G1 X-6.42 Y3.53 E72.925
G1 X-6.95 Y2.85 E72.994
G1 X-7.41 Y2.12 E73.064
G1 X-7.78 Y1.35 E73.134
G1 X-8.08 Y0.54 E73.203
G1 X-8.3 Y-0.29 E73.273
G1 X-8.43 Y-1.13 E73.342
G1 X-8.48 Y-1.99 E73.412
G1 X-8.43 Y-2.85 E73.481
G1 X-8.3 Y-3.7 E73.551
G1 X-8.09 Y-4.53 E73.621
G1 X-7.79 Y-5.34 E73.69
G1 X-7.41 Y-6.11 E73.76
G1 X-6.96 Y-6.83 E73.829
G1 X-6.43 Y-7.51 E73.899
G1 X-5.84 Y-8.14 E73.969
G1 X-5.19 Y-8.7 E74.038
G1 X-4.49 Y-9.19 E74.108
G1 X-3.74 Y-9.61 E74.178
G1 X-2.95 Y-9.94 E74.247
G1 X-2.13 Y-10.2 E74.317
G1 X-1.29 Y-10.38 E74.386
G1 X-0.44 Y-10.46 E74.456
G1 X0.42 Y-10.46 E74.525
G1 X1.28 Y-10.38 E74.595
G1 X2.12 Y-10.21 E74.665
G1 X2.94 Y-9.95 E74.734
G1 X3.73 Y-9.61 E74.804
G1 X4.48 Y-9.2 E74.873
G1 X5.18 Y-8.71 E74.943
G1 X5.83 Y-8.15 E75.013
G1 X6.43 Y-7.53 E75.082
G1 X6.95 Y-6.85 E75.152
G1 X7.41 Y-6.12 E75.221
G1 X7.79 Y-5.35 E75.291
G1 X8.09 Y-4.54 E75.361
G1 X8.3 Y-3.71 E75.43
G1 X8.43 Y-2.86 E75.5
G1 X8.48 Y-2.01 E75.569
G1 X8.43 Y-1.15 E75.639
G1 X8.3 Y-0.3 E75.709
G1 X8.09 Y0.53 E75.778
G1 X7.79 Y1.34 E75.848
G1 X7.41 Y2.11 E75.917
G1 X6.96 Y2.84 E75.987
G1 X6.44 Y3.52 E76.057
G1 X5.85 Y4.14 E76.126
G1 X5.24 Y4.66 E76.191
G1 X5.19 Y4.7
G1 E73.691 F6000
G1 Z0.8
G1 X14.95 Y15.97 F12000
; TYPE:BOTTOM-FILL
G1 Z0.3
G1 E76.191 F6000
G1 X14.95 Y-19.97 E79.105 F900
G1 X14.3 F12000
G1 X14.3 Y15.97 E82.019 F900
G1 X13.65 F12000
G1 X13.65 Y-19.97 E84.934 F900
G1 X13 F12000
G1 X13 Y15.97 E87.848 F900
G1 X12.35 F12000
G1 X12.35 Y-19.97 E90.762 F900
G1 X11.7 F12000
G1 X11.7 Y15.97 E93.676 F900
G1 X11.05 F12000
G1 X11.05 Y-19.97 E96.591 F900
G1 X10.4 F12000
G1 X10.4 Y15.97 E99.505 F900
G1 X9.75 F12000
G1 X9.75 Y-19.97 E102.419 F900
G1 X9.1 F12000
G1 X9.1 Y-4.81 E103.648 F900
G1 X8.45 Y-6.38 F12000
G1 X8.45 Y-19.97 E104.751 F900
G1 X7.8 F12000
G1 Y-7.47 E105.765 F900
G1 X7.15 Y-8.29 F12000
G1 Y-19.97 E106.712 F900
G1 X6.5 F12000
G1 Y-8.96 E107.605 F900
G1 X5.85 Y-9.52 F12000
G1 Y-19.97 E108.453 F900
G1 X5.2 F12000
G1 Y-9.97 E109.264 F900
G1 X4.55 Y-10.36 F12000
G1 Y-19.97 E110.043 F900
G1 X3.9 F12000
G1 Y-10.68 E110.797 F900
G1 X3.25 Y-10.95 F12000
G1 Y-19.97 E111.528 F900
G1 X2.6 F12000
G1 Y-11.15 E112.243 F900
G1 X1.95 Y-11.31 F12000
G1 Y-19.97 E112.945 F900
G1 X1.3 F12000
G1 Y-11.43 E113.638 F900
G1 X0.65 Y-11.5 F12000
G1 Y-19.97 E114.325 F900
G1 X0 Y-19.97 F12000
G1 Y-11.51 E115.011 F900
G1 X-0.65 Y-11.5 F12000
G1 Y-19.97 E115.698 F900
G1 X-1.3 F12000
G1 Y-11.43 E116.391 F900
G1 X-1.95 Y-11.31 F12000
G1 Y-19.97 E117.093 F900
G1 X-2.6 F12000
G1 Y-11.16 E117.808 F900
G1 X-3.25 Y-10.95 F12000
G1 Y-19.97 E118.54 F900
G1 X-3.9 F12000
G1 Y-10.68 E119.294 F900
G1 X-4.55 Y-10.35 F12000
G1 Y-19.97 E120.074 F900
G1 X-5.2 F12000
G1 Y-9.97 E120.885 F900
G1 X-5.85 Y-9.51 F12000
G1 Y-19.97 E121.733 F900
G1 X-6.5 F12000
G1 Y-8.96 E122.626 F900
G1 X-7.15 Y-8.29 F12000
G1 Y-19.97 E123.574 F900
G1 X-7.8 F12000
G1 Y-7.46 E124.588 F900
G1 X-8.45 Y-6.37 F12000
G1 Y-19.97 E125.691 F900
G1 X-9.1 F12000
G1 Y-4.81 E126.92 F900
G1 E124.42 F6000
G1 Z0.8
G1 X-8.72 Y0.24 F12000
G1 X-6.1 Y3.84
G1 X-4.27 Y5.7
G1 X0.39 Y6.94
G1 X5.56 Y4.5
G1 X9.1 Y0.82
G1 Z0.3
G1 E126.92 F6000
G1 Y15.97 E128.149 F900
G1 X8.45 F12000
G1 Y2.38 E129.251 F900
G1 X7.8 Y3.46 F12000
G1 Y15.97 E130.265 F900
G1 X7.15 Y15.98 F12000
G1 Y4.29 E131.213 F900
G1 X6.5 Y4.96 F12000
G1 Y15.98 E132.106 F900
G1 X5.85 F12000
G1 Y5.51 E132.954 F900
G1 X5.2 Y5.97 F12000
G1 Y15.98 E133.766 F900
G1 X4.55 F12000
G1 Y6.36 E134.545 F900
G1 X3.9 Y6.68 F12000
G1 Y15.98 E135.299 F900
G1 X3.25 F12000
G1 Y6.95 E136.031 F900
G1 X2.6 Y7.16 F12000
G1 Y15.98 E136.746 F900
G1 X1.95 F12000
G1 Y7.31 E137.448 F900
G1 X1.3 Y7.43 F12000
G1 Y15.98 E138.141 F900
G1 X0.65 F12000
G1 Y7.5 E138.828 F900
G1 X0 Y7.52 F12000
G1 Y15.98 E139.514 F900
G1 X-0.65 Y15.97 F12000
G1 Y7.5 E140.201 F900
G1 X-1.3 Y7.43 F12000
G1 Y15.97 E140.894 F900
G1 X-1.95 F12000
G1 Y7.31 E141.596 F900
G1 X-2.6 Y7.15 F12000
G1 Y15.97 E142.311 F900
G1 X-3.25 F12000
G1 Y6.95 E143.042 F900
G1 X-3.9 Y6.68 F12000
G1 Y15.97 E143.796 F900
G1 X-4.55 F12000
G1 Y6.35 E144.576 F900
G1 X-5.2 Y5.97 F12000
G1 Y15.97 E145.387 F900
G1 X-5.85 F12000
G1 Y5.52 E146.235 F900
G1 X-6.5 Y4.96 F12000
G1 Y15.97 E147.128 F900
G1 X-7.15 F12000
G1 Y4.29 E148.075 F900
G1 X-7.8 Y3.46 F12000
G1 X-7.8 Y15.97 E149.09 F900
G1 X-8.45 F12000
G1 X-8.45 Y2.38 E150.192 F900
G1 X-9.1 Y0.81 F12000
G1 X-9.1 Y15.97 E151.422 F900
G1 X-9.75 F12000
G1 X-9.75 Y-19.97 E154.336 F900
G1 X-10.4 F12000
G1 X-10.4 Y15.97 E157.25 F900
G1 X-11.05 F12000
G1 X-11.05 Y-19.97 E160.165 F900
G1 X-11.7 F12000
G1 X-11.7 Y15.97 E163.079 F900
G1 X-12.35 F12000
G1 X-12.35 Y-19.97 E165.993 F900
G1 X-13 F12000
G1 X-13 Y15.97 E168.908 F900
G1 X-13.65 F12000
G1 X-13.65 Y-19.97 E171.822 F900
G1 X-14.3 F12000
G1 X-14.3 Y15.97 E174.736 F900
G1 X-14.95 F12000
G1 X-14.95 Y-19.97 E177.651 F900
G1 E175.151 F6000
G1 Z0.8
G1 X-19 Y-11.83 F12000
; TYPE:SUPPORT
G1 Z0.3
G1 E177.651 F6000
G1 Y7.83 E178.877 F900
G1 X-23.75 E179.173
G1 Y-11.83 E180.399
G1 X-19 E180.695
G1 X-19.25 Y-11.5 F12000
G1 X-23.5 E180.96 F900
G1 Y-11 F12000
G1 X-19.25 E181.225 F900
G1 Y-10.5 F12000
G1 X-23.5 E181.49 F900
G1 Y-10 F12000
G1 X-19.25 E181.756 F900
G1 Y-9.5 F12000
G1 X-23.5 E182.021 F900
G1 Y-9 F12000
G1 X-19.25 E182.286 F900
G1 Y-8.5 F12000
G1 X-23.5 E182.551 F900
G1 Y-8 F12000
G1 X-19.25 E182.816 F900
G1 Y-7.5 F12000
G1 X-23.5 E183.081 F900
G1 Y-7 F12000
G1 X-19.25 E183.346 F900
G1 Y-6.5 F12000
G1 X-23.5 E183.611 F900
G1 Y-6 F12000
G1 X-19.25 E183.876 F900
G1 Y-5.5 F12000
G1 X-23.5 E184.141 F900
G1 Y-5 F12000
G1 X-19.25 E184.406 F900
G1 Y-4.5 F12000
G1 X-23.5 E184.671 F900
G1 Y-4 F12000
G1 X-19.25 E184.936 F900
G1 Y-3.5 F12000
G1 X-23.5 E185.201 F900
G1 Y-3 F12000
G1 X-19.25 E185.466 F900
G1 Y-2.5 F12000
G1 X-23.5 E185.731 F900
G1 Y-2 F12000
G1 X-19.25 E185.996 F900
G1 Y-1.5 F12000
G1 X-23.5 E186.261 F900
G1 Y-1 F12000
G1 X-19.25 E186.526 F900
G1 Y-0.5 F12000
G1 X-23.5 E186.791 F900
G1 Y0 F12000
G1 X-19.25 E187.056 F900
G1 Y0.5 F12000
G1 X-23.5 E187.321 F900
G1 Y1 F12000
G1 X-19.25 E187.586 F900
G1 Y1.5 F12000
G1 X-23.5 E187.851 F900
G1 Y2 F12000
G1 X-19.25 E188.117 F900
G1 Y2.5 F12000
G1 X-23.5 E188.382 F900
G1 Y3 F12000
G1 X-19.25 E188.647 F900
G1 Y3.5 F12000
G1 X-23.5 E188.912 F900
G1 Y4 F12000
G1 X-19.25 E189.177 F900
G1 Y4.5 F12000
G1 X-23.5 E189.442 F900
G1 Y5 F12000
G1 X-19.25 E189.707 F900
G1 Y5.5 F12000
G1 X-23.5 E189.972 F900
G1 Y6 F12000
G1 X-19.25 E190.237 F900
G1 Y6.5 F12000
G1 X-23.5 E190.502 F900
G1 Y7 F12000
G1 X-19.25 E190.767 F900
G1 Y7.5 F12000
G1 X-23.5 E191.032 F900
; Layer Change GCode
; LAYER:1
; LAYER_HEIGHT:0.3
; TYPE:FILL
G1 E188.532 F6000
G1 Z0.8
G1 Z1.1 F12000
G1 X-16.31 Y7.29
G1 X-6.03 Y4.34
; TYPE:WALL-INNER
G1 Z0.6
G1 E191.032 F6000
G1 X-6.64 Y3.7 E191.087 F2400
G1 X-7.18 Y3 E191.143
G1 X-7.65 Y2.25 E191.198
G1 X-8.04 Y1.45 E191.253
G1 X-8.35 Y0.62 E191.308
G1 X-8.57 Y-0.24 E191.364
G1 X-8.71 Y-1.11 E191.419
G1 X-8.75 Y-2 E191.474
G1 X-8.71 Y-2.88 E191.529
G1 X-8.57 Y-3.76 E191.585
G1 X-8.35 Y-4.62 E191.64
G1 X-8.04 Y-5.45 E191.695
G1 X-7.65 Y-6.25 E191.751
G1 X-7.18 Y-7 E191.806
G1 X-6.64 Y-7.7 E191.861
G1 X-6.03 Y-8.34 E191.916
G1 X-5.36 Y-8.92 E191.972
G1 X-4.63 Y-9.43 E192.027
G1 X-3.85 Y-9.86 E192.082
G1 X-3.04 Y-10.21 E192.138
G1 X-2.19 Y-10.47 E192.193
G1 X-1.32 Y-10.65 E192.248
G1 X-0.44 Y-10.74 E192.303
G1 X0.44 E192.359
G1 X1.33 Y-10.65 E192.414
G1 X2.19 Y-10.47 E192.469
G1 X3.04 Y-10.21 E192.524
G1 X3.85 Y-9.86 E192.58
G1 X4.63 Y-9.43 E192.635
G1 X5.36 Y-8.92 E192.69
G1 X6.03 Y-8.34 E192.746
G1 X6.64 Y-7.7 E192.801
G1 X7.18 Y-7 E192.856
G1 X7.65 Y-6.25 E192.911
G1 X8.04 Y-5.45 E192.967
G1 X8.35 Y-4.62 E193.022
G1 X8.57 Y-3.76 E193.077
G1 X8.7 Y-2.91 E193.131
G1 X8.75 Y-2 E193.188
G1 X8.71 Y-1.11 E193.243
G1 X8.57 Y-0.24 E193.298
G1 X8.35 Y0.62 E193.354
G1 X8.04 Y1.45 E193.409
G1 X7.65 Y2.25 E193.464
G1 X7.18 Y3 E193.519
G1 X6.64 Y3.7 E193.575
G1 X6.03 Y4.34 E193.63
G1 X5.36 Y4.92 E193.685
G1 X4.63 Y5.43 E193.741
G1 X3.85 Y5.86 E193.796
G1 X3.04 Y6.21 E193.851
G1 X2.19 Y6.47 E193.907
G1 X1.33 Y6.65 E193.962
G1 X0.44 Y6.74 E194.017
G1 X-0.44 E194.072
G1 X-1.32 Y6.65 E194.127
G1 X-2.19 Y6.47 E194.183
G1 X-3.04 Y6.21 E194.238
G1 X-3.85 Y5.86 E194.293
G1 X-4.63 Y5.43 E194.349
G1 X-5.36 Y4.92 E194.404
G1 X-5.99 Y4.37 E194.456
G1 X-6.03 Y4.34
G1 X-5.68 Y3.98 F12000
G1 X-6.26 Y3.37 E194.508 F2400
G1 X-6.77 Y2.71 E194.56
G1 X-7.21 Y2 E194.612
G1 X-7.58 Y1.25 E194.665
G1 X-7.87 Y0.47 E194.717
G1 X-8.08 Y-0.34 E194.769
G1 X-8.21 Y-1.16 E194.821
G1 X-8.25 Y-2 E194.873
G1 X-8.21 Y-2.83 E194.925
G1 X-8.08 Y-3.66 E194.977
G1 X-7.87 Y-4.47 E195.029
G1 X-7.58 Y-5.25 E195.081
G1 X-7.21 Y-6 E195.134
G1 X-6.77 Y-6.71 E195.186
G1 X-6.26 Y-7.37 E195.238
G1 X-5.68 Y-7.98 E195.29
G1 X-5.05 Y-8.52 E195.342
G1 X-4.36 Y-9 E195.394
G1 X-3.63 Y-9.41 E195.446
G1 X-2.86 Y-9.74 E195.498
G1 X-2.07 Y-9.99 E195.551
G1 X-1.25 Y-10.15 E195.603
G1 X-0.42 Y-10.24 E195.655
G1 X0.42 E195.707
G1 X1.25 Y-10.15 E195.759
G1 X2.07 Y-9.99 E195.811
G1 X2.87 Y-9.74 E195.863
G1 X3.63 Y-9.41 E195.915
G1 X4.36 Y-9 E195.967
G1 X5.05 Y-8.52 E196.02
G1 X5.68 Y-7.98 E196.072
G1 X6.26 Y-7.37 E196.124
G1 X6.77 Y-6.71 E196.176
G1 X7.21 Y-6 E196.228
G1 X7.58 Y-5.25 E196.28
G1 X7.87 Y-4.47 E196.332
G1 X8.08 Y-3.66 E196.384
G1 X8.21 Y-2.85 E196.435
G1 X8.25 Y-2 E196.489
G1 X8.21 Y-1.16 E196.541
G1 X8.08 Y-0.34 E196.593
G1 X7.87 Y0.47 E196.645
G1 X7.58 Y1.25 E196.697
G1 X7.21 Y2 E196.749
G1 X6.77 Y2.71 E196.801
G1 X6.26 Y3.37 E196.853
G1 X5.68 Y3.98 E196.905
G1 X5.05 Y4.52 E196.958
G1 X4.36 Y5 E197.01
G1 X3.63 Y5.41 E197.062
G1 X2.87 Y5.74 E197.114
G1 X2.07 Y5.99 E197.166
G1 X1.25 Y6.16 E197.218
G1 X0.42 Y6.24 E197.27
G1 X-0.42 E197.322
G1 X-1.25 Y6.16 E197.374
G1 X-2.07 Y5.99 E197.427
G1 X-2.86 Y5.74 E197.479
G1 X-3.63 Y5.41 E197.531
G1 X-4.36 Y5 E197.583
G1 X-5.05 Y4.52 E197.635
G1 X-5.65 Y4.01 E197.684
G1 X-5.68 Y3.98
G1 X-5.34 Y3.62 F12000
; TYPE:WALL-OUTER
G1 X-5.88 Y3.05 E197.733 F1800
G1 X-6.36 Y2.43 E197.782
G1 X-6.78 Y1.76 E197.831
G1 X-7.12 Y1.06 E197.88
G1 X-7.39 Y0.32 E197.929
G1 X-7.59 Y-0.44 E197.978
G1 X-7.71 Y-1.22 E198.027
G1 X-7.75 Y-2 E198.076
G1 X-7.71 Y-2.78 E198.125
G1 X-7.59 Y-3.56 E198.174
G1 X-7.39 Y-4.32 E198.223
G1 X-7.12 Y-5.06 E198.272
G1 X-6.78 Y-5.76 E198.32
G1 X-6.36 Y-6.43 E198.369
G1 X-5.88 Y-7.05 E198.418
G1 X-5.34 Y-7.62 E198.467
G1 X-4.74 Y-8.13 E198.516
G1 X-4.1 Y-8.58 E198.565
G1 X-3.41 Y-8.96 E198.614
G1 X-2.69 Y-9.27 E198.663
G1 X-1.94 Y-9.5 E198.712
G1 X-1.17 Y-9.66 E198.761
G1 X-0.39 Y-9.74 E198.81
G1 X0.39 E198.859
G1 X1.17 Y-9.66 E198.908
G1 X1.94 Y-9.5 E198.957
G1 X2.69 Y-9.27 E199.006
G1 X3.41 Y-8.96 E199.055
G1 X4.1 Y-8.58 E199.104
G1 X4.74 Y-8.13 E199.153
G1 X5.34 Y-7.62 E199.202
G1 X5.88 Y-7.05 E199.251
G1 X6.36 Y-6.43 E199.3
G1 X6.78 Y-5.76 E199.348
G1 X7.12 Y-5.06 E199.397
G1 X7.4 Y-4.32 E199.446
G1 X7.59 Y-3.56 E199.495
G1 X7.71 Y-2.8 E199.543
G1 X7.75 Y-2 E199.593
G1 X7.71 Y-1.22 E199.642
G1 X7.59 Y-0.44 E199.691
G1 X7.4 Y0.32 E199.74
G1 X7.12 Y1.06 E199.789
G1 X6.78 Y1.76 E199.838
G1 X6.36 Y2.43 E199.887
G1 X5.88 Y3.05 E199.936
G1 X5.34 Y3.62 E199.985
G1 X4.74 Y4.13 E200.034
G1 X4.1 Y4.58 E200.083
G1 X3.41 Y4.96 E200.132
G1 X2.69 Y5.27 E200.181
G1 X1.94 Y5.5 E200.23
G1 X1.17 Y5.66 E200.279
G1 X0.39 Y5.74 E200.328
G1 X-0.39 E200.376
G1 X-1.17 Y5.66 E200.425
G1 X-1.94 Y5.5 E200.474
G1 X-2.69 Y5.27 E200.523
G1 X-3.41 Y4.96 E200.572
G1 X-4.1 Y4.58 E200.621
G1 X-4.74 Y4.13 E200.67
G1 X-5.3 Y3.65 E200.716
G1 X-5.34 Y3.62
G1 X-5.88 Y3.05
G1 X-6.36 Y2.43
G1 X-6.78 Y1.76
G1 X-7.06 Y1.18
G1 X-6.03 Y4.34 F12000
G1 E198.216 F6000
G1 Z1.1
G1 X-16.2 Y16.75 F12000
; TYPE:WALL-INNER
G1 Z0.6
G1 E200.716 F6000
G1 Y12.06 E201.008 F2400
G1 Y7.38 E201.301
G1 Y2.69 E201.593
G1 Y-2 E201.885
G1 Y-6.69 E202.178
G1 Y-11.37 E202.47
G1 Y-16.06 E202.762
G1 Y-20.75 E203.055
G1 X-11.57 E203.343
G1 X-6.94 E203.632
G1 X-2.31 E203.921
G1 X2.31 E204.209
G1 X6.94 E204.498
G1 X11.57 E204.786
G1 X16.2 E205.075
G1 Y-16.06 E205.367
G1 Y-11.37 E205.66
G1 Y-6.69 E205.952
G1 Y-2 E206.244
G1 Y2.69 E206.537
G1 Y7.38 E206.829
G1 Y12.06 E207.121
G1 Y16.75 E207.414
G1 X11.58 E207.702
G1 X6.96 E207.99
G1 X2.34 E208.278
G1 X-2.29 E208.566
G1 X-6.91 E208.855
G1 X-11.53 E209.143
G1 X-16.15 E209.431
G1 X-16.2
G1 X-16.7 Y17.25 F12000
G1 Y12.44 E209.731 F2400
G1 Y7.63 E210.031
G1 Y2.81 E210.331
G1 Y-2 E210.631
G1 Y-6.81 E210.932
G1 Y-11.62 E211.232
G1 Y-16.44 E211.532
G1 Y-21.25 E211.832
G1 X-11.93 E212.13
G1 X-7.16 E212.427
G1 X-2.39 E212.725
G1 X2.39 E213.022
G1 X7.16 E213.32
G1 X11.93 E213.617
G1 X16.7 E213.915
G1 Y-16.44 E214.215
G1 Y-11.62 E214.515
G1 Y-6.81 E214.815
G1 Y-2 E215.115
G1 Y2.81 E215.415
G1 Y7.63 E215.715
G1 Y12.44 E216.016
G1 Y17.25 E216.316
G1 X11.94 E216.613
G1 X7.17 E216.91
G1 X2.41 E217.207
G1 X-2.36 E217.504
G1 X-7.12 E217.801
G1 X-11.89 E218.098
G1 X-16.65 E218.396
G1 X-16.7
G1 X-17.2 Y17.75 F12000
; TYPE:WALL-OUTER
G1 Y12.81 E218.703 F1800
G1 Y7.88 E219.011
G1 Y2.94 E219.319
G1 Y-2 E219.627
G1 Y-6.94 E219.935
G1 Y-11.87 E220.243
G1 Y-16.81 E220.551
G1 Y-21.75 E220.859
G1 X-12.28 E221.165
G1 X-7.37 E221.472
G1 X-2.46 E221.778
G1 X2.46 E222.085
G1 X7.37 E222.391
G1 X12.29 E222.698
G1 X17.2 E223.004
G1 Y-16.81 E223.312
G1 Y-11.87 E223.62
G1 Y-6.94 E223.928
G1 Y-2 E224.236
G1 Y2.94 E224.544
G1 Y7.88 E224.851
G1 Y12.81 E225.159
G1 Y17.75 E225.467
G1 X12.29 E225.773
G1 X7.39 E226.079
G1 X2.48 E226.385
G1 X-2.43 E226.691
G1 X-7.34 E226.997
G1 X-12.24 E227.303
G1 X-17.15 E227.609
G1 X-17.2
G1 Y14.75
G1 X-16.2 Y16.75 F12000
G1 X-15.95 Y16
; TYPE:FILL
G1 X-11.39 E227.894 F2400
G1 X-6.83 E228.178
G1 X-2.28 E228.462
G1 X2.28 E228.746
G1 X6.84 E229.03
G1 X11.39 E229.314
G1 X15.95 E229.599
G1 X15.95 Y15.5 F12000
G1 X11.39 Y15.5 E229.883 F2400
G1 X6.84 E230.167
G1 X2.28 E230.451
G1 X-2.28 E230.735
G1 X-6.83 E231.019
G1 X-11.39 E231.304
G1 X-15.95 E231.588
G1 X-15.95 Y15 F12000
G1 X-11.39 E231.872 F2400
G1 X-6.83 E232.156
G1 X-2.28 E232.44
G1 X2.28 E232.724
G1 X6.84 E233.009
G1 X11.39 E233.293
G1 X15.95 E233.577
G1 X15.95 Y14.5 F12000
G1 X11.39 Y14.5 E233.861 F2400
G1 X6.84 E234.145
G1 X2.28 E234.43
G1 X-2.28 E234.714
G1 X-6.84 E234.998
G1 X-11.39 E235.282
G1 X-15.95 E235.566
G1 X-15.95 Y14 F12000
G1 X-11.39 E235.85 F2400
G1 X-6.84 E236.135
G1 X-2.28 E236.419
G1 X2.28 E236.703
G1 X6.84 E236.987
G1 X11.39 E237.271
G1 X15.95 E237.555
G1 X15.95 Y13.5 F12000
G1 X11.39 Y13.5 E237.84 F2400
G1 X6.84 E238.124
G1 X2.28 E238.408
G1 X-2.28 E238.692
G1 X-6.84 E238.976
G1 X-11.39 E239.261
G1 X-15.95 E239.545
G1 X-15.95 Y13 F12000
G1 X-11.39 E239.829 F2400
G1 X-6.84 E240.113
G1 X-2.28 E240.397
G1 X2.28 E240.681
G1 X6.84 E240.966
G1 X11.39 E241.25
G1 X15.95 E241.534
G1 X15.95 Y12.5 F12000
G1 X11.39 Y12.5 E241.818 F2400
G1 X6.84 E242.102
G1 X2.28 E242.386
G1 X-2.28 E242.671
G1 X-6.84 E242.955
G1 X-11.39 E243.239
G1 X-15.95 E243.523
G1 X-15.95 Y12 F12000
G1 X-11.39 E243.807 F2400
G1 X-6.84 E244.092
G1 X-2.28 E244.376
G1 X2.28 E244.66
G1 X6.84 E244.944
G1 X11.39 E245.228
G1 X15.95 E245.512
G1 X15.95 Y11.5 F12000
G1 X11.39 Y11.5 E245.797 F2400
G1 X6.84 E246.081
G1 X2.28 E246.365
G1 X-2.28 E246.649
G1 X-6.84 E246.933
G1 X-11.39 E247.218
G1 X-15.95 E247.502
G1 X-15.95 Y11 F12000
G1 X-11.39 E247.786 F2400
G1 X-6.84 E248.07
G1 X-2.28 E248.354
G1 X2.28 E248.638
G1 X6.84 E248.923
G1 X11.39 E249.207
G1 X15.95 E249.491
G1 X15.95 Y10.5 F12000
G1 X11.39 Y10.5 E249.775 F2400
G1 X6.84 E250.059
G1 X2.28 E250.343
G1 X-2.28 E250.628
G1 X-6.84 E250.912
G1 X-11.39 E251.196
G1 X-15.95 E251.48
G1 X-15.95 Y10 F12000
G1 X-11.39 E251.764 F2400
G1 X-6.84 E252.049
G1 X-2.28 E252.333
G1 X2.28 E252.617
G1 X6.84 E252.901
G1 X11.39 E253.185
G1 X15.95 E253.469
G1 X15.95 Y9.5 F12000
G1 X11.39 Y9.5 E253.754 F2400
G1 X6.84 E254.038
G1 X2.28 E254.322
G1 X-2.28 E254.606
G1 X-6.84 E254.89
G1 X-11.39 E255.175
G1 X-15.95 E255.459
G1 X-15.95 Y9 F12000
G1 X-11.39 E255.743 F2400
G1 X-6.84 E256.027
G1 X-2.28 E256.311
G1 X2.28 E256.595
G1 X6.84 E256.88
G1 X11.39 E257.164
G1 X15.95 E257.448
G1 X15.95 Y8.5 F12000
G1 X11.39 Y8.5 E257.732 F2400
G1 X6.84 E258.016
G1 X2.28 E258.3
G1 X-2.28 E258.585
G1 X-6.84 E258.869
G1 X-11.39 E259.153
G1 X-15.95 E259.437
G1 X-15.95 Y8 F12000
G1 X-11.39 E259.721 F2400
G1 X-6.84 E260.006
G1 X-2.28 E260.29
G1 X2.28 E260.574
G1 X6.84 E260.858
G1 X11.39 E261.142
G1 X15.95 E261.426
G1 X15.95 Y7.5 F12000
G1 X11.39 Y7.5 E261.711 F2400
G1 X6.84 E261.995
G1 X2.28 E262.279
G1 X-2.28 E262.563
G1 X-6.84 E262.847
G1 X-11.39 E263.131
G1 X-15.95 E263.416
G1 X-15.95 Y7 F12000
G1 X-11.39 E263.7 F2400
G1 X-6.84 E263.984
G1 X-2.28 E264.268
G1 X2.28 E264.552
G1 X6.84 E264.837
G1 X11.39 E265.121
G1 X15.95 E265.405
G1 E262.905 F6000
G1 Z1.1
G1 X-2.94 Y6.5 F12000
G1 Z0.6
G1 E265.405 F6000
G1 X-7.28 E265.675 F2400
G1 X-11.61 E265.946
G1 X-15.95 E266.216
G1 X-15.95 Y6 F12000
G1 X-12 E266.462 F2400
G1 X-8.06 E266.709
G1 X-4.11 E266.955
G1 X-4.96 Y5.5 F12000
G1 X-8.62 E267.183 F2400
G1 X-12.29 E267.412
G1 X-15.95 E267.64
G1 X-15.95 Y5 F12000
G1 X-12.51 E267.854 F2400
G1 X-9.08 E268.068
G1 X-5.65 E268.283
G1 X-6.22 Y4.5 F12000
G1 X-11.09 E268.586 F2400
G1 X-15.95 E268.889
G1 X-15.95 Y4 F12000
G1 X-11.32 E269.178 F2400
G1 X-6.7 E269.466
G1 X-7.11 Y3.5 F12000
G1 X-11.53 E269.742 F2400
G1 X-15.95 E270.017
G1 X-15.95 Y3 F12000
G1 X-11.71 E270.282 F2400
G1 X-7.47 E270.546
G1 X-7.79 Y2.5 F12000
G1 X-11.87 E270.8 F2400
G1 X-15.95 E271.055
G1 X-15.95 Y2 F12000
G1 X-12 E271.301 F2400
G1 X-8.05 E271.547
G1 X-8.29 Y1.5 F12000
G1 X-12.12 E271.786 F2400
G1 X-15.95 E272.025
G1 X-15.95 Y1 F12000
G1 X-12.21 E272.258 F2400
G1 X-8.48 E272.491
G1 X-8.64 Y0.5 F12000
G1 X-12.29 E272.719 F2400
G1 X-15.95 E272.947
G1 X-15.95 Y0 F12000
G1 X-12.36 E273.171 F2400
G1 X-8.77 E273.395
G1 X-8.86 Y-0.5 F12000
G1 X-12.41 E273.616 F2400
G1 X-15.95 E273.837
G1 X-15.95 Y-1 F12000
G1 X-12.44 E274.055 F2400
G1 X-8.94 E274.274
G1 X-8.98 Y-1.5 F12000
G1 X-12.46 E274.491 F2400
G1 X-15.95 E274.709
G1 X-15.95 Y-2 F12000
G1 X-12.47 E274.926 F2400
G1 X-9 E275.142
G1 X-8.98 Y-2.5 F12000
G1 X-12.46 E275.36 F2400
G1 X-15.95 E275.577
G1 X-15.95 Y-3 F12000
G1 X-12.44 E275.795 F2400
G1 X-8.94 E276.014
G1 X-8.86 Y-3.5 F12000
G1 X-12.41 E276.235 F2400
G1 X-15.95 E276.456
G1 X-15.95 Y-4 F12000
G1 X-12.36 E276.68 F2400
G1 X-8.77 E276.904
G1 X-8.64 Y-4.5 F12000
G1 X-12.29 E277.132 F2400
G1 X-15.95 E277.36
G1 X-15.95 Y-5 F12000
G1 X-12.21 E277.593 F2400
G1 X-8.48 E277.826
G1 X-8.29 Y-5.5 F12000
G1 X-12.12 E278.064 F2400
G1 X-15.95 E278.303
G1 X-15.95 Y-6 F12000
G1 X-12 E278.549 F2400
G1 X-8.05 E278.796
G1 X-7.79 Y-6.5 F12000
G1 X-11.87 E279.05 F2400
G1 X-15.95 E279.305
G1 X-15.95 Y-7 F12000
G1 X-11.71 E279.569 F2400
G1 X-7.47 E279.833
G1 X-7.11 Y-7.5 F12000
G1 X-11.53 E280.109 F2400
G1 X-15.95 E280.384
G1 X-15.95 Y-8 F12000
G1 X-11.32 Y-8 E280.673 F2400
G1 X-6.7 E280.961
G1 X-6.22 Y-8.5 F12000
G1 X-11.08 E281.265 F2400
G1 X-15.95 E281.568
G1 X-15.95 Y-9 F12000
G1 X-12.51 Y-9 E281.782 F2400
G1 X-9.08 E281.996
G1 X-5.64 E282.211
G1 X-4.96 Y-9.5 F12000
G1 X-8.62 E282.439 F2400
G1 X-12.28 E282.668
G1 X-15.95 E282.896
G1 X-15.95 Y-10 F12000
G1 X-12 Y-10 E283.142 F2400
G1 X-8.05 E283.388
G1 X-4.11 E283.635
G1 X-2.94 Y-10.5 F12000
G1 X-7.27 E283.905 F2400
G1 X-11.61 E284.176
G1 X-15.95 E284.446
G1 E281.946 F6000
G1 Z1.1
G1 X-8.49 Y-0.76 F12000
G1 X-7.84 Y1.81
G1 X-4.05 Y5.48
G1 X0.72 Y6.44
G1 X2.94 Y6.5
G1 Z0.6
G1 E284.446 F6000
G1 X7.28 E284.717 F2400
G1 X11.61 E284.987
G1 X15.95 E285.257
G1 X15.95 Y6 F12000
G1 X12 Y6 E285.504 F2400
G1 X8.06 E285.75
G1 X4.11 E285.996
G1 X4.96 Y5.5 F12000
G1 X8.62 E286.224 F2400
G1 X12.29 E286.453
G1 X15.95 E286.681
G1 X15.95 Y5 F12000
G1 X12.51 Y5 E286.895 F2400
G1 X9.08 E287.109
G1 X5.65 E287.324
G1 X6.22 Y4.5 F12000
G1 X11.09 E287.627 F2400
G1 X15.95 E287.93
G1 X15.95 Y4 F12000
G1 X11.32 E288.218 F2400
G1 X6.7 E288.507
G1 X7.11 Y3.5 F12000
G1 X11.53 E288.783 F2400
G1 X15.95 E289.058
G1 X15.95 Y3 F12000
G1 X11.71 E289.322 F2400
G1 X7.48 E289.587
G1 X7.79 Y2.5 F12000
G1 X11.87 E289.841 F2400
G1 X15.95 E290.095
G1 X15.95 Y2 F12000
G1 X12 E290.342 F2400
G1 X8.05 E290.588
G1 X8.29 Y1.5 F12000
G1 X12.12 E290.827 F2400
G1 X15.95 E291.066
G1 X15.95 Y1 F12000
G1 X12.21 E291.299 F2400
G1 X8.48 E291.532
G1 X8.64 Y0.5 F12000
G1 X12.29 E291.76 F2400
G1 X15.95 E291.987
G1 X15.95 Y0 F12000
G1 X12.36 E292.211 F2400
G1 X8.77 E292.435
G1 X8.87 Y-0.5 F12000
G1 X12.41 E292.656 F2400
G1 X15.95 E292.877
G1 X15.95 Y-1 F12000
G1 X12.45 E293.096 F2400
G1 X8.94 E293.314
G1 X8.98 Y-1.5 F12000
G1 X12.46 E293.531 F2400
G1 X15.95 E293.749
G1 Y-2 F12000
G1 X12.48 E293.966 F2400
G1 X9 E294.182
G1 X8.98 Y-2.5 F12000
G1 X12.46 E294.4 F2400
G1 X15.95 E294.617
G1 Y-3 F12000
G1 X12.45 E294.836 F2400
G1 X8.94 E295.054
G1 X8.87 Y-3.5 F12000
G1 X12.41 E295.275 F2400
G1 X15.95 E295.496
G1 Y-4 F12000
G1 X12.36 E295.72 F2400
G1 X8.77 E295.944
G1 X8.64 Y-4.5 F12000
G1 X12.29 E296.172 F2400
G1 X15.95 E296.4
G1 Y-5 F12000
G1 X12.21 E296.633 F2400
G1 X8.48 E296.866
G1 X8.29 Y-5.5 F12000
G1 X12.12 E297.105 F2400
G1 X15.95 E297.344
G1 Y-6 F12000
G1 X12 E297.59 F2400
G1 X8.05 E297.836
G1 X7.79 Y-6.5 F12000
G1 X11.87 E298.091 F2400
G1 X15.95 E298.345
G1 Y-7 F12000
G1 X11.71 E298.61 F2400
G1 X7.48 E298.874
G1 X7.11 Y-7.5 F12000
G1 X11.53 E299.15 F2400
G1 X15.95 E299.425
G1 Y-8 F12000
G1 X11.32 E299.714 F2400
G1 X6.7 E300.002
G1 X6.22 Y-8.5 F12000
G1 X11.09 E300.306 F2400
G1 X15.95 E300.609
G1 Y-9 F12000
G1 X12.51 E300.823 F2400
G1 X9.08 E301.037
G1 X5.64 E301.252
G1 X4.96 Y-9.5 F12000
G1 X8.62 E301.48 F2400
G1 X12.29 E301.709
G1 X15.95 E301.937
G1 Y-10 F12000
G1 X12 E302.183 F2400
G1 X8.05 E302.43
G1 X4.11 E302.676
G1 X2.94 Y-10.5 F12000
G1 X7.27 E302.946 F2400
G1 X11.61 E303.217
G1 X15.95 E303.487
G1 Y-11 F12000
G1 X11.39 E303.772 F2400
G1 X6.84 E304.056
G1 X2.28 E304.34
G1 X-2.28 E304.624
G1 X-6.83 E304.908
G1 X-11.39 E305.192
G1 X-15.95 E305.477
G1 X-15.95 Y-11.5 F12000
G1 X-11.39 Y-11.5 E305.761 F2400
G1 X-6.83 E306.045
G1 X-2.28 E306.329
G1 X2.28 E306.613
G1 X6.84 E306.898
G1 X11.39 E307.182
G1 X15.95 E307.466
G1 Y-12 F12000
G1 X11.39 E307.75 F2400
G1 X6.84 E308.034
G1 X2.28 E308.318
G1 X-2.28 E308.603
G1 X-6.83 E308.887
G1 X-11.39 E309.171
G1 X-15.95 E309.455
G1 X-15.95 Y-12.5 F12000
G1 X-11.39 Y-12.5 E309.739 F2400
G1 X-6.83 E310.024
G1 X-2.28 E310.308
G1 X2.28 E310.592
G1 X6.84 E310.876
G1 X11.39 E311.16
G1 X15.95 E311.444
G1 Y-13 F12000
G1 X11.39 E311.729 F2400
G1 X6.84 E312.013
G1 X2.28 E312.297
G1 X-2.28 E312.581
G1 X-6.83 E312.865
G1 X-11.39 E313.149
G1 X-15.95 E313.434
G1 X-15.95 Y-13.5 F12000
G1 X-11.39 Y-13.5 E313.718 F2400
G1 X-6.83 E314.002
G1 X-2.28 E314.286
G1 X2.28 E314.57
G1 X6.84 E314.855
G1 X11.39 E315.139
G1 X15.95 E315.423
G1 Y-14 F12000
G1 X11.39 E315.707 F2400
G1 X6.84 E315.991
G1 X2.28 E316.275
G1 X-2.28 E316.56
G1 X-6.83 E316.844
G1 X-11.39 E317.128
G1 X-15.95 E317.412
G1 X-15.95 Y-14.5 F12000
G1 X-11.39 Y-14.5 E317.696 F2400
G1 X-6.83 E317.981
G1 X-2.28 E318.265
G1 X2.28 E318.549
G1 X6.84 E318.833
G1 X11.39 E319.117
G1 X15.95 E319.401
G1 X15.95 Y-15 F12000
G1 X11.39 E319.686 F2400
G1 X6.84 E319.97
G1 X2.28 E320.254
G1 X-2.28 E320.538
G1 X-6.83 E320.822
G1 X-11.39 E321.106
G1 X-15.95 E321.391
G1 X-15.95 Y-15.5 F12000
G1 X-11.39 Y-15.5 E321.675 F2400
G1 X-6.83 E321.959
G1 X-2.28 E322.243
G1 X2.28 E322.527
G1 X6.84 E322.811
G1 X11.39 E323.096
G1 X15.95 E323.38
G1 X15.95 Y-16 F12000
G1 X11.39 E323.664 F2400
G1 X6.84 E323.948
G1 X2.28 E324.232
G1 X-2.28 E324.516
G1 X-6.83 E324.801
G1 X-11.39 E325.085
G1 X-15.95 E325.369
G1 X-15.95 Y-16.5 F12000
G1 X-11.39 E325.653 F2400
G1 X-6.83 E325.937
G1 X-2.28 E326.221
G1 X2.28 E326.506
G1 X6.84 E326.79
G1 X11.39 E327.074
G1 X15.95 E327.358
G1 X15.95 Y-17 F12000
G1 X11.39 E327.642 F2400
G1 X6.84 E327.926
G1 X2.28 E328.211
G1 X-2.28 E328.495
G1 X-6.83 E328.779
G1 X-11.39 E329.063
G1 X-15.95 E329.347
G1 X-15.95 Y-17.5 F12000
G1 X-11.39 E329.631 F2400
G1 X-6.83 E329.916
G1 X-2.28 E330.2
G1 X2.28 E330.484
G1 X6.84 E330.768
G1 X11.39 E331.052
G1 X15.95 E331.337
G1 X15.95 Y-18 F12000
G1 X11.39 E331.621 F2400
G1 X6.84 E331.905
G1 X2.28 E332.189
G1 X-2.28 E332.473
G1 X-6.83 E332.757
G1 X-11.39 E333.042
G1 X-15.95 E333.326
G1 X-15.95 Y-18.5 F12000
G1 X-11.39 E333.61 F2400
G1 X-6.83 E333.894
G1 X-2.28 E334.178
G1 X2.28 E334.462
G1 X6.84 E334.747
G1 X11.39 E335.031
G1 X15.95 E335.315
G1 X15.95 Y-19 F12000
G1 X11.39 E335.599 F2400
G1 X6.84 E335.883
G1 X2.28 E336.167
G1 X-2.28 E336.452
G1 X-6.83 E336.736
G1 X-11.39 E337.02
G1 X-15.95 E337.304
G1 X-15.95 Y-19.5 F12000
G1 X-11.39 E337.588 F2400
G1 X-6.83 E337.872
G1 X-2.28 E338.157
G1 X2.28 E338.441
G1 X6.84 E338.725
G1 X11.39 E339.009
G1 X15.95 E339.293
G1 X15.95 Y-20 F12000
G1 X11.39 E339.577 F2400
G1 X6.84 E339.862
G1 X2.28 E340.146
G1 X-2.28 E340.43
G1 X-6.83 E340.714
G1 X-11.39 E340.998
G1 X-15.95 E341.282
G1 E338.782 F6000
G1 Z1.1
G1 X-19.25 Y-10 F12000
; TYPE:SUPPORT
G1 Z0.6
G1 E341.282 F6000
G1 X-23.5 E341.547 F2400
G1 Y-7.5 F12000
G1 X-19.25 E341.813 F2400
G1 Y-5 F12000
G1 X-23.5 E342.078 F2400
G1 Y-2.5 F12000
G1 X-19.25 E342.343 F2400
G1 Y0 F12000
G1 X-23.5 E342.608 F2400
G1 Y2.5 F12000
G1 X-19.25 E342.873 F2400
G1 Y5 F12000
G1 X-23.5 E343.138 F2400
G1 Y7.5 F12000
G1 X-19.25 E343.403 F2400
; Layer Change GCode
; LAYER:2
; LAYER_HEIGHT:0.3
; TYPE:FILL
G1 E340.903 F6000
G1 Z1.1
G1 Z1.4 F12000
G1 X-16.28 Y7.11
G1 X-6.03 Y4.34
; TYPE:WALL-INNER
G1 Z0.9
G1 E343.403 F6000
G1 X-6.64 Y3.7 E343.458 F2400
G1 X-7.18 Y3 E343.513
G1 X-7.65 Y2.25 E343.569
G1 X-8.04 Y1.45 E343.624
G1 X-8.35 Y0.62 E343.679
G1 X-8.57 Y-0.24 E343.734
G1 X-8.71 Y-1.11 E343.79
G1 X-8.75 Y-2 E343.845
G1 X-8.71 Y-2.88 E343.9
G1 X-8.57 Y-3.76 E343.955
G1 X-8.35 Y-4.62 E344.011
G1 X-8.04 Y-5.45 E344.066
G1 X-7.65 Y-6.25 E344.121
G1 X-7.18 Y-7 E344.177
G1 X-6.64 Y-7.7 E344.232
G1 X-6.03 Y-8.34 E344.287
G1 X-5.36 Y-8.92 E344.343
G1 X-4.63 Y-9.43 E344.398
G1 X-3.85 Y-9.86 E344.453
G1 X-3.04 Y-10.21 E344.508
G1 X-2.19 Y-10.47 E344.564
G1 X-1.32 Y-10.65 E344.619
G1 X-0.44 Y-10.74 E344.674
G1 X0.44 E344.729
G1 X1.33 Y-10.65 E344.785
G1 X2.19 Y-10.47 E344.84
G1 X3.04 Y-10.21 E344.895
G1 X3.85 Y-9.86 E344.95
G1 X4.63 Y-9.43 E345.006
G1 X5.36 Y-8.92 E345.061
G1 X6.03 Y-8.34 E345.116
G1 X6.64 Y-7.7 E345.172
G1 X7.18 Y-7 E345.227
G1 X7.65 Y-6.25 E345.282
G1 X8.04 Y-5.45 E345.337
G1 X8.35 Y-4.62 E345.393
G1 X8.57 Y-3.76 E345.448
G1 X8.7 Y-2.92 E345.501
G1 X8.75 Y-2 E345.558
G1 X8.71 Y-1.11 E345.614
G1 X8.57 Y-0.24 E345.669
G1 X8.35 Y0.62 E345.724
G1 X8.04 Y1.45 E345.78
G1 X7.65 Y2.25 E345.835
G1 X7.18 Y3 E345.89
G1 X6.64 Y3.7 E345.946
G1 X6.03 Y4.34 E346.001
G1 X5.36 Y4.92 E346.056
G1 X4.63 Y5.43 E346.111
G1 X3.85 Y5.86 E346.167
G1 X3.04 Y6.21 E346.222
G1 X2.19 Y6.47 E346.277
G1 X1.33 Y6.65 E346.333
G1 X0.44 Y6.74 E346.388
G1 X-0.44 E346.443
G1 X-1.32 Y6.65 E346.498
G1 X-2.19 Y6.47 E346.553
G1 X-3.04 Y6.21 E346.609
G1 X-3.85 Y5.86 E346.664
G1 X-4.63 Y5.43 E346.719
G1 X-5.36 Y4.92 E346.775
G1 X-5.99 Y4.37 E346.827
G1 X-6.03 Y4.34
G1 X-5.68 Y3.98 F12000
G1 X-6.26 Y3.37 E346.879 F2400
G1 X-6.77 Y2.71 E346.931
G1 X-7.21 Y2 E346.983
G1 X-7.58 Y1.25 E347.035
G1 X-7.87 Y0.47 E347.087
G1 X-8.08 Y-0.34 E347.14
G1 X-8.21 Y-1.16 E347.192
G1 X-8.25 Y-2 E347.244
G1 X-8.21 Y-2.83 E347.296
G1 X-8.08 Y-3.66 E347.348
G1 X-7.87 Y-4.47 E347.4
G1 X-7.58 Y-5.25 E347.452
G1 X-7.21 Y-6 E347.504
G1 X-6.77 Y-6.71 E347.556
G1 X-6.26 Y-7.37 E347.609
G1 X-5.68 Y-7.98 E347.661
G1 X-5.05 Y-8.52 E347.713
G1 X-4.36 Y-9 E347.765
G1 X-3.63 Y-9.41 E347.817
G1 X-2.86 Y-9.74 E347.869
G1 X-2.07 Y-9.99 E347.921
G1 X-1.25 Y-10.15 E347.973
G1 X-0.42 Y-10.24 E348.026
G1 X0.42 E348.078
G1 X1.25 Y-10.15 E348.13
G1 X2.07 Y-9.99 E348.182
G1 X2.87 Y-9.74 E348.234
G1 X3.63 Y-9.41 E348.286
G1 X4.36 Y-9 E348.338
G1 X5.05 Y-8.52 E348.39
G1 X5.68 Y-7.98 E348.442
G1 X6.26 Y-7.37 E348.495
G1 X6.77 Y-6.71 E348.547
G1 X7.21 Y-6 E348.599
G1 X7.58 Y-5.25 E348.651
G1 X7.87 Y-4.47 E348.703
G1 X8.08 Y-3.66 E348.755
G1 X8.2 Y-2.87 E348.805
G1 X8.25 Y-2 E348.859
G1 X8.21 Y-1.16 E348.912
G1 X8.08 Y-0.34 E348.964
G1 X7.87 Y0.47 E349.016
G1 X7.58 Y1.25 E349.068
G1 X7.21 Y2 E349.12
G1 X6.77 Y2.71 E349.172
G1 X6.26 Y3.37 E349.224
G1 X5.68 Y3.98 E349.276
G1 X5.05 Y4.52 E349.328
G1 X4.36 Y5 E349.38
G1 X3.63 Y5.41 E349.433
G1 X2.87 Y5.74 E349.485
G1 X2.07 Y5.99 E349.537
G1 X1.25 Y6.16 E349.589
G1 X0.42 Y6.24 E349.641
G1 X-0.42 E349.693
G1 X-1.25 Y6.16 E349.745
G1 X-2.07 Y5.99 E349.797
G1 X-2.86 Y5.74 E349.849
G1 X-3.63 Y5.41 E349.902
G1 X-4.36 Y5 E349.954
G1 X-5.05 Y4.52 E350.006
G1 X-5.65 Y4.01 E350.055
G1 X-5.68 Y3.98
G1 X-5.34 Y3.62 F12000
; TYPE:WALL-OUTER
G1 X-5.88 Y3.05 E350.104 F1800
G1 X-6.36 Y2.43 E350.153
G1 X-6.78 Y1.76 E350.202
G1 X-7.12 Y1.06 E350.251
G1 X-7.39 Y0.32 E350.3
G1 X-7.59 Y-0.44 E350.349
G1 X-7.71 Y-1.22 E350.398
G1 X-7.75 Y-2 E350.446
G1 X-7.71 Y-2.78 E350.495
G1 X-7.59 Y-3.56 E350.544
G1 X-7.39 Y-4.32 E350.593
G1 X-7.12 Y-5.06 E350.642
G1 X-6.78 Y-5.76 E350.691
G1 X-6.36 Y-6.43 E350.74
G1 X-5.88 Y-7.05 E350.789
G1 X-5.34 Y-7.62 E350.838
G1 X-4.74 Y-8.13 E350.887
G1 X-4.1 Y-8.58 E350.936
G1 X-3.41 Y-8.96 E350.985
G1 X-2.69 Y-9.27 E351.034
G1 X-1.94 Y-9.5 E351.083
G1 X-1.17 Y-9.66 E351.132
G1 X-0.39 Y-9.74 E351.181
G1 X0.39 E351.23
G1 X1.17 Y-9.66 E351.279
G1 X1.94 Y-9.5 E351.328
G1 X2.69 Y-9.27 E351.377
G1 X3.41 Y-8.96 E351.425
G1 X4.1 Y-8.58 E351.474
G1 X4.74 Y-8.13 E351.523
G1 X5.34 Y-7.62 E351.572
G1 X5.88 Y-7.05 E351.621
G1 X6.36 Y-6.43 E351.67
G1 X6.78 Y-5.76 E351.719
G1 X7.12 Y-5.06 E351.768
G1 X7.4 Y-4.32 E351.817
G1 X7.59 Y-3.56 E351.866
G1 X7.71 Y-2.82 E351.913
G1 X7.75 Y-2 E351.964
G1 X7.71 Y-1.22 E352.013
G1 X7.59 Y-0.44 E352.062
G1 X7.4 Y0.32 E352.111
G1 X7.12 Y1.06 E352.16
G1 X6.78 Y1.76 E352.209
G1 X6.36 Y2.43 E352.258
G1 X5.88 Y3.05 E352.307
G1 X5.34 Y3.62 E352.356
G1 X4.74 Y4.13 E352.405
G1 X4.1 Y4.58 E352.454
G1 X3.41 Y4.96 E352.503
G1 X2.69 Y5.27 E352.551
G1 X1.94 Y5.5 E352.6
G1 X1.17 Y5.66 E352.649
G1 X0.39 Y5.74 E352.698
G1 X-0.39 E352.747
G1 X-1.17 Y5.66 E352.796
G1 X-1.94 Y5.5 E352.845
G1 X-2.69 Y5.27 E352.894
G1 X-3.41 Y4.96 E352.943
G1 X-4.1 Y4.58 E352.992
G1 X-4.74 Y4.13 E353.041
G1 X-5.3 Y3.65 E353.087
G1 X-5.34 Y3.62
G1 X-5.88 Y3.05
G1 X-6.36 Y2.43
G1 X-6.78 Y1.76
G1 X-7.06 Y1.18
G1 X-6.03 Y4.34 F12000
G1 E350.587 F6000
G1 Z1.4
G1 X-16.5 Y16.75 F12000
; TYPE:WALL-INNER
G1 Z0.9
G1 E353.087 F6000
G1 Y12.06 E353.379 F2400
G1 Y7.38 E353.671
G1 Y2.69 E353.964
G1 Y-2 E354.256
G1 Y-6.69 E354.548
G1 Y-11.37 E354.841
G1 Y-16.06 E355.133
G1 Y-20.75 E355.425
G1 X-11.78 E355.719
G1 X-7.07 E356.013
G1 X-2.36 E356.307
G1 X2.36 E356.601
G1 X7.07 E356.895
G1 X11.79 E357.189
G1 X16.5 E357.483
G1 Y-16.06 E357.776
G1 Y-11.37 E358.068
G1 Y-6.69 E358.36
G1 Y-2 E358.653
G1 Y2.69 E358.945
G1 Y7.38 E359.237
G1 Y12.06 E359.529
G1 Y16.75 E359.822
G1 X11.79 E360.115
G1 X7.09 E360.409
G1 X2.38 E360.702
G1 X-2.33 E360.996
G1 X-7.04 E361.29
G1 X-11.74 E361.583
G1 X-16.45 E361.877
G1 X-16.5
G1 X-17 Y17.25 F12000
G1 Y12.44 E362.177 F2400
G1 Y7.63 E362.477
G1 Y2.81 E362.777
G1 Y-2 E363.077
G1 Y-6.81 E363.377
G1 Y-11.62 E363.677
G1 Y-16.44 E363.977
G1 Y-21.25 E364.278
G1 X-12.14 E364.58
G1 X-7.29 E364.883
G1 X-2.43 E365.186
G1 X2.43 E365.489
G1 X7.29 E365.792
G1 X12.14 E366.095
G1 X17 E366.398
G1 Y-16.44 E366.698
G1 Y-11.62 E366.998
G1 Y-6.81 E367.298
G1 Y-2 E367.598
G1 Y2.81 E367.898
G1 Y7.63 E368.199
G1 Y12.44 E368.499
G1 Y17.25 E368.799
G1 X12.15 E369.101
G1 X7.3 E369.404
G1 X2.45 E369.706
G1 X-2.4 E370.009
G1 X-7.25 E370.311
G1 X-12.1 E370.613
G1 X-16.95 E370.916
G1 X-17
G1 X-17.5 Y17.75 F12000
; TYPE:WALL-OUTER
G1 Y12.81 E371.224 F1800
G1 Y7.88 E371.532
G1 Y2.94 E371.84
G1 Y-2 E372.148
G1 Y-6.94 E372.455
G1 Y-11.87 E372.763
G1 Y-16.81 E373.071
G1 Y-21.75 E373.379
G1 X-12.5 E373.691
G1 X-7.5 E374.003
G1 X-2.5 E374.315
G1 X2.5 E374.626
G1 X7.5 E374.938
G1 X12.5 E375.25
G1 X17.5 E375.562
G1 Y-16.81 E375.87
G1 Y-11.87 E376.178
G1 Y-6.94 E376.486
G1 Y-2 E376.793
G1 Y2.94 E377.101
G1 Y7.88 E377.409
G1 Y12.81 E377.717
G1 Y17.75 E378.025
G1 X12.51 E378.336
G1 X7.51 E378.648
G1 X2.52 E378.959
G1 X-2.47 E379.271
G1 X-7.46 E379.582
G1 X-12.46 E379.893
G1 X-17.45 E380.205
G1 X-17.5
G1 Y14.75
G1 X-16.5 Y16.75 F12000
G1 X-16 Y16.5
; TYPE:FILL
G1 X-16 Y11.87 E380.493 F2400
G1 Y7.25 E380.781
G1 Y2.63 E381.07
G1 Y-2 E381.358
G1 Y-6.62 E381.647
G1 Y-11.25 E381.935
G1 Y-15.87 E382.224
G1 Y-20.5 E382.512
G1 X-15.5 Y-20.5 F12000
G1 Y-15.87 E382.8 F2400
G1 Y-11.25 E383.089
G1 Y-6.62 E383.377
G1 Y-2 E383.666
G1 Y2.63 E383.954
G1 Y7.25 E384.242
G1 Y11.87 E384.531
G1 Y16.5 E384.819
G1 X-15 Y16.5 F12000
G1 X-15 Y11.87 E385.108 F2400
G1 Y7.25 E385.396
G1 Y2.63 E385.684
G1 Y-2 E385.973
G1 Y-6.62 E386.261
G1 Y-11.25 E386.55
G1 Y-15.87 E386.838
G1 Y-20.5 E387.126
G1 X-14.5 Y-20.5 F12000
G1 Y-15.87 E387.415 F2400
G1 Y-11.25 E387.703
G1 Y-6.62 E387.992
G1 Y-2 E388.28
G1 Y2.62 E388.568
G1 Y7.25 E388.857
G1 Y11.87 E389.145
G1 Y16.5 E389.434
G1 X-14 Y16.5 F12000
G1 X-14 Y11.87 E389.722 F2400
G1 Y7.25 E390.011
G1 Y2.62 E390.299
G1 Y-2 E390.587
G1 Y-6.62 E390.876
G1 Y-11.25 E391.164
G1 Y-15.87 E391.453
G1 Y-20.5 E391.741
G1 X-13.5 Y-20.5 F12000
G1 Y-15.87 E392.029 F2400
G1 Y-11.25 E392.318
G1 Y-6.62 E392.606
G1 Y-2 E392.895
G1 Y2.62 E393.183
G1 Y7.25 E393.471
G1 Y11.87 E393.76
G1 Y16.5 E394.048
G1 X-13 Y16.5 F12000
G1 X-13 Y11.87 E394.337 F2400
G1 Y7.25 E394.625
G1 Y2.62 E394.914
G1 Y-2 E395.202
G1 Y-6.62 E395.49
G1 Y-11.25 E395.779
G1 Y-15.87 E396.067
G1 Y-20.5 E396.356
G1 X-12.5 Y-20.5 F12000
G1 Y-15.87 E396.644 F2400
G1 Y-11.25 E396.932
G1 Y-6.62 E397.221
G1 Y-2 E397.509
G1 Y2.62 E397.798
G1 Y7.25 E398.086
G1 Y11.87 E398.374
G1 Y16.5 E398.663
G1 X-12 Y16.5 F12000
G1 X-12 Y11.87 E398.951 F2400
G1 Y7.25 E399.24
G1 Y2.62 E399.528
G1 Y-2 E399.817
G1 Y-6.62 E400.105
G1 Y-11.25 E400.393
G1 Y-15.87 E400.682
G1 Y-20.5 E400.97
G1 X-11.5 Y-20.5 F12000
G1 Y-15.87 E401.259 F2400
G1 Y-11.25 E401.547
G1 Y-6.62 E401.835
G1 Y-2 E402.124
G1 Y2.62 E402.412
G1 Y7.25 E402.701
G1 Y11.87 E402.989
G1 Y16.5 E403.277
G1 X-11 Y16.5 F12000
G1 X-11 Y11.87 E403.566 F2400
G1 Y7.25 E403.854
G1 Y2.62 E404.143
G1 Y-2 E404.431
G1 Y-6.62 E404.72
G1 Y-11.25 E405.008
G1 Y-15.87 E405.296
G1 Y-20.5 E405.585
G1 X-10.5 Y-20.5 F12000
G1 Y-15.87 E405.873 F2400
G1 Y-11.25 E406.162
G1 Y-6.62 E406.45
G1 Y-2 E406.738
G1 Y2.62 E407.027
G1 Y7.25 E407.315
G1 Y11.87 E407.604
G1 Y16.5 E407.892
G1 X-10 Y16.5 F12000
G1 X-10 Y11.87 E408.18 F2400
G1 Y7.25 E408.469
G1 Y2.62 E408.757
G1 Y-2 E409.046
G1 Y-6.62 E409.334
G1 Y-11.25 E409.623
G1 Y-15.87 E409.911
G1 Y-20.5 E410.199
G1 X-9.5 Y-20.5 F12000
G1 Y-15.87 E410.488 F2400
G1 Y-11.25 E410.776
G1 Y-6.62 E411.065
G1 Y-2 E411.353
G1 Y2.62 E411.641
G1 Y7.25 E411.93
G1 Y11.87 E412.218
G1 Y16.5 E412.507
G1 X-9 Y16.5 F12000
G1 X-9 Y11.87 E412.795 F2400
G1 Y7.25 E413.083
G1 Y2.62 E413.372
G1 Y-2 E413.66
G1 Y-6.62 E413.949
G1 Y-11.25 E414.237
G1 Y-15.87 E414.526
G1 Y-20.5 E414.814
G1 X-8.5 Y-20.5 F12000
G1 Y-16.61 E415.057 F2400
G1 Y-12.72 E415.299
G1 Y-8.82 E415.542
G1 Y-4.93 E415.785
G1 X-8 Y-6.1 F12000
G1 Y-10.9 E416.084 F2400
G1 Y-15.7 E416.384
G1 Y-20.5 E416.683
G1 X-7.5 Y-20.5 F12000
G1 Y-15.98 E416.964 F2400
G1 Y-11.47 E417.246
G1 Y-6.96 E417.527
G1 X-7 Y-7.64 F12000
G1 Y-11.93 E417.795 F2400
G1 Y-16.21 E418.062
G1 Y-20.5 E418.329
G1 X-6.5 Y-20.5 F12000
G1 Y-16.4 E418.585 F2400
G1 Y-12.3 E418.841
G1 Y-8.21 E419.096
G1 X-6 Y-8.69 F12000
G1 Y-12.63 E419.341 F2400
G1 Y-16.56 E419.587
G1 Y-20.5 E419.832
G1 X-5.5 Y-20.5 F12000
G1 Y-16.71 E420.069 F2400
G1 Y-12.91 E420.305
G1 Y-9.12 E420.542
G1 X-5 Y-9.47 F12000
G1 Y-13.15 E420.771 F2400
G1 Y-16.82 E421
G1 Y-20.5 E421.23
G1 X-4.5 Y-20.5 F12000
G1 Y-16.93 E421.452 F2400
G1 Y-13.35 E421.675
G1 Y-9.78 E421.898
G1 X-4 Y-10.06 F12000
G1 Y-13.54 E422.115 F2400
G1 Y-17.02 E422.332
G1 Y-20.5 E422.549
G1 X-3.5 Y-20.5 F12000
G1 Y-17.09 E422.762 F2400
G1 Y-13.69 E422.974
G1 Y-10.28 E423.186
G1 X-3 Y-10.48 F12000
G1 Y-13.82 E423.395 F2400
G1 Y-17.16 E423.603
G1 Y-20.5 E423.811
G1 X-2.5 Y-20.5 F12000
G1 Y-15.57 E424.119 F2400
G1 Y-10.64 E424.426
G1 X-2 Y-10.77 F12000
G1 Y-15.63 E424.73 F2400
G1 Y-20.5 E425.033
G1 X-1.5 Y-20.5 F12000
G1 Y-15.68 E425.334 F2400
G1 Y-10.87 E425.634
G1 X-1 Y-10.93 F12000
G1 Y-15.72 E425.932 F2400
G1 Y-20.5 E426.231
G1 X-0.5 Y-20.5 F12000
G1 Y-15.74 E426.527 F2400
G1 Y-10.98 E426.824
G1 X0 Y-10.99 F12000
G1 Y-15.74 E427.121 F2400
G1 Y-20.5 E427.417
G1 X0.5 Y-20.5 F12000
G1 Y-15.74 E427.714 F2400
G1 Y-10.98 E428.01
G1 X1 Y-10.93 F12000
G1 Y-15.72 E428.309 F2400
G1 Y-20.5 E428.607
G1 X1.5 Y-20.5 F12000
G1 Y-15.68 E428.907 F2400
G1 Y-10.87 E429.207
G1 X2 Y-10.77 F12000
G1 Y-15.63 E429.511 F2400
G1 Y-20.5 E429.814
G1 X2.5 Y-20.5 F12000
G1 Y-15.57 E430.122 F2400
G1 Y-10.64 E430.429
G1 X3 Y-10.48 F12000
G1 Y-13.82 E430.638 F2400
G1 Y-17.16 E430.846
G1 Y-20.5 E431.054
G1 X3.5 Y-20.5 F12000
G1 Y-17.09 E431.267 F2400
G1 Y-13.69 E431.479
G1 Y-10.28 E431.691
G1 X4 Y-10.06 F12000
G1 Y-13.54 E431.908 F2400
G1 Y-17.02 E432.125
G1 Y-20.5 E432.342
G1 X4.5 Y-20.5 F12000
G1 Y-16.93 E432.565 F2400
G1 Y-13.35 E432.788
G1 Y-9.78 E433.011
G1 X5 Y-9.47 F12000
G1 Y-13.15 E433.24 F2400
G1 Y-16.82 E433.469
G1 Y-20.5 E433.698
G1 X5.5 Y-20.5 F12000
G1 Y-16.71 E433.935 F2400
G1 Y-12.91 E434.171
G1 Y-9.12 E434.408
G1 X6 Y-8.7 F12000
G1 Y-12.63 E434.653 F2400
G1 Y-16.56 E434.898
G1 Y-20.5 E435.144
G1 X6.5 Y-20.5 F12000
G1 Y-16.4 E435.399 F2400
G1 Y-12.31 E435.655
G1 Y-8.21 E435.91
G1 X7 Y-7.64 F12000
G1 Y-11.93 E436.177 F2400
G1 Y-16.21 E436.445
G1 Y-20.5 E436.712
G1 X7.5 Y-20.5 F12000
G1 Y-15.99 E436.993 F2400
G1 Y-11.47 E437.275
G1 Y-6.96 E437.556
G1 X8 Y-6.1 F12000
G1 Y-10.9 E437.855 F2400
G1 Y-15.7 E438.155
G1 Y-20.5 E438.454
G1 X8.5 Y-20.5 F12000
G1 X8.5 Y-16.61 E438.696 F2400
G1 Y-12.72 E438.939
G1 Y-8.83 E439.182
G1 Y-4.93 E439.424
G1 E436.924 F6000
G1 Z1.4
G1 X4.05 Y-9.48 F12000
G1 X-0.38 Y-10.61
G1 X-4.71 Y-9.11
G1 X-7.64 Y-5.7
G1 X-8.67 Y-1.29
G1 X-8.5 Y0.93
G1 Z0.9
G1 E439.424 F6000
G1 Y4.82 E439.667 F2400
G1 Y8.72 E439.91
G1 Y12.61 E440.152
G1 Y16.5 E440.395
G1 X-8 Y16.5 F12000
G1 X-8 Y11.7 E440.694 F2400
G1 Y6.9 E440.994
G1 Y2.1 E441.293
G1 X-7.5 Y2.96 F12000
G1 Y7.47 E441.575 F2400
G1 Y11.99 E441.856
G1 Y16.5 E442.137
G1 X-7 Y16.5 F12000
G1 X-7 Y12.21 E442.405 F2400
G1 Y7.93 E442.672
G1 Y3.64 E442.939
G1 X-6.5 Y4.21 F12000
G1 Y8.31 E443.195 F2400
G1 Y12.4 E443.45
G1 Y16.5 E443.706
G1 X-6 Y16.5 F12000
G1 Y12.56 E443.951 F2400
G1 Y8.63 E444.197
G1 Y4.69 E444.442
G1 X-5.5 Y5.12 F12000
G1 Y8.91 E444.679 F2400
G1 Y12.71 E444.915
G1 Y16.5 E445.152
G1 X-5 Y16.5 F12000
G1 Y12.82 E445.381 F2400
G1 Y9.15 E445.61
G1 Y5.47 E445.839
G1 X-4.5 Y5.78 F12000
G1 Y9.35 E446.062 F2400
G1 Y12.93 E446.285
G1 Y16.5 E446.508
G1 X-4 Y16.5 F12000
G1 Y13.02 E446.725 F2400
G1 Y9.54 E446.942
G1 Y6.06 E447.159
G1 X-3.5 Y6.28 F12000
G1 Y9.69 E447.371 F2400
G1 Y13.09 E447.584
G1 Y16.5 E447.796
G1 X-3 Y16.5 F12000
G1 Y13.16 E448.004 F2400
G1 Y9.82 E448.212
G1 Y6.48 E448.421
G1 X-2.5 Y6.64 F12000
G1 Y11.57 E448.728 F2400
G1 Y16.5 E449.036
G1 X-2 Y16.5 F12000
G1 Y11.63 E449.339 F2400
G1 Y6.77 E449.643
G1 X-1.5 Y6.87 F12000
G1 Y11.68 E449.943 F2400
G1 Y16.5 E450.243
G1 X-1 Y16.5 F12000
G1 Y11.72 E450.541 F2400
G1 Y6.93 E450.84
G1 X-0.5 Y6.99 F12000
G1 Y11.74 E451.136 F2400
G1 Y16.5 E451.433
G1 X0 F12000
G1 Y11.75 E451.73 F2400
G1 Y6.99 E452.026
G1 X0.5 Y6.99 F12000
G1 Y11.74 E452.323 F2400
G1 Y16.5 E452.62
G1 X1 F12000
G1 Y11.72 E452.918 F2400
G1 Y6.93 E453.216
G1 X1.5 Y6.87 F12000
G1 Y11.68 E453.516 F2400
G1 Y16.5 E453.817
G1 X2 F12000
G1 Y11.63 E454.12 F2400
G1 Y6.77 E454.424
G1 X2.5 Y6.64 F12000
G1 Y11.57 E454.731 F2400
G1 Y16.5 E455.039
G1 X3 F12000
G1 Y13.16 E455.247 F2400
G1 Y9.82 E455.455
G1 Y6.48 E455.664
G1 X3.5 Y6.28 F12000
G1 Y9.69 E455.876 F2400
G1 Y13.09 E456.089
G1 Y16.5 E456.301
G1 X4 F12000
G1 Y13.02 E456.518 F2400
G1 Y9.54 E456.735
G1 Y6.06 E456.952
G1 X4.5 Y5.78 F12000
G1 Y9.35 E457.175 F2400
G1 Y12.93 E457.398
G1 Y16.5 E457.621
G1 X5 F12000
G1 Y12.82 E457.85 F2400
G1 Y9.15 E458.079
G1 Y5.47 E458.308
G1 X5.5 Y5.12 F12000
G1 Y8.91 E458.545 F2400
G1 Y12.71 E458.781
G1 Y16.5 E459.018
G1 X6 F12000
G1 Y12.56 E459.263 F2400
G1 Y8.63 E459.509
G1 Y4.69 E459.754
G1 X6.5 Y4.21 F12000
G1 Y8.31 E460.01 F2400
G1 Y12.4 E460.265
G1 Y16.5 E460.521
G1 X7 F12000
G1 Y12.21 E460.788 F2400
G1 Y7.93 E461.055
G1 Y3.64 E461.323
G1 X7.5 Y2.96 F12000
G1 Y7.47 E461.604 F2400
G1 Y11.99 E461.885
G1 Y16.5 E462.167
G1 X8 F12000
G1 Y11.7 E462.466 F2400
G1 Y6.9 E462.765
G1 Y2.1 E463.065
G1 X8.5 Y0.94 F12000
G1 Y4.83 E463.307 F2400
G1 Y8.72 E463.55
G1 Y12.61 E463.793
G1 Y16.5 E464.035
G1 X9 F12000
G1 Y11.88 E464.324 F2400
G1 Y7.25 E464.612
G1 Y2.63 E464.901
G1 Y-2 E465.189
G1 Y-6.62 E465.478
G1 Y-11.25 E465.766
G1 Y-15.87 E466.054
G1 Y-20.5 E466.343
G1 X9.5 Y-20.5 F12000
G1 X9.5 Y-15.87 E466.631 F2400
G1 Y-11.25 E466.92
G1 Y-6.62 E467.208
G1 Y-2 E467.496
G1 Y2.63 E467.785
G1 Y7.25 E468.073
G1 Y11.88 E468.362
G1 Y16.5 E468.65
G1 X10 F12000
G1 Y11.88 E468.938 F2400
G1 Y7.25 E469.227
G1 Y2.63 E469.515
G1 Y-2 E469.804
G1 Y-6.62 E470.092
G1 Y-11.25 E470.381
G1 Y-15.87 E470.669
G1 Y-20.5 E470.957
G1 X10.5 Y-20.5 F12000
G1 X10.5 Y-15.87 E471.246 F2400
G1 Y-11.25 E471.534
G1 Y-6.62 E471.823
G1 Y-2 E472.111
G1 Y2.63 E472.399
G1 Y7.25 E472.688
G1 Y11.88 E472.976
G1 Y16.5 E473.265
G1 X11 F12000
G1 Y11.88 E473.553 F2400
G1 Y7.25 E473.841
G1 Y2.63 E474.13
G1 Y-2 E474.418
G1 Y-6.62 E474.707
G1 Y-11.25 E474.995
G1 Y-15.87 E475.284
G1 Y-20.5 E475.572
G1 X11.5 Y-20.5 F12000
G1 X11.5 Y-15.87 E475.86 F2400
G1 Y-11.25 E476.149
G1 Y-6.62 E476.437
G1 Y-2 E476.726
G1 Y2.63 E477.014
G1 Y7.25 E477.302
G1 Y11.88 E477.591
G1 Y16.5 E477.879
G1 X12 F12000
G1 Y11.88 E478.168 F2400
G1 Y7.25 E478.456
G1 Y2.63 E478.744
G1 Y-2 E479.033
G1 Y-6.62 E479.321
G1 Y-11.25 E479.61
G1 Y-15.87 E479.898
G1 Y-20.5 E480.187
G1 X12.5 Y-20.5 F12000
G1 X12.5 Y-15.87 E480.475 F2400
G1 Y-11.25 E480.763
G1 Y-6.62 E481.052
G1 Y-2 E481.34
G1 Y2.63 E481.629
G1 Y7.25 E481.917
G1 Y11.88 E482.205
G1 Y16.5 E482.494
G1 X13 F12000
G1 Y11.88 E482.782 F2400
G1 Y7.25 E483.071
G1 Y2.63 E483.359
G1 Y-2 E483.647
G1 Y-6.62 E483.936
G1 Y-11.25 E484.224
G1 Y-15.87 E484.513
G1 Y-20.5 E484.801
G1 X13.5 Y-20.5 F12000
G1 X13.5 Y-15.87 E485.09 F2400
G1 Y-11.25 E485.378
G1 Y-6.62 E485.666
G1 Y-2 E485.955
G1 Y2.63 E486.243
G1 Y7.25 E486.532
G1 Y11.88 E486.82
G1 Y16.5 E487.108
G1 X14 F12000
G1 Y11.88 E487.397 F2400
G1 Y7.25 E487.685
G1 Y2.63 E487.974
G1 Y-2 E488.262
G1 Y-6.62 E488.55
G1 Y-11.25 E488.839
G1 Y-15.87 E489.127
G1 Y-20.5 E489.416
G1 X14.5 Y-20.5 F12000
G1 X14.5 Y-15.87 E489.704 F2400
G1 Y-11.25 E489.993
G1 Y-6.62 E490.281
G1 Y-2 E490.569
G1 Y2.63 E490.858
G1 Y7.25 E491.146
G1 Y11.88 E491.435
G1 Y16.5 E491.723
G1 X15 Y16.5 F12000
G1 Y11.87 E492.011 F2400
G1 Y7.25 E492.3
G1 Y2.63 E492.588
G1 Y-2 E492.877
G1 Y-6.62 E493.165
G1 Y-11.25 E493.453
G1 Y-15.87 E493.742
G1 Y-20.5 E494.03
G1 X15.5 Y-20.5 F12000
G1 X15.5 Y-15.87 E494.319 F2400
G1 Y-11.25 E494.607
G1 Y-6.62 E494.895
G1 Y-2 E495.184
G1 Y2.63 E495.472
G1 Y7.25 E495.761
G1 Y11.87 E496.049
G1 Y16.5 E496.337
G1 X16 Y16.5 F12000
G1 Y11.87 E496.626 F2400
G1 Y7.25 E496.914
G1 Y2.63 E497.203
G1 Y-2 E497.491
G1 Y-6.62 E497.78
G1 Y-11.25 E498.068
G1 Y-15.87 E498.356
G1 Y-20.5 E498.645
G1 E496.145 F6000
G1 Z1.4
G1 X4.25 Y-17 F12000
G1 X-7.5 Y-13.5
G1 X-19.25 Y-10
; TYPE:SUPPORT
G1 Z0.9
G1 E498.645 F6000
G1 X-23.5 Y-10 E498.91 F2400
G1 Y-7.5 F12000
G1 X-19.25 E499.175 F2400
G1 Y-5 F12000
G1 X-23.5 E499.44 F2400
G1 Y-2.5 F12000
G1 X-19.25 E499.705 F2400
G1 Y0 F12000
G1 X-23.5 E499.97 F2400
G1 Y2.5 F12000
G1 X-19.25 E500.235 F2400
G1 Y5 F12000
G1 X-23.5 E500.5 F2400
G1 Y7.5 F12000
G1 X-19.25 E500.765 F2400
; Layer Change GCode
; LAYER:3
; LAYER_HEIGHT:0.3
; TYPE:FILL
M400
M106 S168
G1 E498.265 F6000
G1 Z1.4
G1 Z1.7 F12000
G1 X-16.55 Y7.11
G1 X-6.03 Y4.34
; TYPE:WALL-INNER
G1 Z1.2
G1 E500.765 F6000
G1 X-6.64 Y3.7 E500.82 F2400
G1 X-7.18 Y3 E500.876
G1 X-7.65 Y2.25 E500.931
G1 X-8.04 Y1.45 E500.986
G1 X-8.35 Y0.62 E501.041
G1 X-8.57 Y-0.24 E501.097
G1 X-8.71 Y-1.11 E501.152
G1 X-8.75 Y-2 E501.207
G1 X-8.71 Y-2.88 E501.262
G1 X-8.57 Y-3.76 E501.318
G1 X-8.35 Y-4.62 E501.373
G1 X-8.04 Y-5.45 E501.428
G1 X-7.65 Y-6.25 E501.484
G1 X-7.18 Y-7 E501.539
G1 X-6.64 Y-7.7 E501.594
G1 X-6.03 Y-8.34 E501.649
G1 X-5.36 Y-8.92 E501.705
G1 X-4.63 Y-9.43 E501.76
G1 X-3.85 Y-9.86 E501.815
G1 X-3.04 Y-10.21 E501.871
G1 X-2.19 Y-10.47 E501.926
G1 X-1.32 Y-10.65 E501.981
G1 X-0.44 Y-10.74 E502.037
G1 X0.44 E502.092
G1 X1.33 Y-10.65 E502.147
G1 X2.19 Y-10.47 E502.202
G1 X3.04 Y-10.21 E502.257
G1 X3.85 Y-9.86 E502.313
G1 X4.63 Y-9.43 E502.368
G1 X5.36 Y-8.92 E502.423
G1 X6.03 Y-8.34 E502.479
G1 X6.64 Y-7.7 E502.534
G1 X7.18 Y-7 E502.589
G1 X7.65 Y-6.25 E502.644
G1 X8.04 Y-5.45 E502.7
G1 X8.35 Y-4.62 E502.755
G1 X8.57 Y-3.76 E502.81
G1 X8.7 Y-2.93 E502.862
G1 X8.75 Y-2 E502.921
G1 X8.71 Y-1.11 E502.976
G1 X8.57 Y-0.24 E503.031
G1 X8.35 Y0.62 E503.087
G1 X8.04 Y1.45 E503.142
G1 X7.65 Y2.25 E503.197
G1 X7.18 Y3 E503.253
G1 X6.64 Y3.7 E503.308
G1 X6.03 Y4.34 E503.363
G1 X5.36 Y4.92 E503.418
G1 X4.63 Y5.43 E503.474
G1 X3.85 Y5.86 E503.529
G1 X3.04 Y6.21 E503.584
G1 X2.19 Y6.47 E503.64
G1 X1.33 Y6.65 E503.695
G1 X0.44 Y6.74 E503.75
G1 X-0.44 E503.805
G1 X-1.32 Y6.65 E503.861
G1 X-2.19 Y6.47 E503.916
G1 X-3.04 Y6.21 E503.971
G1 X-3.85 Y5.86 E504.026
G1 X-4.63 Y5.43 E504.082
G1 X-5.36 Y4.92 E504.137
G1 X-5.99 Y4.37 E504.189
G1 X-6.03 Y4.34
G1 X-5.68 Y3.98 F12000
G1 X-6.26 Y3.37 E504.241 F2400
G1 X-6.77 Y2.71 E504.293
G1 X-7.21 Y2 E504.345
G1 X-7.58 Y1.25 E504.398
G1 X-7.87 Y0.47 E504.45
G1 X-8.08 Y-0.34 E504.502
G1 X-8.21 Y-1.16 E504.554
G1 X-8.25 Y-2 E504.606
G1 X-8.21 Y-2.83 E504.658
G1 X-8.08 Y-3.66 E504.71
G1 X-7.87 Y-4.47 E504.762
G1 X-7.58 Y-5.25 E504.814
G1 X-7.21 Y-6 E504.867
G1 X-6.77 Y-6.71 E504.919
G1 X-6.26 Y-7.37 E504.971
G1 X-5.68 Y-7.98 E505.023
G1 X-5.05 Y-8.52 E505.075
G1 X-4.36 Y-9 E505.127
G1 X-3.63 Y-9.41 E505.179
G1 X-2.86 Y-9.74 E505.231
G1 X-2.07 Y-9.99 E505.284
G1 X-1.25 Y-10.15 E505.336
G1 X-0.42 Y-10.24 E505.388
G1 X0.42 E505.44
G1 X1.25 Y-10.15 E505.492
G1 X2.07 Y-9.99 E505.544
G1 X2.87 Y-9.74 E505.596
G1 X3.63 Y-9.41 E505.648
G1 X4.36 Y-9 E505.7
G1 X5.05 Y-8.52 E505.753
G1 X5.68 Y-7.98 E505.805
G1 X6.26 Y-7.37 E505.857
G1 X6.77 Y-6.71 E505.909
G1 X7.21 Y-6 E505.961
G1 X7.58 Y-5.25 E506.013
G1 X7.87 Y-4.47 E506.065
G1 X8.08 Y-3.66 E506.117
G1 X8.2 Y-2.88 E506.167
G1 X8.25 Y-2 E506.222
G1 X8.21 Y-1.16 E506.274
G1 X8.08 Y-0.34 E506.326
G1 X7.87 Y0.47 E506.378
G1 X7.58 Y1.25 E506.43
G1 X7.21 Y2 E506.482
G1 X6.77 Y2.71 E506.534
G1 X6.26 Y3.37 E506.586
G1 X5.68 Y3.98 E506.639
G1 X5.05 Y4.52 E506.691
G1 X4.36 Y5 E506.743
G1 X3.63 Y5.41 E506.795
G1 X2.87 Y5.74 E506.847
G1 X2.07 Y5.99 E506.899
G1 X1.25 Y6.16 E506.951
G1 X0.42 Y6.24 E507.003
G1 X-0.42 E507.055
G1 X-1.25 Y6.16 E507.108
G1 X-2.07 Y5.99 E507.16
G1 X-2.86 Y5.74 E507.212
G1 X-3.63 Y5.41 E507.264
G1 X-4.36 Y5 E507.316
G1 X-5.05 Y4.52 E507.368
G1 X-5.65 Y4.01 E507.417
G1 X-5.68 Y3.98
G1 X-5.34 Y3.62 F12000
; TYPE:WALL-OUTER
G1 X-5.88 Y3.05 E507.466 F1800
G1 X-6.36 Y2.43 E507.515
G1 X-6.78 Y1.76 E507.564
G1 X-7.12 Y1.06 E507.613
G1 X-7.39 Y0.32 E507.662
G1 X-7.59 Y-0.44 E507.711
G1 X-7.71 Y-1.22 E507.76
G1 X-7.75 Y-2 E507.809
G1 X-7.71 Y-2.78 E507.858
G1 X-7.59 Y-3.56 E507.907
G1 X-7.39 Y-4.32 E507.956
G1 X-7.12 Y-5.06 E508.005
G1 X-6.78 Y-5.76 E508.054
G1 X-6.36 Y-6.43 E508.103
G1 X-5.88 Y-7.05 E508.151
G1 X-5.34 Y-7.62 E508.2
G1 X-4.74 Y-8.13 E508.249
G1 X-4.1 Y-8.58 E508.298
G1 X-3.41 Y-8.96 E508.347
G1 X-2.69 Y-9.27 E508.396
G1 X-1.94 Y-9.5 E508.445
G1 X-1.17 Y-9.66 E508.494
G1 X-0.39 Y-9.74 E508.543
G1 X0.39 E508.592
G1 X1.17 Y-9.66 E508.641
G1 X1.94 Y-9.5 E508.69
G1 X2.69 Y-9.27 E508.739
G1 X3.41 Y-8.96 E508.788
G1 X4.1 Y-8.58 E508.837
G1 X4.74 Y-8.13 E508.886
G1 X5.34 Y-7.62 E508.935
G1 X5.88 Y-7.05 E508.984
G1 X6.36 Y-6.43 E509.033
G1 X6.78 Y-5.76 E509.082
G1 X7.12 Y-5.06 E509.131
G1 X7.4 Y-4.32 E509.179
G1 X7.59 Y-3.56 E509.228
G1 X7.7 Y-2.83 E509.274
G1 X7.75 Y-2 E509.326
G1 X7.71 Y-1.22 E509.375
G1 X7.59 Y-0.44 E509.424
G1 X7.4 Y0.32 E509.473
G1 X7.12 Y1.06 E509.522
G1 X6.78 Y1.76 E509.571
G1 X6.36 Y2.43 E509.62
G1 X5.88 Y3.05 E509.669
G1 X5.34 Y3.62 E509.718
G1 X4.74 Y4.13 E509.767
G1 X4.1 Y4.58 E509.816
G1 X3.41 Y4.96 E509.865
G1 X2.69 Y5.27 E509.914
G1 X1.94 Y5.5 E509.963
G1 X1.17 Y5.66 E510.012
G1 X0.39 Y5.74 E510.061
G1 X-0.39 E510.109
G1 X-1.17 Y5.66 E510.158
G1 X-1.94 Y5.5 E510.207
G1 X-2.69 Y5.27 E510.256
G1 X-3.41 Y4.96 E510.305
G1 X-4.1 Y4.58 E510.354
G1 X-4.74 Y4.13 E510.403
G1 X-5.3 Y3.65 E510.449
G1 X-5.34 Y3.62
G1 X-5.88 Y3.05
G1 X-6.36 Y2.43
G1 X-6.78 Y1.76
G1 X-7.06 Y1.18
G1 X-6.03 Y4.34 F12000
G1 E507.949 F6000
G1 Z1.7
G1 X-16.8 Y16.75 F12000
; TYPE:WALL-INNER
G1 Z1.2
G1 E510.449 F6000
G1 Y12.06 E510.741 F2400
G1 Y7.38 E511.034
G1 Y2.69 E511.326
G1 Y-2 E511.618
G1 Y-6.69 E511.911
G1 Y-11.37 E512.203
G1 Y-16.06 E512.495
G1 Y-20.75 E512.788
G1 X-12 E513.087
G1 X-7.2 E513.386
G1 X-2.4 E513.686
G1 X2.4 E513.985
G1 X7.2 E514.284
G1 X12 E514.584
G1 X16.8 E514.883
G1 Y-16.06 E515.175
G1 Y-11.37 E515.468
G1 Y-6.69 E515.76
G1 Y-2 E516.052
G1 Y2.69 E516.345
G1 Y7.38 E516.637
G1 Y12.06 E516.929
G1 Y16.75 E517.221
G1 X12.01 E517.52
G1 X7.21 E517.819
G1 X2.42 E518.118
G1 X-2.37 E518.417
G1 X-7.16 E518.716
G1 X-11.96 E519.015
G1 X-16.75 E519.314
G1 X-16.8
G1 X-17.3 Y17.25 F12000
G1 Y12.44 E519.614 F2400
G1 Y7.63 E519.914
G1 Y2.81 E520.214
G1 Y-2 E520.514
G1 Y-6.81 E520.814
G1 Y-11.62 E521.114
G1 Y-16.44 E521.415
G1 Y-21.25 E521.715
G1 X-12.36 E522.023
G1 X-7.41 E522.331
G1 X-2.47 E522.639
G1 X2.47 E522.948
G1 X7.41 E523.256
G1 X12.36 E523.564
G1 X17.3 E523.872
G1 Y-16.44 E524.172
G1 Y-11.62 E524.473
G1 Y-6.81 E524.773
G1 Y-2 E525.073
G1 Y2.81 E525.373
G1 Y7.63 E525.673
G1 Y12.44 E525.973
G1 Y17.25 E526.273
G1 X12.36 E526.581
G1 X7.43 E526.889
G1 X2.49 E527.197
G1 X-2.44 E527.504
G1 X-7.38 E527.812
G1 X-12.31 E528.12
G1 X-17.25 E528.428
G1 X-17.3
G1 X-17.8 Y17.75 F12000
; TYPE:WALL-OUTER
G1 Y12.81 E528.736 F1800
G1 Y7.88 E529.044
G1 Y2.94 E529.352
G1 Y-2 E529.66
G1 Y-6.94 E529.967
G1 Y-11.87 E530.275
G1 Y-16.81 E530.583
G1 Y-21.75 E530.891
G1 X-13.35 E531.169
G1 X-8.9 E531.446
G1 X-4.45 E531.724
G1 X0 E532.001
G1 X4.45 E532.279
G1 X8.9 E532.556
G1 X13.35 E532.834
G1 X17.8 E533.111
G1 Y-16.81 E533.419
G1 Y-11.87 E533.727
G1 Y-6.94 E534.035
G1 Y-2 E534.343
G1 Y2.94 E534.651
G1 Y7.88 E534.959
G1 Y12.81 E535.267
G1 Y17.75 E535.574
G1 X13.36 E535.852
G1 X8.91 E536.129
G1 X4.47 E536.406
G1 X0.03 E536.683
G1 X-4.42 E536.96
G1 X-8.86 E537.237
G1 X-13.31 E537.514
G1 X-17.75 E537.791
G1 X-17.8
G1 Y14.75
G1 X-16.8 Y16.75 F12000
G1 X-15.27 Y16.45
; TYPE:FILL
G1 X-13.33 Y13.08 E538.034 F2400
G1 X-11.38 Y9.71 E538.277
G1 X-9.44 Y6.34 E538.519
G1 X-7.49 Y2.97 E538.762
G1 X-5.65 Y5 F12000
G1 X-10.46 E539.062 F2400
G1 X-15.27 E539.363
G1 X-15.27 Y6.45 F12000
G1 X-13.05 Y2.6 E539.64 F2400
G1 X-10.83 Y-1.25 E539.917
G1 X-8.6 Y-5.1 E540.194
G1 X-6.38 Y-8.95 E540.472
G1 X-4.16 Y-12.8 E540.749
G1 X-1.94 Y-16.65 E541.026
G1 X0.29 Y-20.5 E541.303
G1 X-0.29 Y-20.5 F12000
G1 X1.94 Y-16.65 E541.581 F2400
G1 X4.16 Y-12.8 E541.858
G1 X6.38 Y-8.95 E542.135
G1 X8.61 Y-5.1 E542.412
G1 X10.83 Y-1.25 E542.69
G1 X13.05 Y2.6 E542.967
G1 X15.27 Y6.46 E543.244
G1 X15.27 Y5 F12000
G1 X10.46 Y5 E543.545 F2400
G1 X5.65 E543.845
G1 X3.6 Y6.24 F12000
G1 X5.58 Y9.66 E544.091 F2400
G1 X7.55 Y13.08 E544.337
G1 X9.53 Y16.5 E544.584
G1 X7.79 Y16.5 F12000
G1 X10.29 Y12.18 E544.895 F2400
G1 X12.78 Y7.86 E545.206
G1 X15.27 Y3.54 E545.517
G1 X15.27 Y0 F12000
G1 X12.02 E545.719 F2400
G1 X8.77 E545.922
G1 X7.49 Y2.97 F12000
G1 X9.44 Y6.34 E546.165 F2400
G1 X11.38 Y9.71 E546.408
G1 X13.33 Y13.08 E546.65
G1 X15.27 Y16.46 E546.893
G1 X15.27 Y15 F12000
G1 X10.91 Y15 E547.165 F2400
G1 X6.55 E547.437
G1 X2.18 E547.71
G1 X-2.18 E547.982
G1 X-6.55 E548.254
G1 X-10.91 E548.526
G1 X-15.27 E548.798
G1 X-15.27 Y13.55 F12000
G1 X-13.57 Y16.5 E549.011 F2400
G1 X-9.53 F12000
G1 X-7.55 Y13.08 E549.257 F2400
G1 X-5.58 Y9.66 E549.504
G1 X-3.6 Y6.24 E549.75
G1 X-1.85 Y6.8 F12000
G1 X0.02 Y10.03 E549.983 F2400
G1 X1.89 Y13.26 E550.216
G1 X3.75 Y16.5 E550.449
G1 X2.02 Y16.5 F12000
G1 X4.23 Y12.67 E550.724 F2400
G1 X6.44 Y8.85 E551
G1 X8.65 Y5.02 E551.275
G1 X10.86 Y1.2 E551.551
G1 X13.07 Y-2.63 E551.826
G1 X15.27 Y-6.46 E552.102
G1 X15.28 Y-5 F12000
G1 X11.88 E552.314 F2400
G1 X8.48 E552.526
G1 X8.55 Y-4.8 F12000
G1 X10.79 Y-8.69 E552.805 F2400
G1 X13.03 Y-12.57 E553.085
G1 X15.28 Y-16.46 E553.365
G1 X15.27 Y-15 F12000
G1 X10.91 E553.637 F2400
G1 X6.55 E553.909
G1 X2.18 E554.181
G1 X-2.18 E554.453
G1 X-6.55 E554.725
G1 X-10.91 E554.998
G1 X-15.27 E555.27
G1 X-15.27 Y-16.45 F12000
G1 X-13.03 Y-12.57 E555.549 F2400
G1 X-10.79 Y-8.69 E555.829
G1 X-8.55 Y-4.8 E556.109
G1 X-8.48 Y-5 F12000
G1 X-11.87 E556.321 F2400
G1 X-15.27 E556.533
G1 X-15.27 Y-6.45 F12000
G1 X-13.06 Y-2.63 E556.808 F2400
G1 X-10.86 Y1.2 E557.084
G1 X-8.65 Y5.02 E557.359
G1 X-6.44 Y8.85 E557.635
G1 X-4.23 Y12.67 E557.91
G1 X-2.02 Y16.5 E558.186
G1 X-3.75 Y16.5 F12000
G1 X-1.89 Y13.27 E558.418 F2400
G1 X-0.02 Y10.03 E558.651
G1 X1.85 Y6.8 E558.884
G1 X-4.05 Y5.48 F12000
G1 X-7.34 Y2.09
G1 X-8.77 Y0
G1 X-12.02 E559.087 F2400
G1 X-15.27 E559.29
G1 X-15.27 Y-3.54 F12000
G1 X-12.83 Y-7.78 E559.595 F2400
G1 X-10.38 Y-12.02 E559.9
G1 X-7.93 Y-16.26 E560.206
G1 X-5.49 Y-20.5 E560.511
G1 X-6.06 Y-20.5 F12000
G1 X-4.23 Y-17.32 E560.739 F2400
G1 X-2.4 Y-14.15 E560.968
G1 X-0.56 Y-10.98 E561.196
G1 X0.56 Y-10.98 F12000
G1 X2.4 Y-14.15 E561.425 F2400
G1 X4.23 Y-17.32 E561.654
G1 X6.06 Y-20.5 E561.882
G1 X5.49 Y-20.5 F12000
G1 X7.93 Y-16.26 E562.187 F2400
G1 X10.38 Y-12.02 E562.493
G1 X12.83 Y-7.78 E562.798
G1 X15.27 Y-3.54 E563.103
G1 X15.28 Y-10 F12000
G1 X11.55 E563.335 F2400
G1 X7.83 E563.568
G1 X4.11 E563.8
G1 X5.33 Y-9.24 F12000
G1 X7.5 Y-12.99 E564.07 F2400
G1 X9.67 Y-16.74 E564.34
G1 X11.84 Y-20.5 E564.611
G1 X11.26 Y-20.5 F12000
G1 X13.27 Y-17.02 E564.861 F2400
G1 X15.28 Y-13.54 E565.111
G1 X15.27 Y-20 F12000
G1 X10.91 E565.384 F2400
G1 X6.55 E565.656
G1 X2.18 E565.928
G1 X-2.18 E566.2
G1 X-6.55 E566.472
G1 X-10.91 E566.744
G1 X-15.27 E567.016
G1 X-11.83 Y-20.5 F12000
G1 X-9.67 Y-16.74 E567.287 F2400
G1 X-7.5 Y-12.99 E567.557
G1 X-5.33 Y-9.24 E567.827
G1 X-4.11 Y-10 F12000
G1 X-7.83 E568.059 F2400
G1 X-11.55 E568.292
G1 X-15.27 E568.524
G1 X-15.27 Y-13.54 F12000
G1 X-13.27 Y-17.02 E568.774 F2400
G1 X-11.26 Y-20.5 E569.025
G1 E566.525 F6000
G1 Z1.7
G1 X-13.27 Y-8.48 F12000
G1 X-15.27 Y3.55
G1 Z1.2
G1 E569.025 F6000
G1 X-12.78 Y7.86 E569.335 F2400
G1 X-10.29 Y12.18 E569.646
G1 X-7.79 Y16.5 E569.957
G1 X-15.27 Y10 F12000
G1 X-10.91 E570.23 F2400
G1 X-6.55 E570.502
G1 X-2.18 E570.774
G1 X2.18 E571.046
G1 X6.55 E571.318
G1 X10.91 E571.59
G1 X15.27 E571.862
G1 X15.28 Y13.54 F12000
G1 X13.57 Y16.5 E572.075 F2400
G1 X15.27 Y16 F12000
; TYPE:FILL
G1 X16.55 E572.155 F2400
G1 Y15.5 F12000
G1 X15.27 E572.234 F2400
G1 Y15 F12000
G1 X16.55 E572.314 F2400
G1 Y14.5 F12000
G1 X15.27 E572.394 F2400
G1 Y14 F12000
G1 X16.55 E572.473 F2400
G1 Y13.5 F12000
G1 X15.27 E572.553 F2400
G1 Y13 F12000
G1 X16.55 E572.632 F2400
G1 Y12.5 F12000
G1 X15.27 E572.712 F2400
G1 Y12 F12000
G1 X16.55 E572.791 F2400
G1 Y11.5 F12000
G1 X15.27 E572.871 F2400
G1 Y11 F12000
G1 X16.55 E572.951 F2400
G1 Y10.5 F12000
G1 X15.27 E573.03 F2400
G1 Y10 F12000
G1 X16.55 E573.11 F2400
G1 Y9.5 F12000
G1 X15.27 E573.189 F2400
G1 Y9 F12000
G1 X16.55 E573.269 F2400
G1 Y8.5 F12000
G1 X15.27 E573.349 F2400
G1 Y8 F12000
G1 X16.55 E573.428 F2400
G1 Y7.5 F12000
G1 X15.27 E573.508 F2400
G1 Y7 F12000
G1 X16.55 E573.587 F2400
G1 Y6.5 F12000
G1 X15.27 E573.667 F2400
G1 Y6 F12000
G1 X16.55 E573.746 F2400
G1 Y5.5 F12000
G1 X15.27 E573.826 F2400
G1 Y5 F12000
G1 X16.55 E573.906 F2400
G1 Y4.5 F12000
G1 X15.27 E573.985 F2400
G1 Y4 F12000
G1 X16.55 E574.065 F2400
G1 Y3.5 F12000
G1 X15.27 E574.144 F2400
G1 Y3 F12000
G1 X16.55 E574.224 F2400
G1 Y2.5 F12000
G1 X15.27 E574.303 F2400
G1 Y2 F12000
G1 X16.55 E574.383 F2400
G1 Y1.5 F12000
G1 X15.27 E574.463 F2400
G1 Y1 F12000
G1 X16.55 E574.542 F2400
G1 Y0.5 F12000
G1 X15.27 E574.622 F2400
G1 Y0 F12000
G1 X16.55 E574.701 F2400
G1 Y-0.5 F12000
G1 X15.27 E574.781 F2400
G1 Y-1 F12000
G1 X16.55 E574.86 F2400
G1 Y-1.5 F12000
G1 X15.27 E574.94 F2400
G1 X15.28 Y-2 F12000
G1 X16.55 E575.02 F2400
G1 Y-2.5 F12000
G1 X15.28 E575.099 F2400
G1 Y-3 F12000
G1 X16.55 E575.179 F2400
G1 Y-3.5 F12000
G1 X15.28 E575.258 F2400
G1 Y-4 F12000
G1 X16.55 E575.338 F2400
G1 Y-4.5 F12000
G1 X15.28 E575.417 F2400
G1 Y-5 F12000
G1 X16.55 E575.497 F2400
G1 Y-5.5 F12000
G1 X15.28 E575.576 F2400
G1 Y-6 F12000
G1 X16.55 E575.656 F2400
G1 Y-6.5 F12000
G1 X15.28 E575.735 F2400
G1 Y-7 F12000
G1 X16.55 E575.815 F2400
G1 Y-7.5 F12000
G1 X15.28 E575.894 F2400
G1 Y-8 F12000
G1 X16.55 E575.974 F2400
G1 Y-8.5 F12000
G1 X15.28 E576.053 F2400
G1 Y-9 F12000
G1 X16.55 E576.133 F2400
G1 Y-9.5 F12000
G1 X15.28 E576.212 F2400
G1 Y-10 F12000
G1 X16.55 E576.292 F2400
G1 Y-10.5 F12000
G1 X15.28 E576.371 F2400
G1 Y-11 F12000
G1 X16.55 E576.451 F2400
G1 Y-11.5 F12000
G1 X15.28 E576.53 F2400
G1 Y-12 F12000
G1 X16.55 E576.61 F2400
G1 Y-12.5 F12000
G1 X15.28 E576.689 F2400
G1 Y-13 F12000
G1 X16.55 E576.769 F2400
G1 Y-13.5 F12000
G1 X15.28 E576.848 F2400
G1 Y-14 F12000
G1 X16.55 E576.928 F2400
G1 Y-14.5 F12000
G1 X15.28 E577.007 F2400
G1 X15.27 Y-15 F12000
G1 X16.55 E577.087 F2400
G1 Y-15.5 F12000
G1 X15.27 E577.166 F2400
G1 Y-16 F12000
G1 X16.55 E577.246 F2400
G1 Y-16.5 F12000
G1 X15.27 E577.326 F2400
G1 Y-17 F12000
G1 X16.55 E577.405 F2400
G1 Y-17.5 F12000
G1 X15.27 E577.485 F2400
G1 Y-18 F12000
G1 X16.55 E577.564 F2400
G1 Y-18.5 F12000
G1 X15.27 E577.644 F2400
G1 Y-19 F12000
G1 X16.55 E577.723 F2400
G1 Y-19.5 F12000
G1 X15.27 E577.803 F2400
G1 Y-20 F12000
G1 X16.55 E577.883 F2400
G1 E575.383 F6000
G1 Z1.7
G1 X8.52 Y-2.58 F12000
G1 X7.57 Y1.68
G1 X3.87 Y5.33
G1 X-2 Y7.98
G1 X-15.27 Y16
G1 Z1.2
G1 E577.883 F6000
G1 X-16.55 E577.962 F2400
G1 Y15.5 F12000
G1 X-15.27 E578.042 F2400
G1 Y15 F12000
G1 X-16.55 E578.121 F2400
G1 Y14.5 F12000
G1 X-15.27 E578.201 F2400
G1 Y14 F12000
G1 X-16.55 E578.28 F2400
G1 Y13.5 F12000
G1 X-15.27 E578.36 F2400
G1 Y13 F12000
G1 X-16.55 E578.439 F2400
G1 Y12.5 F12000
G1 X-15.27 E578.519 F2400
G1 Y12 F12000
G1 X-16.55 E578.598 F2400
G1 Y11.5 F12000
G1 X-15.27 E578.678 F2400
G1 Y11 F12000
G1 X-16.55 E578.757 F2400
G1 Y10.5 F12000
G1 X-15.27 E578.837 F2400
G1 Y10 F12000
G1 X-16.55 E578.916 F2400
G1 Y9.5 F12000
G1 X-15.27 E578.996 F2400
G1 Y9 F12000
G1 X-16.55 E579.076 F2400
G1 Y8.5 F12000
G1 X-15.27 E579.155 F2400
G1 Y8 F12000
G1 X-16.55 E579.235 F2400
G1 Y7.5 F12000
G1 X-15.27 E579.314 F2400
G1 Y7 F12000
G1 X-16.55 E579.394 F2400
G1 Y6.5 F12000
G1 X-15.27 E579.473 F2400
G1 Y6 F12000
G1 X-16.55 E579.553 F2400
G1 Y5.5 F12000
G1 X-15.27 E579.632 F2400
G1 Y5 F12000
G1 X-16.55 E579.712 F2400
G1 Y4.5 F12000
G1 X-15.27 E579.791 F2400
G1 Y4 F12000
G1 X-16.55 E579.871 F2400
G1 Y3.5 F12000
G1 X-15.27 E579.95 F2400
G1 Y3 F12000
G1 X-16.55 E580.03 F2400
G1 Y2.5 F12000
G1 X-15.27 E580.109 F2400
G1 Y2 F12000
G1 X-16.55 E580.189 F2400
G1 Y1.5 F12000
G1 X-15.27 E580.268 F2400
G1 Y1 F12000
G1 X-16.55 E580.348 F2400
G1 Y0.5 F12000
G1 X-15.27 E580.427 F2400
G1 Y0 F12000
G1 X-16.55 E580.507 F2400
G1 Y-0.5 F12000
G1 X-15.27 E580.586 F2400
G1 Y-1 F12000
G1 X-16.55 E580.666 F2400
G1 Y-1.5 F12000
G1 X-15.27 E580.745 F2400
G1 X-15.27 Y-2 F12000
G1 X-16.55 E580.825 F2400
G1 Y-2.5 F12000
G1 X-15.27 E580.904 F2400
G1 Y-3 F12000
G1 X-16.55 E580.984 F2400
G1 Y-3.5 F12000
G1 X-15.27 E581.064 F2400
G1 Y-4 F12000
G1 X-16.55 E581.143 F2400
G1 Y-4.5 F12000
G1 X-15.27 E581.223 F2400
G1 Y-5 F12000
G1 X-16.55 E581.302 F2400
G1 Y-5.5 F12000
G1 X-15.27 E581.382 F2400
G1 Y-6 F12000
G1 X-16.55 E581.461 F2400
G1 Y-6.5 F12000
G1 X-15.27 E581.541 F2400
G1 Y-7 F12000
G1 X-16.55 E581.621 F2400
G1 Y-7.5 F12000
G1 X-15.27 E581.7 F2400
G1 Y-8 F12000
G1 X-16.55 E581.78 F2400
G1 Y-8.5 F12000
G1 X-15.27 E581.859 F2400
G1 Y-9 F12000
G1 X-16.55 E581.939 F2400
G1 Y-9.5 F12000
G1 X-15.27 E582.018 F2400
G1 Y-10 F12000
G1 X-16.55 E582.098 F2400
G1 Y-10.5 F12000
G1 X-15.27 E582.178 F2400
G1 Y-11 F12000
G1 X-16.55 E582.257 F2400
G1 Y-11.5 F12000
G1 X-15.27 E582.337 F2400
G1 Y-12 F12000
G1 X-16.55 E582.416 F2400
G1 Y-12.5 F12000
G1 X-15.27 E582.496 F2400
G1 Y-13 F12000
G1 X-16.55 E582.576 F2400
G1 Y-13.5 F12000
G1 X-15.27 E582.655 F2400
G1 Y-14 F12000
G1 X-16.55 E582.735 F2400
G1 Y-14.5 F12000
G1 X-15.27 E582.814 F2400
G1 Y-15 F12000
G1 X-16.55 E582.894 F2400
G1 Y-15.5 F12000
G1 X-15.27 E582.973 F2400
G1 Y-16 F12000
G1 X-16.55 E583.053 F2400
G1 Y-16.5 F12000
G1 X-15.27 E583.133 F2400
G1 Y-17 F12000
G1 X-16.55 E583.212 F2400
G1 Y-17.5 F12000
G1 X-15.27 E583.292 F2400
G1 Y-18 F12000
G1 X-16.55 E583.371 F2400
G1 Y-18.5 F12000
G1 X-15.27 E583.451 F2400
G1 Y-19 F12000
G1 X-16.55 E583.53 F2400
G1 Y-19.5 F12000
G1 X-15.27 E583.61 F2400
G1 Y-20 F12000
G1 X-16.55 E583.69 F2400
G1 E581.19 F6000
G1 Z1.7
G1 X-19.25 Y-10 F12000
; TYPE:SUPPORT
G1 Z1.2
G1 E583.69 F6000
G1 X-23.5 E583.955 F2400
G1 Y-7.5 F12000
G1 X-19.25 E584.22 F2400
G1 Y-5 F12000
G1 X-23.5 E584.485 F2400
G1 Y-2.5 F12000
G1 X-19.25 E584.75 F2400
G1 Y0 F12000
G1 X-23.5 E585.015 F2400
G1 Y2.5 F12000
G1 X-19.25 E585.28 F2400
G1 Y5 F12000
G1 X-23.5 E585.545 F2400
G1 Y7.5 F12000
G1 X-19.25 E585.81 F2400
; Layer Change GCode
; LAYER:4
; LAYER_HEIGHT:0.3
; TYPE:FILL
M400
M106 S196
G1 E583.31 F6000
G1 Z1.7
G1 Z2 F12000
G1 X-16.04 Y6.91
G1 X-6.03 Y4.34
; TYPE:WALL-INNER
G1 Z1.5
G1 E585.81 F6000
G1 X-6.64 Y3.7 E585.865 F2400
G1 X-7.18 Y3 E585.92
G1 X-7.65 Y2.25 E585.976
G1 X-8.04 Y1.45 E586.031
G1 X-8.35 Y0.62 E586.086
G1 X-8.57 Y-0.24 E586.141
G1 X-8.71 Y-1.11 E586.197
G1 X-8.75 Y-2 E586.252
G1 X-8.71 Y-2.88 E586.307
G1 X-8.57 Y-3.76 E586.363
G1 X-8.35 Y-4.62 E586.418
G1 X-8.04 Y-5.45 E586.473
G1 X-7.65 Y-6.25 E586.528
G1 X-7.18 Y-7 E586.584
G1 X-6.64 Y-7.7 E586.639
G1 X-6.03 Y-8.34 E586.694
G1 X-5.36 Y-8.92 E586.75
G1 X-4.63 Y-9.43 E586.805
G1 X-3.85 Y-9.86 E586.86
G1 X-3.04 Y-10.21 E586.915
G1 X-2.19 Y-10.47 E586.971
G1 X-1.32 Y-10.65 E587.026
G1 X-0.44 Y-10.74 E587.081
G1 X0.44 E587.136
G1 X1.33 Y-10.65 E587.192
G1 X2.19 Y-10.47 E587.247
G1 X3.04 Y-10.21 E587.302
G1 X3.85 Y-9.86 E587.358
G1 X4.63 Y-9.43 E587.413
G1 X5.36 Y-8.92 E587.468
G1 X6.03 Y-8.34 E587.524
G1 X6.64 Y-7.7 E587.579
G1 X7.18 Y-7 E587.634
G1 X7.65 Y-6.25 E587.689
G1 X8.04 Y-5.45 E587.745
G1 X8.35 Y-4.62 E587.8
G1 X8.57 Y-3.76 E587.855
G1 X8.7 Y-2.95 E587.906
G1 X8.75 Y-2 E587.965
G1 X8.71 Y-1.11 E588.021
G1 X8.57 Y-0.24 E588.076
G1 X8.35 Y0.62 E588.132
G1 X8.04 Y1.45 E588.187
G1 X7.65 Y2.25 E588.242
G1 X7.18 Y3 E588.297
G1 X6.64 Y3.7 E588.353
G1 X6.03 Y4.34 E588.408
G1 X5.36 Y4.92 E588.463
G1 X4.63 Y5.43 E588.518
G1 X3.85 Y5.86 E588.574
G1 X3.04 Y6.21 E588.629
G1 X2.19 Y6.47 E588.684
G1 X1.33 Y6.65 E588.74
G1 X0.44 Y6.74 E588.795
G1 X-0.44 E588.85
G1 X-1.32 Y6.65 E588.905
G1 X-2.19 Y6.47 E588.961
G1 X-3.04 Y6.21 E589.016
G1 X-3.85 Y5.86 E589.071
G1 X-4.63 Y5.43 E589.127
G1 X-5.36 Y4.92 E589.182
G1 X-5.99 Y4.37 E589.234
G1 X-6.03 Y4.34
G1 X-5.68 Y3.98 F12000
G1 X-6.26 Y3.37 E589.286 F2400
G1 X-6.77 Y2.71 E589.338
G1 X-7.21 Y2 E589.39
G1 X-7.58 Y1.25 E589.442
G1 X-7.87 Y0.47 E589.495
G1 X-8.08 Y-0.34 E589.547
G1 X-8.21 Y-1.16 E589.599
G1 X-8.25 Y-2 E589.651
G1 X-8.21 Y-2.83 E589.703
G1 X-8.08 Y-3.66 E589.755
G1 X-7.87 Y-4.47 E589.807
G1 X-7.58 Y-5.25 E589.859
G1 X-7.21 Y-6 E589.912
G1 X-6.77 Y-6.71 E589.964
G1 X-6.26 Y-7.37 E590.016
G1 X-5.68 Y-7.98 E590.068
G1 X-5.05 Y-8.52 E590.12
G1 X-4.36 Y-9 E590.172
G1 X-3.63 Y-9.41 E590.224
G1 X-2.86 Y-9.74 E590.276
G1 X-2.07 Y-9.99 E590.328
G1 X-1.25 Y-10.15 E590.381
G1 X-0.42 Y-10.24 E590.433
G1 X0.42 E590.485
G1 X1.25 Y-10.15 E590.537
G1 X2.07 Y-9.99 E590.589
G1 X2.87 Y-9.74 E590.641
G1 X3.63 Y-9.41 E590.693
G1 X4.36 Y-9 E590.745
G1 X5.05 Y-8.52 E590.797
G1 X5.68 Y-7.98 E590.85
G1 X6.26 Y-7.37 E590.902
G1 X6.77 Y-6.71 E590.954
G1 X7.21 Y-6 E591.006
G1 X7.58 Y-5.25 E591.058
G1 X7.87 Y-4.47 E591.11
G1 X8.08 Y-3.66 E591.162
G1 X8.2 Y-2.9 E591.21
G1 X8.25 Y-2 E591.266
G1 X8.21 Y-1.16 E591.319
G1 X8.08 Y-0.34 E591.371
G1 X7.87 Y0.47 E591.423
G1 X7.58 Y1.25 E591.475
G1 X7.21 Y2 E591.527
G1 X6.77 Y2.71 E591.579
G1 X6.26 Y3.37 E591.631
G1 X5.68 Y3.98 E591.683
G1 X5.05 Y4.52 E591.735
G1 X4.36 Y5 E591.788
G1 X3.63 Y5.41 E591.84
G1 X2.87 Y5.74 E591.892
G1 X2.07 Y5.99 E591.944
G1 X1.25 Y6.16 E591.996
G1 X0.42 Y6.24 E592.048
G1 X-0.42 E592.1
G1 X-1.25 Y6.16 E592.152
G1 X-2.07 Y5.99 E592.204
G1 X-2.86 Y5.74 E592.257
G1 X-3.63 Y5.41 E592.309
G1 X-4.36 Y5 E592.361
G1 X-5.05 Y4.52 E592.413
G1 X-5.65 Y4.01 E592.462
G1 X-5.68 Y3.98
G1 X-5.34 Y3.62 F12000
; TYPE:WALL-OUTER
G1 X-5.88 Y3.05 E592.511 F1800
G1 X-6.36 Y2.43 E592.56
G1 X-6.78 Y1.76 E592.609
G1 X-7.12 Y1.06 E592.658
G1 X-7.39 Y0.32 E592.707
G1 X-7.59 Y-0.44 E592.756
G1 X-7.71 Y-1.22 E592.805
G1 X-7.75 Y-2 E592.854
G1 X-7.71 Y-2.78 E592.902
G1 X-7.59 Y-3.56 E592.951
G1 X-7.39 Y-4.32 E593
G1 X-7.12 Y-5.06 E593.049
G1 X-6.78 Y-5.76 E593.098
G1 X-6.36 Y-6.43 E593.147
G1 X-5.88 Y-7.05 E593.196
G1 X-5.34 Y-7.62 E593.245
G1 X-4.74 Y-8.13 E593.294
G1 X-4.1 Y-8.58 E593.343
G1 X-3.41 Y-8.96 E593.392
G1 X-2.69 Y-9.27 E593.441
G1 X-1.94 Y-9.5 E593.49
G1 X-1.17 Y-9.66 E593.539
G1 X-0.39 Y-9.74 E593.588
G1 X0.39 E593.637
G1 X1.17 Y-9.66 E593.686
G1 X1.94 Y-9.5 E593.735
G1 X2.69 Y-9.27 E593.784
G1 X3.41 Y-8.96 E593.833
G1 X4.1 Y-8.58 E593.882
G1 X4.74 Y-8.13 E593.931
G1 X5.34 Y-7.62 E593.98
G1 X5.88 Y-7.05 E594.028
G1 X6.36 Y-6.43 E594.077
G1 X6.78 Y-5.76 E594.126
G1 X7.12 Y-5.06 E594.175
G1 X7.4 Y-4.32 E594.224
G1 X7.59 Y-3.56 E594.273
G1 X7.7 Y-2.84 E594.318
G1 X7.75 Y-2 E594.371
G1 X7.71 Y-1.22 E594.42
G1 X7.59 Y-0.44 E594.469
G1 X7.4 Y0.32 E594.518
G1 X7.12 Y1.06 E594.567
G1 X6.78 Y1.76 E594.616
G1 X6.36 Y2.43 E594.665
G1 X5.88 Y3.05 E594.714
G1 X5.34 Y3.62 E594.763
G1 X4.74 Y4.13 E594.812
G1 X4.1 Y4.58 E594.861
G1 X3.41 Y4.96 E594.91
G1 X2.69 Y5.27 E594.959
G1 X1.94 Y5.5 E595.008
G1 X1.17 Y5.66 E595.056
G1 X0.39 Y5.74 E595.105
G1 X-0.39 E595.154
G1 X-1.17 Y5.66 E595.203
G1 X-1.94 Y5.5 E595.252
G1 X-2.69 Y5.27 E595.301
G1 X-3.41 Y4.96 E595.35
G1 X-4.1 Y4.58 E595.399
G1 X-4.74 Y4.13 E595.448
G1 X-5.3 Y3.65 E595.494
G1 X-5.34 Y3.62
G1 X-5.88 Y3.05
G1 X-6.36 Y2.43
G1 X-6.78 Y1.76
G1 X-7.06 Y1.18
G1 X-6.03 Y4.34 F12000
G1 E592.994 F6000
G1 Z2
G1 X-17.1 Y16.75 F12000
; TYPE:WALL-INNER
G1 Z1.5
G1 E595.494 F6000
G1 Y12.06 E595.786 F2400
G1 Y7.38 E596.079
G1 Y2.69 E596.371
G1 Y-2 E596.663
G1 Y-6.69 E596.955
G1 Y-11.37 E597.248
G1 Y-16.06 E597.54
G1 Y-20.75 E597.832
G1 X-12.21 E598.137
G1 X-7.33 E598.442
G1 X-2.44 E598.746
G1 X2.44 E599.051
G1 X7.33 E599.356
G1 X12.21 E599.661
G1 X17.1 E599.965
G1 Y-16.06 E600.258
G1 Y-11.37 E600.55
G1 Y-6.69 E600.842
G1 Y-2 E601.134
G1 Y2.69 E601.427
G1 Y7.38 E601.719
G1 Y12.06 E602.011
G1 Y16.75 E602.304
G1 X12.22 E602.608
G1 X7.34 E602.912
G1 X2.46 E603.216
G1 X-2.41 E603.521
G1 X-7.29 E603.825
G1 X-12.17 E604.129
G1 X-17.05 E604.433
G1 X-17.1
G1 X-17.6 Y17.25 F12000
G1 Y12.44 E604.734 F2400
G1 Y7.63 E605.034
G1 Y2.81 E605.334
G1 Y-2 E605.634
G1 Y-6.81 E605.934
G1 Y-11.62 E606.234
G1 Y-16.44 E606.534
G1 Y-21.25 E606.834
G1 X-13.2 E607.109
G1 X-8.8 E607.383
G1 X-4.4 E607.657
G1 X0 E607.932
G1 X4.4 E608.206
G1 X8.8 E608.481
G1 X13.2 E608.755
G1 X17.6 E609.029
G1 Y-16.44 E609.33
G1 Y-11.62 E609.63
G1 Y-6.81 E609.93
G1 Y-2 E610.23
G1 Y2.81 E610.53
G1 Y7.63 E610.83
G1 Y12.44 E611.13
G1 Y17.25 E611.43
G1 X13.21 E611.704
G1 X8.81 E611.978
G1 X4.42 E612.252
G1 X0.02 E612.526
G1 X-4.37 E612.8
G1 X-8.76 E613.074
G1 X-13.16 E613.348
G1 X-17.55 E613.622
G1 X-17.6
G1 X-18.1 Y17.75 F12000
; TYPE:WALL-OUTER
G1 Y12.81 E613.93 F1800
G1 Y7.88 E614.238
G1 Y2.94 E614.546
G1 Y-2 E614.854
G1 Y-6.94 E615.162
G1 Y-11.87 E615.47
G1 Y-16.81 E615.778
G1 Y-21.75 E616.086
G1 X-13.57 E616.368
G1 X-9.05 E616.65
G1 X-4.52 E616.932
G1 X0 E617.214
G1 X4.53 E617.497
G1 X9.05 E617.779
G1 X13.58 E618.061
G1 X18.1 E618.343
G1 Y-16.81 E618.651
G1 Y-11.87 E618.959
G1 Y-6.94 E619.267
G1 Y-2 E619.575
G1 Y2.94 E619.883
G1 Y7.88 E620.191
G1 Y12.81 E620.498
G1 Y17.75 E620.806
G1 X13.58 E621.088
G1 X9.06 E621.37
G1 X4.54 E621.652
G1 X0.02 E621.934
G1 X-4.49 E622.215
G1 X-9.01 E622.497
G1 X-13.53 E622.779
G1 X-18.05 E623.061
G1 X-18.1
G1 Y14.75
G1 X-17.1 Y16.75 F12000
G1 X-15.3 Y16.5
; TYPE:FILL
G1 X-13.35 Y13.12 E623.304 F2400
G1 X-11.39 Y9.74 E623.548
G1 X-9.44 Y6.36 E623.791
G1 X-7.49 Y2.97 E624.035
G1 X-5.65 Y5 F12000
G1 X-9.08 E624.249 F2400
G1 X-12.51 E624.463
G1 X-15.95 E624.677
G1 X-15.95 Y7.62 F12000
G1 X-13.63 Y3.61 E624.967 F2400
G1 X-11.31 Y-0.41 E625.256
G1 X-8.99 Y-4.43 E625.545
G1 X-6.67 Y-8.45 E625.834
G1 X-4.35 Y-12.46 E626.124
G1 X-2.03 Y-16.48 E626.413
G1 X0.29 Y-20.5 E626.702
G1 X-0.29 Y-20.5 F12000
G1 X2.03 Y-16.48 E626.992 F2400
G1 X4.35 Y-12.46 E627.281
G1 X6.67 Y-8.45 E627.57
G1 X8.99 Y-4.43 E627.86
G1 X11.31 Y-0.41 E628.149
G1 X13.63 Y3.61 E628.438
G1 X15.95 Y7.63 E628.727
G1 X15.95 Y10 F12000
G1 X11.39 Y10 E629.012 F2400
G1 X6.84 E629.296
G1 X2.28 E629.58
G1 X-2.28 E629.864
G1 X-6.84 E630.148
G1 X-11.39 E630.433
G1 X-15.95 E630.717
G1 X-15.95 Y12.38 F12000
G1 X-13.57 Y16.5 E631.014 F2400
G1 X-15.95 Y15 F12000
G1 X-11.39 E631.298 F2400
G1 X-6.83 E631.582
G1 X-2.28 E631.866
G1 X2.28 E632.15
G1 X6.84 E632.435
G1 X11.39 E632.719
G1 X15.95 E633.003
G1 X15.3 Y16.5 F12000
G1 X13.35 Y13.12 E633.246 F2400
G1 X11.39 Y9.74 E633.49
G1 X9.44 Y6.36 E633.733
G1 X7.49 Y2.97 E633.977
G1 X5.65 Y5 F12000
G1 X9.08 E634.191 F2400
G1 X12.51 E634.405
G1 X15.95 E634.619
G1 X15.95 Y2.37 F12000
G1 X13.91 Y5.9 E634.874 F2400
G1 X11.87 Y9.44 E635.128
G1 X9.83 Y12.97 E635.382
G1 X7.79 Y16.5 E635.637
G1 X9.53 Y16.5 F12000
G1 X7.55 Y13.08 E635.883 F2400
G1 X5.58 Y9.66 E636.129
G1 X3.6 Y6.24 E636.376
G1 X1.85 Y6.8 F12000
G1 X-0.02 Y10.03 E636.608 F2400
G1 X-1.89 Y13.27 E636.841
G1 X-3.75 Y16.5 E637.074
G1 X-2.02 Y16.5 F12000
G1 X-4.34 Y12.48 E637.364 F2400
G1 X-6.66 Y8.46 E637.653
G1 X-8.98 Y4.44 E637.943
G1 X-11.31 Y0.42 E638.232
G1 X-13.63 Y-3.6 E638.522
G1 X-15.95 Y-7.62 E638.811
G1 X-15.95 Y-10 F12000
G1 X-12 Y-10 E639.057 F2400
G1 X-8.05 E639.304
G1 X-4.11 E639.55
G1 X-5.33 Y-9.24 F12000
G1 X-7.5 Y-12.99 E639.82 F2400
G1 X-9.67 Y-16.74 E640.09
G1 X-11.83 Y-20.5 E640.361
G1 X-11.26 Y-20.5 F12000
G1 X-13.6 Y-16.44 E640.653 F2400
G1 X-15.95 Y-12.38 E640.946
G1 X-15.95 Y-15 F12000
G1 X-11.39 Y-15 E641.23 F2400
G1 X-6.83 E641.514
G1 X-2.28 E641.798
G1 X2.28 E642.082
G1 X6.84 E642.366
G1 X11.39 E642.651
G1 X15.95 E642.935
G1 X15.95 Y-17.62 F12000
G1 X13.48 Y-13.35 E643.242 F2400
G1 X11.01 Y-9.08 E643.55
G1 X8.55 Y-4.8 E643.858
G1 X8.48 Y-5 F12000
G1 X12.21 E644.091 F2400
G1 X15.95 E644.324
G1 X15.95 Y-7.62 F12000
G1 X13.63 Y-3.6 E644.614 F2400
G1 X11.31 Y0.42 E644.903
G1 X8.99 Y4.44 E645.193
G1 X6.66 Y8.46 E645.482
G1 X4.34 Y12.48 E645.772
G1 X2.02 Y16.5 E646.061
G1 X3.75 Y16.5 F12000
G1 X1.89 Y13.26 E646.294 F2400
G1 X0.02 Y10.03 E646.527
G1 X-1.85 Y6.8 E646.76
G1 X-3.6 Y6.24 F12000
G1 X-5.58 Y9.66 E647.006 F2400
G1 X-7.55 Y13.08 E647.253
G1 X-9.53 Y16.5 E647.499
G1 X-7.79 Y16.5 F12000
G1 X-9.83 Y12.97 E647.753 F2400
G1 X-11.87 Y9.44 E648.007
G1 X-13.91 Y5.91 E648.262
G1 X-15.95 Y2.38 E648.516
G1 X-15.95 Y0 F12000
G1 X-12.36 E648.74 F2400
G1 X-8.77 E648.964
G1 X-8.55 Y-4.8 F12000
G1 X-11.01 Y-9.08 E649.272 F2400
G1 X-13.48 Y-13.35 E649.579
G1 X-15.95 Y-17.62 E649.887
G1 X-15.95 Y-20 F12000
G1 X-11.39 E650.171 F2400
G1 X-6.83 E650.455
G1 X-2.28 E650.739
G1 X2.28 E651.024
G1 X6.84 E651.308
G1 X11.39 E651.592
G1 X15.95 E651.876
G1 X11.84 Y-20.5 F12000
G1 X9.67 Y-16.74 E652.146 F2400
G1 X7.5 Y-12.99 E652.417
G1 X5.33 Y-9.24 E652.687
G1 X4.11 Y-10 F12000
G1 X8.05 E652.933 F2400
G1 X12 E653.179
G1 X15.95 E653.426
G1 Y-12.37 F12000
G1 X13.6 Y-16.44 E653.718 F2400
G1 X11.26 Y-20.5 E654.011
G1 X6.06 Y-20.5 F12000
G1 X4.23 Y-17.32 E654.239 F2400
G1 X2.4 Y-14.15 E654.468
G1 X0.56 Y-10.98 E654.696
G1 X-0.56 Y-10.98 F12000
G1 X-2.4 Y-14.15 E654.925 F2400
G1 X-4.23 Y-17.32 E655.153
G1 X-6.06 Y-20.5 E655.382
G1 X-5.49 Y-20.5 F12000
G1 X-7.58 Y-16.87 E655.643 F2400
G1 X-9.67 Y-13.25 E655.904
G1 X-11.76 Y-9.62 E656.165
G1 X-13.86 Y-6 E656.426
G1 X-15.95 Y-2.38 E656.687
G1 X-15.95 Y-5 F12000
G1 X-12.21 E656.92 F2400
G1 X-8.48 E657.153
G1 E654.653 F6000
G1 Z2
G1 X-4.05 Y-9.48 F12000
G1 X-0.38 Y-10.61
G1 X4.05 Y-9.48
G1 X7.64 Y-5.7
G1 X8.77 Y0
G1 Z1.5
G1 E657.153 F6000
G1 X12.36 E657.377 F2400
G1 X15.95 E657.601
G1 X15.95 Y-2.37 F12000
G1 X13.86 Y-6 E657.862 F2400
G1 X11.76 Y-9.62 E658.123
G1 X9.67 Y-13.25 E658.384
G1 X7.58 Y-16.87 E658.645
G1 X5.49 Y-20.5 E658.906
G1 E656.406 F6000
G1 Z2
G1 X8.97 Y-9.54 F12000
G1 X12.46 Y1.42
G1 X15.95 Y12.37
G1 Z1.5
G1 E658.906 F6000
G1 X13.57 Y16.5 E659.203 F2400
G1 X16.5 F12000
; TYPE:FILL
G1 Y11.87 E659.491 F2400
G1 Y7.25 E659.78
G1 Y2.63 E660.068
G1 Y-2 E660.357
G1 Y-6.62 E660.645
G1 Y-11.25 E660.933
G1 Y-15.87 E661.222
G1 Y-20.5 E661.51
G1 X16 Y-20.5 F12000
G1 X16 Y-15.87 E661.799 F2400
G1 Y-11.25 E662.087
G1 Y-6.62 E662.376
G1 Y-2 E662.664
G1 Y2.63 E662.952
G1 Y7.25 E663.241
G1 Y11.87 E663.529
G1 Y16.5 E663.818
G1 E661.318 F6000
G1 Z2
G1 X5.33 F12000
G1 X-5.33
G1 X-16
G1 Z1.5
G1 E663.818 F6000
G1 Y11.87 E664.106 F2400
G1 Y7.25 E664.394
G1 Y2.63 E664.683
G1 Y-2 E664.971
G1 Y-6.62 E665.26
G1 Y-11.25 E665.548
G1 Y-15.87 E665.836
G1 Y-20.5 E666.125
G1 X-16.5 Y-20.5 F12000
G1 Y-15.87 E666.413 F2400
G1 Y-11.25 E666.702
G1 Y-6.62 E666.99
G1 Y-2 E667.278
G1 Y2.63 E667.567
G1 Y7.25 E667.855
G1 Y11.87 E668.144
G1 Y16.5 E668.432
G1 E665.932 F6000
G1 Z2
G1 X-19.35 Y7.5 F12000
; TYPE:SUPPORT
G1 Z1.5
G1 E668.432 F6000
G1 X-23.5 E668.691 F2400
G1 Y5 F12000
G1 X-19.35 E668.95 F2400
G1 Y2.5 F12000
G1 X-23.5 E669.208 F2400
G1 Y0 F12000
G1 X-19.35 E669.467 F2400
G1 Y-2.5 F12000
G1 X-23.5 E669.726 F2400
G1 Y-5 F12000
G1 X-19.35 E669.985 F2400
G1 Y-7.5 F12000
G1 X-23.5 E670.244 F2400
G1 Y-10 F12000
G1 X-19.35 E670.502 F2400
; Layer Change GCode
; LAYER:5
; LAYER_HEIGHT:0.3
; TYPE:FILL
M400
M106 S168
G1 E668.002 F6000
G1 Z2
G1 Z2.3 F12000
G1 X-6.03 Y-8.34
; TYPE:WALL-INNER
G1 Z1.8
G1 E670.502 F6000
G1 X-5.36 Y-8.92 E670.558 F2400
G1 X-4.63 Y-9.43 E670.613
G1 X-3.85 Y-9.86 E670.668
G1 X-3.04 Y-10.21 E670.724
G1 X-2.19 Y-10.47 E670.779
G1 X-1.32 Y-10.65 E670.834
G1 X-0.44 Y-10.74 E670.89
G1 X0.44 E670.945
G1 X1.33 Y-10.65 E671
G1 X2.19 Y-10.47 E671.055
G1 X3.04 Y-10.21 E671.11
G1 X3.85 Y-9.86 E671.166
G1 X4.63 Y-9.43 E671.221
G1 X5.36 Y-8.92 E671.276
G1 X6.03 Y-8.34 E671.332
G1 X6.64 Y-7.7 E671.387
G1 X7.18 Y-7 E671.442
G1 X7.65 Y-6.25 E671.497
G1 X8.04 Y-5.45 E671.553
G1 X8.35 Y-4.62 E671.608
G1 X8.57 Y-3.76 E671.663
G1 X8.69 Y-2.96 E671.714
G1 X8.75 Y-2 E671.774
G1 X8.71 Y-1.11 E671.829
G1 X8.57 Y-0.24 E671.884
G1 X8.35 Y0.62 E671.94
G1 X8.04 Y1.45 E671.995
G1 X7.65 Y2.25 E672.05
G1 X7.18 Y3 E672.106
G1 X6.64 Y3.7 E672.161
G1 X6.03 Y4.34 E672.216
G1 X5.36 Y4.92 E672.271
G1 X4.63 Y5.43 E672.327
G1 X3.85 Y5.86 E672.382
G1 X3.04 Y6.21 E672.437
G1 X2.19 Y6.47 E672.493
G1 X1.33 Y6.65 E672.548
G1 X0.44 Y6.74 E672.603
G1 X-0.44 E672.658
G1 X-1.32 Y6.65 E672.714
G1 X-2.19 Y6.47 E672.769
G1 X-3.04 Y6.21 E672.824
G1 X-3.85 Y5.86 E672.879
G1 X-4.63 Y5.43 E672.935
G1 X-5.36 Y4.92 E672.99
G1 X-6.03 Y4.34 E673.045
G1 X-6.64 Y3.7 E673.101
G1 X-7.18 Y3 E673.156
G1 X-7.65 Y2.25 E673.211
G1 X-8.04 Y1.45 E673.266
G1 X-8.35 Y0.62 E673.322
G1 X-8.57 Y-0.24 E673.377
G1 X-8.71 Y-1.11 E673.432
G1 X-8.75 Y-2 E673.487
G1 X-8.71 Y-2.88 E673.543
G1 X-8.57 Y-3.76 E673.598
G1 X-8.35 Y-4.62 E673.653
G1 X-8.04 Y-5.45 E673.709
G1 X-7.65 Y-6.25 E673.764
G1 X-7.18 Y-7 E673.819
G1 X-6.64 Y-7.7 E673.874
G1 X-6.06 Y-8.31 E673.927
G1 X-6.03 Y-8.34
G1 X-5.68 Y-7.98 F12000
G1 X-5.05 Y-8.52 E673.979 F2400
G1 X-4.36 Y-9 E674.031
G1 X-3.63 Y-9.41 E674.083
G1 X-2.86 Y-9.74 E674.135
G1 X-2.07 Y-9.99 E674.187
G1 X-1.25 Y-10.15 E674.239
G1 X-0.42 Y-10.24 E674.291
G1 X0.42 E674.343
G1 X1.25 Y-10.15 E674.396
G1 X2.07 Y-9.99 E674.448
G1 X2.87 Y-9.74 E674.5
G1 X3.63 Y-9.41 E674.552
G1 X4.36 Y-9 E674.604
G1 X5.05 Y-8.52 E674.656
G1 X5.68 Y-7.98 E674.708
G1 X6.26 Y-7.37 E674.76
G1 X6.77 Y-6.71 E674.813
G1 X7.21 Y-6 E674.865
G1 X7.58 Y-5.25 E674.917
G1 X7.87 Y-4.47 E674.969
G1 X8.08 Y-3.66 E675.021
G1 X8.2 Y-2.91 E675.068
G1 X8.25 Y-2 E675.125
G1 X8.21 Y-1.16 E675.177
G1 X8.08 Y-0.34 E675.229
G1 X7.87 Y0.47 E675.282
G1 X7.58 Y1.25 E675.334
G1 X7.21 Y2 E675.386
G1 X6.77 Y2.71 E675.438
G1 X6.26 Y3.37 E675.49
G1 X5.68 Y3.98 E675.542
G1 X5.05 Y4.52 E675.594
G1 X4.36 Y5 E675.646
G1 X3.63 Y5.41 E675.699
G1 X2.87 Y5.74 E675.751
G1 X2.07 Y5.99 E675.803
G1 X1.25 Y6.16 E675.855
G1 X0.42 Y6.24 E675.907
G1 X-0.42 E675.959
G1 X-1.25 Y6.16 E676.011
G1 X-2.07 Y5.99 E676.063
G1 X-2.86 Y5.74 E676.115
G1 X-3.63 Y5.41 E676.167
G1 X-4.36 Y5 E676.22
G1 X-5.05 Y4.52 E676.272
G1 X-5.68 Y3.98 E676.324
G1 X-6.26 Y3.37 E676.376
G1 X-6.77 Y2.71 E676.428
G1 X-7.21 Y2 E676.48
G1 X-7.58 Y1.25 E676.532
G1 X-7.87 Y0.47 E676.584
G1 X-8.08 Y-0.34 E676.636
G1 X-8.21 Y-1.16 E676.689
G1 X-8.25 Y-2 E676.741
G1 X-8.21 Y-2.83 E676.793
G1 X-8.08 Y-3.66 E676.845
G1 X-7.87 Y-4.47 E676.897
G1 X-7.58 Y-5.25 E676.949
G1 X-7.21 Y-6 E677.001
G1 X-6.77 Y-6.71 E677.053
G1 X-6.26 Y-7.37 E677.106
G1 X-5.72 Y-7.94 E677.155
G1 X-5.68 Y-7.98
G1 X-5.34 Y-7.62 F12000
; TYPE:WALL-OUTER
G1 X-4.74 Y-8.13 E677.204 F1800
G1 X-4.1 Y-8.58 E677.253
G1 X-3.41 Y-8.96 E677.302
G1 X-2.69 Y-9.27 E677.35
G1 X-1.94 Y-9.5 E677.399
G1 X-1.17 Y-9.66 E677.448
G1 X-0.39 Y-9.74 E677.497
G1 X0.39 E677.546
G1 X1.17 Y-9.66 E677.595
G1 X1.94 Y-9.5 E677.644
G1 X2.69 Y-9.27 E677.693
G1 X3.41 Y-8.96 E677.742
G1 X4.1 Y-8.58 E677.791
G1 X4.74 Y-8.13 E677.84
G1 X5.34 Y-7.62 E677.889
G1 X5.88 Y-7.05 E677.938
G1 X6.36 Y-6.43 E677.987
G1 X6.78 Y-5.76 E678.036
G1 X7.12 Y-5.06 E678.085
G1 X7.4 Y-4.32 E678.134
G1 X7.59 Y-3.56 E678.183
G1 X7.7 Y-2.86 E678.227
G1 X7.75 Y-2 E678.28
G1 X7.71 Y-1.22 E678.329
G1 X7.59 Y-0.44 E678.378
G1 X7.4 Y0.32 E678.427
G1 X7.12 Y1.06 E678.476
G1 X6.78 Y1.76 E678.525
G1 X6.36 Y2.43 E678.574
G1 X5.88 Y3.05 E678.623
G1 X5.34 Y3.62 E678.672
G1 X4.74 Y4.13 E678.721
G1 X4.1 Y4.58 E678.77
G1 X3.41 Y4.96 E678.819
G1 X2.69 Y5.27 E678.868
G1 X1.94 Y5.5 E678.917
G1 X1.17 Y5.66 E678.966
G1 X0.39 Y5.74 E679.015
G1 X-0.39 E679.064
G1 X-1.17 Y5.66 E679.113
G1 X-1.94 Y5.5 E679.162
G1 X-2.69 Y5.27 E679.21
G1 X-3.41 Y4.96 E679.259
G1 X-4.1 Y4.58 E679.308
G1 X-4.74 Y4.13 E679.357
G1 X-5.34 Y3.62 E679.406
G1 X-5.88 Y3.05 E679.455
G1 X-6.36 Y2.43 E679.504
G1 X-6.78 Y1.76 E679.553
G1 X-7.12 Y1.06 E679.602
G1 X-7.39 Y0.32 E679.651
G1 X-7.59 Y-0.44 E679.7
G1 X-7.71 Y-1.22 E679.749
G1 X-7.75 Y-2 E679.798
G1 X-7.71 Y-2.78 E679.847
G1 X-7.59 Y-3.56 E679.896
G1 X-7.39 Y-4.32 E679.945
G1 X-7.12 Y-5.06 E679.994
G1 X-6.78 Y-5.76 E680.043
G1 X-6.36 Y-6.43 E680.092
G1 X-5.88 Y-7.05 E680.141
G1 X-5.37 Y-7.58 E680.186
G1 X-5.34 Y-7.62
G1 X-4.74 Y-8.13
G1 X-4.1 Y-8.58
G1 X-3.41 Y-8.96
G1 X-2.82 Y-9.21
G1 X-6.03 Y-8.34 F12000
G1 E677.686 F6000
G1 Z2.3
G1 X-17.4 Y-20.75 F12000
; TYPE:WALL-INNER
G1 Z1.8
G1 E680.186 F6000
G1 X-12.43 E680.497 F2400
G1 X-7.46 E680.807
G1 X-2.49 E681.117
G1 X2.49 E681.427
G1 X7.46 E681.737
G1 X12.43 E682.047
G1 X17.4 E682.357
G1 Y-16.06 E682.649
G1 Y-11.37 E682.941
G1 Y-6.69 E683.234
G1 Y-2 E683.526
G1 Y2.69 E683.818
G1 Y7.38 E684.111
G1 Y12.06 E684.403
G1 Y16.75 E684.695
G1 X12.43 E685.005
G1 X7.46 E685.315
G1 X2.49 E685.625
G1 X-2.49 E685.935
G1 X-7.46 E686.245
G1 X-12.43 E686.555
G1 X-17.4 E686.865
G1 Y12.07 E687.157
G1 Y7.39 E687.449
G1 Y2.71 E687.741
G1 Y-1.98 E688.033
G1 Y-6.66 E688.325
G1 Y-11.34 E688.617
G1 Y-16.02 E688.909
G1 Y-20.7 E689.201
G1 X-17.4 Y-20.75
G1 X-17.9 Y-21.25 F12000
G1 X-13.42 E689.48 F2400
G1 X-8.95 E689.759
G1 X-4.47 E690.038
G1 X0 E690.317
G1 X4.48 E690.596
G1 X8.95 E690.875
G1 X13.43 E691.154
G1 X17.9 E691.433
G1 Y-16.44 E691.733
G1 Y-11.62 E692.034
G1 Y-6.81 E692.334
G1 Y-2 E692.634
G1 Y2.81 E692.934
G1 Y7.63 E693.234
G1 Y12.44 E693.534
G1 Y17.25 E693.834
G1 X13.43 E694.113
G1 X8.95 E694.392
G1 X4.48 E694.671
G1 X0 E694.951
G1 X-4.47 E695.23
G1 X-8.95 E695.509
G1 X-13.42 E695.788
G1 X-17.9 E696.067
G1 Y12.44 E696.367
G1 Y7.64 E696.666
G1 Y2.83 E696.966
G1 Y-1.98 E697.266
G1 Y-6.78 E697.565
G1 Y-11.59 E697.865
G1 Y-16.39 E698.165
G1 Y-21.2 E698.465
G1 X-17.9 Y-21.25
G1 X-18.4 Y-21.75 F12000
; TYPE:WALL-OUTER
G1 X-13.8 E698.752 F1800
G1 X-9.2 E699.038
G1 X-4.6 E699.325
G1 X0 E699.612
G1 X4.6 E699.899
G1 X9.2 E700.186
G1 X13.8 E700.473
G1 X18.4 E700.76
G1 Y-16.81 E701.067
G1 Y-11.87 E701.375
G1 Y-6.94 E701.683
G1 Y-2 E701.991
G1 Y2.94 E702.299
G1 Y7.88 E702.607
G1 Y12.81 E702.915
G1 Y17.75 E703.223
G1 X13.8 E703.51
G1 X9.2 E703.797
G1 X4.6 E704.083
G1 X0 E704.37
G1 X-4.6 E704.657
G1 X-9.2 E704.944
G1 X-13.8 E705.231
G1 X-18.4 E705.518
G1 Y12.82 E705.825
G1 Y7.89 E706.133
G1 Y2.96 E706.44
G1 Y-1.98 E706.748
G1 Y-6.91 E707.055
G1 Y-11.84 E707.363
G1 Y-16.77 E707.67
G1 Y-21.7 E707.978
G1 X-18.4 Y-21.75
G1 X-15.4
G1 X-17.4 Y-20.75 F12000
G1 X-16.25 Y-20
; TYPE:FILL
G1 X-11.61 E708.267 F2400
G1 X-6.96 E708.557
G1 X-2.32 E708.846
G1 X2.32 E709.136
G1 X6.96 E709.425
G1 X11.61 E709.715
G1 X16.25 E710.004
G1 X16.25 Y-18.14 F12000
G1 X14.32 Y-14.81 E710.245 F2400
G1 X12.4 Y-11.47 E710.485
G1 X10.47 Y-8.14 E710.725
G1 X8.55 Y-4.8 E710.965
G1 X8.48 Y-5 F12000
G1 X12.36 E711.208 F2400
G1 X16.25 E711.45
G1 X16.25 Y-8.14 F12000
G1 X13.88 Y-4.04 E711.746 F2400
G1 X11.51 Y0.07 E712.041
G1 X9.14 Y4.18 E712.337
G1 X6.76 Y8.28 E712.633
G1 X4.39 Y12.39 E712.929
G1 X2.02 Y16.5 E713.224
G1 X3.75 F12000
G1 X1.89 Y13.27 E713.457 F2400
G1 X0.02 Y10.03 E713.69
G1 X-1.85 Y6.8 E713.923
G1 X-3.6 Y6.24 F12000
G1 X-5.58 Y9.66 E714.17 F2400
G1 X-7.55 Y13.08 E714.416
G1 X-9.53 Y16.5 E714.662
G1 X-7.79 Y16.5 F12000
G1 X-9.91 Y12.84 E714.926 F2400
G1 X-12.02 Y9.18 E715.19
G1 X-14.13 Y5.52 E715.453
G1 X-16.25 Y1.86 E715.717
G1 X-16.25 Y0 F12000
G1 X-12.51 E715.95 F2400
G1 X-8.77 E716.183
G1 X-7.49 Y2.97 F12000
G1 X-9.44 Y6.36 E716.427 F2400
G1 X-11.39 Y9.74 E716.67
G1 X-13.35 Y13.12 E716.914
G1 X-15.3 Y16.5 E717.157
G1 X-13.57 Y16.5 F12000
G1 X-14.91 Y14.18 E717.324 F2400
G1 X-16.25 Y11.86 E717.492
G1 X-16.25 Y10 F12000
G1 X-11.61 E717.781 F2400
G1 X-6.96 E718.071
G1 X-2.32 E718.36
G1 X2.32 E718.65
G1 X6.96 E718.939
G1 X11.61 E719.229
G1 X16.25 E719.518
G1 X16.25 Y8.14 F12000
G1 X13.89 Y4.05 E719.813 F2400
G1 X11.52 Y-0.04 E720.108
G1 X9.16 Y-4.13 E720.402
G1 X6.8 Y-8.22 E720.697
G1 X4.44 Y-12.31 E720.992
G1 X2.08 Y-16.41 E721.286
G1 X-0.29 Y-20.5 E721.581
G1 X0.29 Y-20.5 F12000
G1 X-2.08 Y-16.41 E721.875 F2400
G1 X-4.44 Y-12.31 E722.17
G1 X-6.8 Y-8.22 E722.465
G1 X-9.16 Y-4.13 E722.759
G1 X-11.52 Y-0.04 E723.054
G1 X-13.89 Y4.05 E723.349
G1 X-16.25 Y8.14 E723.643
G1 X-16.25 Y5 F12000
G1 X-12.71 E723.864 F2400
G1 X-9.18 E724.084
G1 X-5.65 E724.305
G1 X0.54 Y6.62 F12000
G1 X1.85 Y6.8
G1 X-0.02 Y10.03 E724.537 F2400
G1 X-1.89 Y13.27 E724.77
G1 X-3.75 Y16.5 E725.003
G1 X-2.02 Y16.5 F12000
G1 X-4.39 Y12.39 E725.299 F2400
G1 X-6.76 Y8.29 E725.595
G1 X-9.13 Y4.18 E725.89
G1 X-11.51 Y0.07 E726.186
G1 X-13.88 Y-4.04 E726.482
G1 X-16.25 Y-8.14 E726.778
G1 X-16.25 Y-10 F12000
G1 X-12.2 Y-10 E727.03 F2400
G1 X-8.15 E727.282
G1 X-4.11 E727.535
G1 X-5.33 Y-9.24 F12000
G1 X-7.5 Y-12.99 E727.805 F2400
G1 X-9.67 Y-16.74 E728.076
G1 X-11.83 Y-20.5 E728.346
G1 X-11.26 Y-20.5 F12000
G1 X-13.75 Y-16.18 E728.657 F2400
G1 X-16.25 Y-11.86 E728.968
G1 X-16.25 Y-15 F12000
G1 X-11.61 Y-15 E729.258 F2400
G1 X-6.96 E729.547
G1 X-2.32 E729.837
G1 X2.32 E730.126
G1 X6.96 E730.416
G1 X11.61 E730.705
G1 X16.25 E730.995
G1 X16.25 Y-11.86 F12000
G1 X13.75 Y-16.18 E731.306 F2400
G1 X11.26 Y-20.5 E731.617
G1 X11.84 Y-20.5 F12000
G1 X9.67 Y-16.74 E731.887 F2400
G1 X7.5 Y-12.99 E732.158
G1 X5.33 Y-9.24 E732.428
G1 X4.11 Y-10 F12000
G1 X8.15 E732.68 F2400
G1 X12.2 E732.933
G1 X16.25 E733.185
G1 X16.25 Y-1.86 F12000
G1 X14.1 Y-5.58 E733.454 F2400
G1 X11.94 Y-9.31 E733.722
G1 X9.79 Y-13.04 E733.991
G1 X7.64 Y-16.77 E734.259
G1 X5.49 Y-20.5 E734.528
G1 X6.06 Y-20.5 F12000
G1 X4.23 Y-17.32 E734.756 F2400
G1 X2.4 Y-14.15 E734.985
G1 X0.56 Y-10.98 E735.213
G1 X-0.56 Y-10.98 F12000
G1 X-2.4 Y-14.15 E735.442 F2400
G1 X-4.23 Y-17.32 E735.671
G1 X-6.06 Y-20.5 E735.899
G1 X-5.49 Y-20.5 F12000
G1 X-7.64 Y-16.77 E736.168 F2400
G1 X-9.79 Y-13.04 E736.436
G1 X-11.94 Y-9.31 E736.705
G1 X-14.1 Y-5.58 E736.973
G1 X-16.25 Y-1.86 E737.242
G1 X-16.25 Y-5 F12000
G1 X-12.36 E737.484 F2400
G1 X-8.48 E737.726
G1 X-8.55 Y-4.8 F12000
G1 X-10.47 Y-8.14 E737.966 F2400
G1 X-12.4 Y-11.47 E738.207
G1 X-14.32 Y-14.81 E738.447
G1 X-16.25 Y-18.14 E738.687
G1 E736.187 F6000
G1 Z2.3
G1 X-0.19 Y-10.79 F12000
G1 X4.05 Y-9.48
G1 X7.31 Y-6.39
G1 X8.61 Y-1.42
G1 X8.77 Y0
G1 Z1.8
G1 E738.687 F6000
G1 X12.51 E738.92 F2400
G1 X16.25 E739.153
G1 X16.25 Y1.86 F12000
G1 X14.14 Y5.52 E739.417 F2400
G1 X12.02 Y9.18 E739.681
G1 X9.91 Y12.84 E739.944
G1 X7.79 Y16.5 E740.208
G1 X9.53 Y16.5 F12000
G1 X7.55 Y13.08 E740.454 F2400
G1 X5.58 Y9.66 E740.701
G1 X3.6 Y6.24 E740.947
G1 X5.65 Y5 F12000
G1 X9.18 E741.167 F2400
G1 X12.71 E741.388
G1 X16.25 E741.608
G1 X16.25 Y11.86 F12000
G1 X14.91 Y14.18 E741.775 F2400
G1 X13.57 Y16.5 E741.943
G1 X15.3 Y16.5 F12000
G1 X13.35 Y13.12 E742.186 F2400
G1 X11.39 Y9.74 E742.429
G1 X9.44 Y6.36 E742.673
G1 X7.49 Y2.97 E742.916
G1 X16.25 Y15 F12000
G1 X11.61 Y15 E743.206 F2400
G1 X6.96 E743.495
G1 X2.32 E743.785
G1 X-2.32 E744.075
G1 X-6.96 E744.364
G1 X-11.61 E744.654
G1 X-16.25 E744.943
G1 X-16.25 Y16 F12000
; TYPE:FILL
G1 X-17.15 E744.999 F2400
G1 Y15.5 F12000
G1 X-16.25 E745.055 F2400
G1 Y15 F12000
G1 X-17.15 E745.112 F2400
G1 Y14.5 F12000
G1 X-16.25 E745.168 F2400
G1 Y14 F12000
G1 X-17.15 E745.224 F2400
G1 Y13.5 F12000
G1 X-16.25 E745.28 F2400
G1 Y13 F12000
G1 X-17.15 E745.336 F2400
G1 Y12.5 F12000
G1 X-16.25 E745.392 F2400
G1 Y12 F12000
G1 X-17.15 E745.448 F2400
G1 Y11.5 F12000
G1 X-16.25 E745.505 F2400
G1 Y11 F12000
G1 X-17.15 E745.561 F2400
G1 Y10.5 F12000
G1 X-16.25 E745.617 F2400
G1 Y10 F12000
G1 X-17.15 E745.673 F2400
G1 Y9.5 F12000
G1 X-16.25 E745.729 F2400
G1 Y9 F12000
G1 X-17.15 E745.785 F2400
G1 Y8.5 F12000
G1 X-16.25 E745.841 F2400
G1 Y8 F12000
G1 X-17.15 E745.897 F2400
G1 Y7.5 F12000
G1 X-16.25 E745.954 F2400
G1 Y7 F12000
G1 X-17.15 E746.01 F2400
G1 Y6.5 F12000
G1 X-16.25 E746.066 F2400
G1 Y6 F12000
G1 X-17.15 E746.122 F2400
G1 Y5.5 F12000
G1 X-16.25 E746.178 F2400
G1 Y5 F12000
G1 X-17.15 E746.234 F2400
G1 Y4.5 F12000
G1 X-16.25 E746.29 F2400
G1 Y4 F12000
G1 X-17.15 E746.346 F2400
G1 Y3.5 F12000
G1 X-16.25 E746.403 F2400
G1 Y3 F12000
G1 X-17.15 E746.459 F2400
G1 Y2.5 F12000
G1 X-16.25 E746.515 F2400
G1 Y2 F12000
G1 X-17.15 E746.571 F2400
G1 Y1.5 F12000
G1 X-16.25 E746.627 F2400
G1 Y1 F12000
G1 X-17.15 E746.683 F2400
G1 Y0.5 F12000
G1 X-16.25 E746.739 F2400
G1 Y0 F12000
G1 X-17.15 E746.795 F2400
G1 Y-0.5 F12000
G1 X-16.25 E746.852 F2400
G1 Y-1 F12000
G1 X-17.15 E746.908 F2400
G1 Y-1.5 F12000
G1 X-16.25 E746.964 F2400
G1 X-16.25 Y-2 F12000
G1 X-17.15 E747.02 F2400
G1 Y-2.5 F12000
G1 X-16.25 E747.076 F2400
G1 Y-3 F12000
G1 X-17.15 E747.132 F2400
G1 Y-3.5 F12000
G1 X-16.25 E747.189 F2400
G1 Y-4 F12000
G1 X-17.15 E747.245 F2400
G1 Y-4.5 F12000
G1 X-16.25 E747.301 F2400
G1 Y-5 F12000
G1 X-17.15 E747.357 F2400
G1 Y-5.5 F12000
G1 X-16.25 E747.413 F2400
G1 Y-6 F12000
G1 X-17.15 E747.47 F2400
G1 Y-6.5 F12000
G1 X-16.25 E747.526 F2400
G1 Y-7 F12000
G1 X-17.15 E747.582 F2400
G1 Y-7.5 F12000
G1 X-16.25 E747.638 F2400
G1 Y-8 F12000
G1 X-17.15 E747.694 F2400
G1 Y-8.5 F12000
G1 X-16.25 E747.75 F2400
G1 Y-9 F12000
G1 X-17.15 E747.807 F2400
G1 Y-9.5 F12000
G1 X-16.25 E747.863 F2400
G1 Y-10 F12000
G1 X-17.15 E747.919 F2400
G1 Y-10.5 F12000
G1 X-16.25 E747.975 F2400
G1 Y-11 F12000
G1 X-17.15 E748.031 F2400
G1 Y-11.5 F12000
G1 X-16.25 E748.088 F2400
G1 Y-12 F12000
G1 X-17.15 E748.144 F2400
G1 Y-12.5 F12000
G1 X-16.25 E748.2 F2400
G1 Y-13 F12000
G1 X-17.15 E748.256 F2400
G1 Y-13.5 F12000
G1 X-16.25 E748.312 F2400
G1 Y-14 F12000
G1 X-17.15 E748.369 F2400
G1 Y-14.5 F12000
G1 X-16.25 E748.425 F2400
G1 Y-15 F12000
G1 X-17.15 E748.481 F2400
G1 Y-15.5 F12000
G1 X-16.25 E748.537 F2400
G1 Y-16 F12000
G1 X-17.15 E748.593 F2400
G1 Y-16.5 F12000
G1 X-16.25 E748.649 F2400
G1 Y-17 F12000
G1 X-17.15 E748.706 F2400
G1 Y-17.5 F12000
G1 X-16.25 E748.762 F2400
G1 Y-18 F12000
G1 X-17.15 E748.818 F2400
G1 Y-18.5 F12000
G1 X-16.25 E748.874 F2400
G1 Y-19 F12000
G1 X-17.15 E748.93 F2400
G1 Y-19.5 F12000
G1 X-16.25 E748.987 F2400
G1 Y-20 F12000
G1 X-17.15 E749.043 F2400
G1 E746.543 F6000
G1 Z2.3
G1 X-8.73 Y-2.42 F12000
G1 X-7.64 Y1.71
G1 X-5.13 Y4.46
G1 X-2.2 Y6.24
G1 X1.25 Y7.37
G1 X16.25 Y16
G1 Z1.8
G1 E749.043 F6000
G1 X17.15 E749.099 F2400
G1 Y15.5 F12000
G1 X16.25 E749.155 F2400
G1 Y15 F12000
G1 X17.15 E749.211 F2400
G1 Y14.5 F12000
G1 X16.25 E749.268 F2400
G1 Y14 F12000
G1 X17.15 E749.324 F2400
G1 Y13.5 F12000
G1 X16.25 E749.38 F2400
G1 Y13 F12000
G1 X17.15 E749.436 F2400
G1 Y12.5 F12000
G1 X16.25 E749.492 F2400
G1 Y12 F12000
G1 X17.15 E749.548 F2400
G1 Y11.5 F12000
G1 X16.25 E749.605 F2400
G1 Y11 F12000
G1 X17.15 E749.661 F2400
G1 Y10.5 F12000
G1 X16.25 E749.717 F2400
G1 Y10 F12000
G1 X17.15 E749.773 F2400
G1 Y9.5 F12000
G1 X16.25 E749.829 F2400
G1 Y9 F12000
G1 X17.15 E749.886 F2400
G1 Y8.5 F12000
G1 X16.25 E749.942 F2400
G1 Y8 F12000
G1 X17.15 E749.998 F2400
G1 Y7.5 F12000
G1 X16.25 E750.054 F2400
G1 Y7 F12000
G1 X17.15 E750.11 F2400
G1 Y6.5 F12000
G1 X16.25 E750.167 F2400
G1 Y6 F12000
G1 X17.15 E750.223 F2400
G1 Y5.5 F12000
G1 X16.25 E750.279 F2400
G1 Y5 F12000
G1 X17.15 E750.335 F2400
G1 Y4.5 F12000
G1 X16.25 E750.391 F2400
G1 Y4 F12000
G1 X17.15 E750.448 F2400
G1 Y3.5 F12000
G1 X16.25 E750.504 F2400
G1 Y3 F12000
G1 X17.15 E750.56 F2400
G1 Y2.5 F12000
G1 X16.25 E750.616 F2400
G1 Y2 F12000
G1 X17.15 E750.672 F2400
G1 Y1.5 F12000
G1 X16.25 E750.728 F2400
G1 Y1 F12000
G1 X17.15 E750.785 F2400
G1 Y0.5 F12000
G1 X16.25 E750.841 F2400
G1 Y0 F12000
G1 X17.15 E750.897 F2400
G1 Y-0.5 F12000
G1 X16.25 E750.953 F2400
G1 Y-1 F12000
G1 X17.15 E751.009 F2400
G1 Y-1.5 F12000
G1 X16.25 E751.066 F2400
G1 X16.25 Y-2 F12000
G1 X17.15 E751.122 F2400
G1 Y-2.5 F12000
G1 X16.25 E751.178 F2400
G1 Y-3 F12000
G1 X17.15 E751.234 F2400
G1 Y-3.5 F12000
G1 X16.25 E751.29 F2400
G1 Y-4 F12000
G1 X17.15 E751.346 F2400
G1 Y-4.5 F12000
G1 X16.25 E751.402 F2400
G1 Y-5 F12000
G1 X17.15 E751.458 F2400
G1 Y-5.5 F12000
G1 X16.25 E751.515 F2400
G1 Y-6 F12000
G1 X17.15 E751.571 F2400
G1 Y-6.5 F12000
G1 X16.25 E751.627 F2400
G1 Y-7 F12000
G1 X17.15 E751.683 F2400
G1 Y-7.5 F12000
G1 X16.25 E751.739 F2400
G1 Y-8 F12000
G1 X17.15 E751.795 F2400
G1 Y-8.5 F12000
G1 X16.25 E751.851 F2400
G1 Y-9 F12000
G1 X17.15 E751.907 F2400
G1 Y-9.5 F12000
G1 X16.25 E751.964 F2400
G1 Y-10 F12000
G1 X17.15 E752.02 F2400
G1 Y-10.5 F12000
G1 X16.25 E752.076 F2400
G1 Y-11 F12000
G1 X17.15 E752.132 F2400
G1 Y-11.5 F12000
G1 X16.25 E752.188 F2400
G1 Y-12 F12000
G1 X17.15 E752.244 F2400
G1 Y-12.5 F12000
G1 X16.25 E752.3 F2400
G1 Y-13 F12000
G1 X17.15 E752.357 F2400
G1 Y-13.5 F12000
G1 X16.25 E752.413 F2400
G1 Y-14 F12000
G1 X17.15 E752.469 F2400
G1 Y-14.5 F12000
G1 X16.25 E752.525 F2400
G1 X16.25 Y-15 F12000
G1 X17.15 E752.581 F2400
G1 Y-15.5 F12000
G1 X16.25 E752.637 F2400
G1 Y-16 F12000
G1 X17.15 E752.693 F2400
G1 Y-16.5 F12000
G1 X16.25 E752.75 F2400
G1 Y-17 F12000
G1 X17.15 E752.806 F2400
G1 Y-17.5 F12000
G1 X16.25 E752.862 F2400
G1 Y-18 F12000
G1 X17.15 E752.918 F2400
G1 Y-18.5 F12000
G1 X16.25 E752.974 F2400
G1 Y-19 F12000
G1 X17.15 E753.031 F2400
G1 Y-19.5 F12000
G1 X16.25 E753.087 F2400
G1 Y-20 F12000
G1 X17.15 E753.143 F2400
G1 E750.643 F6000
G1 Z2.3
G1 X4.88 Y-16.67 F12000
G1 X-7.38 Y-13.33
G1 X-19.65 Y-10
; TYPE:SUPPORT
G1 Z1.8
G1 E753.143 F6000
G1 X-23.5 Y-10 E753.383 F2400
G1 Y-7.5 F12000
G1 X-19.65 E753.623 F2400
G1 Y-5 F12000
G1 X-23.5 E753.863 F2400
G1 Y-2.5 F12000
G1 X-19.65 E754.103 F2400
G1 Y0 F12000
G1 X-23.5 E754.343 F2400
G1 Y2.5 F12000
G1 X-19.65 E754.584 F2400
G1 Y5 F12000
G1 X-23.5 E754.824 F2400
G1 Y7.5 F12000
G1 X-19.65 E755.064 F2400
; Layer Change GCode
; LAYER:6
; LAYER_HEIGHT:0.3
; TYPE:FILL
M400
M106 S201
G1 E752.564 F6000
G1 Z2.3
G1 Z2.6 F12000
G1 X-15.15 Y6.57
G1 X-6.03 Y4.34
; TYPE:WALL-INNER
G1 Z2.1
G1 E755.064 F6000
G1 X-6.64 Y3.7 E755.119 F2400
G1 X-7.18 Y3 E755.174
G1 X-7.65 Y2.25 E755.23
G1 X-8.04 Y1.45 E755.285
G1 X-8.35 Y0.62 E755.34
G1 X-8.57 Y-0.24 E755.395
G1 X-8.71 Y-1.11 E755.451
G1 X-8.75 Y-2 E755.506
G1 X-8.71 Y-2.88 E755.561
G1 X-8.57 Y-3.76 E755.616
G1 X-8.35 Y-4.62 E755.672
G1 X-8.04 Y-5.45 E755.727
G1 X-7.65 Y-6.25 E755.782
G1 X-7.18 Y-7 E755.838
G1 X-6.64 Y-7.7 E755.893
G1 X-6.03 Y-8.34 E755.948
G1 X-5.36 Y-8.92 E756.003
G1 X-4.63 Y-9.43 E756.059
G1 X-3.85 Y-9.86 E756.114
G1 X-3.04 Y-10.21 E756.169
G1 X-2.19 Y-10.47 E756.225
G1 X-1.32 Y-10.65 E756.28
G1 X-0.44 Y-10.74 E756.335
G1 X0.44 E756.39
G1 X1.33 Y-10.65 E756.446
G1 X2.19 Y-10.47 E756.501
G1 X3.04 Y-10.21 E756.556
G1 X3.85 Y-9.86 E756.611
G1 X4.63 Y-9.43 E756.667
G1 X5.36 Y-8.92 E756.722
G1 X6.03 Y-8.34 E756.777
G1 X6.64 Y-7.7 E756.833
G1 X7.18 Y-7 E756.888
G1 X7.65 Y-6.25 E756.943
G1 X8.04 Y-5.45 E756.998
G1 X8.35 Y-4.62 E757.054
G1 X8.57 Y-3.76 E757.109
G1 X8.69 Y-2.98 E757.159
G1 X8.75 Y-2.01 E757.219
G1 X8.71 Y-1.11 E757.275
G1 X8.57 Y-0.24 E757.33
G1 X8.35 Y0.62 E757.385
G1 X8.04 Y1.45 E757.441
G1 X7.65 Y2.25 E757.496
G1 X7.18 Y3 E757.551
G1 X6.64 Y3.7 E757.606
G1 X6.03 Y4.34 E757.662
G1 X5.36 Y4.92 E757.717
G1 X4.63 Y5.43 E757.772
G1 X3.85 Y5.86 E757.828
G1 X3.04 Y6.21 E757.883
G1 X2.19 Y6.47 E757.938
G1 X1.33 Y6.65 E757.993
G1 X0.44 Y6.74 E758.049
G1 X-0.44 E758.104
G1 X-1.32 Y6.65 E758.159
G1 X-2.19 Y6.47 E758.214
G1 X-3.04 Y6.21 E758.27
G1 X-3.85 Y5.86 E758.325
G1 X-4.63 Y5.43 E758.38
G1 X-5.36 Y4.92 E758.436
G1 X-5.99 Y4.37 E758.488
G1 X-6.03 Y4.34
G1 X-5.68 Y3.98 F12000
G1 X-6.26 Y3.37 E758.54 F2400
G1 X-6.77 Y2.71 E758.592
G1 X-7.21 Y2 E758.644
G1 X-7.58 Y1.25 E758.696
G1 X-7.87 Y0.47 E758.748
G1 X-8.08 Y-0.34 E758.8
G1 X-8.21 Y-1.16 E758.853
G1 X-8.25 Y-2 E758.905
G1 X-8.21 Y-2.83 E758.957
G1 X-8.08 Y-3.66 E759.009
G1 X-7.87 Y-4.47 E759.061
G1 X-7.58 Y-5.25 E759.113
G1 X-7.21 Y-6 E759.165
G1 X-6.77 Y-6.71 E759.217
G1 X-6.26 Y-7.37 E759.27
G1 X-5.68 Y-7.98 E759.322
G1 X-5.05 Y-8.52 E759.374
G1 X-4.36 Y-9 E759.426
G1 X-3.63 Y-9.41 E759.478
G1 X-2.86 Y-9.74 E759.53
G1 X-2.07 Y-9.99 E759.582
G1 X-1.25 Y-10.15 E759.634
G1 X-0.42 Y-10.24 E759.687
G1 X0.42 E759.738
G1 X1.25 Y-10.15 E759.791
G1 X2.07 Y-9.99 E759.843
G1 X2.87 Y-9.74 E759.895
G1 X3.63 Y-9.41 E759.947
G1 X4.36 Y-9 E759.999
G1 X5.05 Y-8.52 E760.051
G1 X5.68 Y-7.98 E760.103
G1 X6.26 Y-7.37 E760.155
G1 X6.77 Y-6.71 E760.208
G1 X7.21 Y-6 E760.26
G1 X7.58 Y-5.25 E760.312
G1 X7.87 Y-4.47 E760.364
G1 X8.08 Y-3.66 E760.416
G1 X8.19 Y-2.92 E760.463
G1 X8.25 Y-2 E760.52
G1 X8.21 Y-1.16 E760.572
G1 X8.08 Y-0.34 E760.625
G1 X7.87 Y0.47 E760.677
G1 X7.58 Y1.25 E760.729
G1 X7.21 Y2 E760.781
G1 X6.77 Y2.71 E760.833
G1 X6.26 Y3.37 E760.885
G1 X5.68 Y3.98 E760.937
G1 X5.05 Y4.52 E760.989
G1 X4.36 Y5 E761.041
G1 X3.63 Y5.41 E761.094
G1 X2.87 Y5.74 E761.146
G1 X2.07 Y5.99 E761.198
G1 X1.25 Y6.16 E761.25
G1 X0.42 Y6.24 E761.302
G1 X-0.42 E761.354
G1 X-1.25 Y6.16 E761.406
G1 X-2.07 Y5.99 E761.458
G1 X-2.86 Y5.74 E761.51
G1 X-3.63 Y5.41 E761.563
G1 X-4.36 Y5 E761.615
G1 X-5.05 Y4.52 E761.667
G1 X-5.65 Y4.01 E761.716
G1 X-5.68 Y3.98
G1 X-5.34 Y3.62 F12000
; TYPE:WALL-OUTER
G1 X-5.88 Y3.05 E761.765 F1800
G1 X-6.36 Y2.43 E761.814
G1 X-6.78 Y1.76 E761.863
G1 X-7.12 Y1.06 E761.912
G1 X-7.39 Y0.32 E761.961
G1 X-7.59 Y-0.44 E762.009
G1 X-7.71 Y-1.22 E762.058
G1 X-7.75 Y-2 E762.107
G1 X-7.71 Y-2.78 E762.156
G1 X-7.59 Y-3.56 E762.205
G1 X-7.39 Y-4.32 E762.254
G1 X-7.12 Y-5.06 E762.303
G1 X-6.78 Y-5.76 E762.352
G1 X-6.36 Y-6.43 E762.401
G1 X-5.88 Y-7.05 E762.45
G1 X-5.34 Y-7.62 E762.499
G1 X-4.74 Y-8.13 E762.548
G1 X-4.1 Y-8.58 E762.597
