; Generated with MatterSlice 2.22.04
; filamentDiameter = 1.75
; extrusionWidth = 0.5
; firstLayerExtrusionWidth = 0.65
; layerThickness = 0.2
; firstLayerThickness = 0.3
; automatic settings before start_gcode
G21 ; set units to millimeters
M107 ; fan off
M140 S60 ; start heating the bed
M104 T0 S210 ; start heating T0
M109 T0 S210 ; wait for T0
T0 ; set the active extruder to 0
; settings from start_gcode
G28
; automatic settings after start_gcode
M190 S60 ; wait for bed temperature to be reached
M109 T0 S210 ; Finish heating T0
T0 ; set the active extruder to 0
G90 ; use absolute coordinates
G92 E0 ; reset the expected extruder position
M82 ; use absolute distance for extrusion
; Layer count: 100
; Layer Change GCode
; LAYER:0
; LAYER_HEIGHT:0.3
; TYPE:FILL
M400
M107
G1 X14.52 Y16.38 Z0.8 F12000
; TYPE:WALL-INNER
G1 Z0.3
G1 F6000
G1 X-14.82 E2.378 F900
G1 Y-18.37 E5.195
G1 X14.52 E7.573
G1 Y16.31 E10.385
G1 Y16.38
G1 X15.82 Y17.68 F12000
; TYPE:WALL-OUTER
G1 X-16.12 E12.974 F900
G1 Y-19.67 E16.002
G1 X15.82 E18.591
G1 Y17.61 E21.614
G1 Y17.68
G1 X12.82
G1 X15.17 Y17.03 F12000
; TYPE:WALL-INNER
G1 X-15.47 E24.098 F900
G1 Y-19.02 E27.02
G1 X15.17 E29.504
G1 Y16.96 E32.421
G1 Y17.03
G1 E29.921 F6000
G1 Z0.8
G1 X14.44 Y16.29 F12000
G1 X5.21 Y5.92
G1 Z0.3
G1 E32.421 F6000
G1 X4.48 Y6.42 E32.493 F900
G1 X3.71 Y6.85 E32.565
G1 X2.9 Y7.2 E32.637
G1 X2.05 Y7.47 E32.709
G1 X1.18 Y7.65 E32.78
G1 X0.3 Y7.74 E32.852
G1 X-0.58 Y7.74 E32.924
G1 X-1.47 Y7.65 E32.996
G1 X-2.33 Y7.47 E33.068
G1 X-3.18 Y7.21 E33.139
G1 X-4 Y6.86 E33.211
G1 X-4.77 Y6.43 E33.283
G1 X-5.5 Y5.93 E33.355
G1 X-6.17 Y5.35 E33.427
G1 X-6.79 Y4.71 E33.499
G1 X-7.33 Y4 E33.571
G1 X-7.8 Y3.25 E33.643
G1 X-8.19 Y2.46 E33.715
G1 X-8.5 Y1.63 E33.786
G1 X-8.72 Y0.77 E33.858
G1 X-8.86 Y-0.11 E33.93
G1 X-8.9 Y-0.99 E34.002
G1 X-8.86 Y-1.88 E34.074
G1 X-8.72 Y-2.75 E34.146
G1 X-8.5 Y-3.61 E34.218
G1 X-8.19 Y-4.44 E34.289
G1 X-7.8 Y-5.24 E34.361
G1 X-7.34 Y-5.99 E34.433
G1 X-6.79 Y-6.69 E34.505
G1 X-6.18 Y-7.34 E34.577
G1 X-5.51 Y-7.92 E34.649
G1 X-4.78 Y-8.42 E34.721
G1 X-4.01 Y-8.85 E34.792
G1 X-3.2 Y-9.2 E34.864
G1 X-2.35 Y-9.47 E34.936
G1 X-1.48 Y-9.65 E35.008
G1 X-0.6 Y-9.74 E35.08
G1 X0.28 Y-9.74 E35.152
G1 X1.17 Y-9.65 E35.223
G1 X2.04 Y-9.47 E35.295
G1 X2.88 Y-9.21 E35.367
G1 X3.7 Y-8.86 E35.439
G1 X4.47 Y-8.43 E35.511
G1 X5.2 Y-7.93 E35.583
G1 X5.87 Y-7.35 E35.655
G1 X6.49 Y-6.71 E35.727
G1 X7.03 Y-6 E35.799
G1 X7.5 Y-5.25 E35.87
G1 X7.89 Y-4.46 E35.942
G1 X8.2 Y-3.63 E36.014
G1 X8.42 Y-2.77 E36.086
G1 X8.56 Y-1.89 E36.158
G1 X8.6 Y-1.01 E36.23
G1 X8.56 Y-0.12 E36.302
G1 X8.42 Y0.75 E36.373
G1 X8.2 Y1.61 E36.445
G1 X7.89 Y2.44 E36.517
G1 X7.51 Y3.24 E36.589
G1 X7.04 Y3.99 E36.661
G1 X6.5 Y4.7 E36.733
G1 X5.88 Y5.34 E36.805
G1 X5.26 Y5.87 E36.871
G1 X5.21 Y5.92
G1 X4.42 Y4.89 F12000
; TYPE:WALL-OUTER
G1 X3.8 Y5.32 E36.932 F900
G1 X3.14 Y5.69 E36.993
G1 X2.44 Y5.98 E37.055
G1 X1.72 Y6.21 E37.116
G1 X0.98 Y6.36 E37.177
G1 X0.23 Y6.44 E37.238
G1 X-0.52 Y6.44 E37.299
G1 X-1.27 Y6.37 E37.36
G1 X-2.01 Y6.21 E37.422
G1 X-2.73 Y5.99 E37.483
G1 X-3.42 Y5.69 E37.544
G1 X-4.08 Y5.33 E37.605
G1 X-4.7 Y4.9 E37.666
G1 X-5.28 Y4.4 E37.728
G1 X-5.8 Y3.86 E37.789
G1 X-6.26 Y3.26 E37.85
G1 X-6.66 Y2.62 E37.911
G1 X-6.99 Y1.94 E37.972
G1 X-7.26 Y1.24 E38.034
G1 X-7.45 Y0.51 E38.095
G1 X-7.56 Y-0.24 E38.156
G1 X-7.6 Y-0.99 E38.217
G1 X-7.56 Y-1.75 E38.278
G1 X-7.45 Y-2.49 E38.339
G1 X-7.26 Y-3.22 E38.4
G1 X-7 Y-3.93 E38.462
G1 X-6.67 Y-4.61 E38.523
G1 X-6.27 Y-5.25 E38.584
G1 X-5.81 Y-5.85 E38.645
G1 X-5.29 Y-6.39 E38.706
G1 X-4.71 Y-6.89 E38.768
G1 X-4.09 Y-7.32 E38.829
G1 X-3.44 Y-7.68 E38.89
G1 X-2.74 Y-7.98 E38.951
G1 X-2.02 Y-8.21 E39.012
G1 X-1.28 Y-8.36 E39.074
G1 X-0.53 Y-8.44 E39.135
G1 X0.22 Y-8.44 E39.196
G1 X0.97 Y-8.36 E39.257
G1 X1.71 Y-8.21 E39.318
G1 X2.43 Y-7.99 E39.379
G1 X3.12 Y-7.69 E39.44
G1 X3.78 Y-7.32 E39.502
G1 X4.41 Y-6.9 E39.563
G1 X4.98 Y-6.4 E39.624
G1 X5.5 Y-5.86 E39.685
G1 X5.96 Y-5.26 E39.746
G1 X6.36 Y-4.62 E39.808
G1 X6.69 Y-3.94 E39.869
G1 X6.96 Y-3.24 E39.93
G1 X7.15 Y-2.51 E39.991
G1 X7.26 Y-1.76 E40.052
G1 X7.3 Y-1.01 E40.113
G1 X7.26 Y-0.25 E40.175
G1 X7.15 Y0.49 E40.236
G1 X6.96 Y1.22 E40.297
G1 X6.7 Y1.93 E40.358
G1 X6.37 Y2.61 E40.419
G1 X5.97 Y3.25 E40.48
G1 X5.51 Y3.85 E40.542
G1 X4.99 Y4.4 E40.603
G1 X4.46 Y4.85 E40.659
G1 X4.42 Y4.89
G1 X3.8 Y5.32
G1 X3.14 Y5.69
G1 X2.44 Y5.98
G1 X1.74 Y6.2
G1 X4.81 Y5.4 F12000
; TYPE:WALL-INNER
G1 X4.14 Y5.87 E40.725 F900
G1 X3.42 Y6.27 E40.792
G1 X2.67 Y6.59 E40.858
G1 X1.89 Y6.84 E40.925
G1 X1.08 Y7.01 E40.991
G1 X0.27 Y7.09 E41.058
G1 X-0.55 Y7.09 E41.124
G1 X-1.37 Y7.01 E41.191
G1 X-2.17 Y6.84 E41.257
G1 X-2.96 Y6.6 E41.324
G1 X-3.71 Y6.28 E41.39
G1 X-4.43 Y5.88 E41.457
G1 X-5.1 Y5.41 E41.523
G1 X-5.72 Y4.88 E41.59
G1 X-6.29 Y4.28 E41.656
G1 X-6.79 Y3.63 E41.723
G1 X-7.23 Y2.94 E41.789
G1 X-7.59 Y2.2 E41.856
G1 X-7.88 Y1.43 E41.923
G1 X-8.08 Y0.64 E41.989
G1 X-8.21 Y-0.17 E42.055
G1 X-8.25 Y-0.99 E42.122
G1 X-8.21 Y-1.81 E42.188
G1 X-8.09 Y-2.62 E42.255
G1 X-7.88 Y-3.42 E42.321
G1 X-7.6 Y-4.19 E42.388
G1 X-7.24 Y-4.92 E42.455
G1 X-6.8 Y-5.62 E42.521
G1 X-6.3 Y-6.27 E42.588
G1 X-5.73 Y-6.87 E42.654
G1 X-5.11 Y-7.4 E42.721
G1 X-4.44 Y-7.87 E42.787
G1 X-3.72 Y-8.27 E42.854
G1 X-2.97 Y-8.59 E42.92
G1 X-2.19 Y-8.84 E42.987
G1 X-1.38 Y-9.01 E43.053
G1 X-0.57 Y-9.09 E43.12
G1 X0.25 Y-9.09 E43.186
G1 X1.07 Y-9.01 E43.253
G1 X1.87 Y-8.84 E43.319
G1 X2.66 Y-8.6 E43.386
G1 X3.41 Y-8.28 E43.452
G1 X4.13 Y-7.88 E43.519
G1 X4.8 Y-7.41 E43.585
G1 X5.43 Y-6.88 E43.652
G1 X5.99 Y-6.28 E43.718
G1 X6.49 Y-5.63 E43.785
G1 X6.93 Y-4.94 E43.851
G1 X7.29 Y-4.2 E43.918
G1 X7.58 Y-3.43 E43.985
G1 X7.78 Y-2.64 E44.051
G1 X7.91 Y-1.83 E44.118
G1 X7.95 Y-1.01 E44.184
G1 X7.91 Y-0.19 E44.251
G1 X7.79 Y0.62 E44.317
G1 X7.58 Y1.42 E44.384
G1 X7.3 Y2.19 E44.45
G1 X6.94 Y2.92 E44.517
G1 X6.5 Y3.62 E44.583
G1 X6 Y4.27 E44.65
G1 X5.44 Y4.87 E44.716
G1 X4.86 Y5.36 E44.777
G1 X4.81 Y5.4
G1 E42.277 F6000
G1 Z0.8
G1 X13.65 Y15.97 F12000
; TYPE:BOTTOM-FILL
G1 Z0.3
G1 E44.777 F6000
G1 X13.65 Y-17.97 E47.53 F900
G1 X13 F12000
G1 X13 Y15.97 E50.282 F900
G1 X12.35 F12000
G1 X12.35 Y-17.97 E53.034 F900
G1 X11.7 F12000
G1 X11.7 Y15.97 E55.786 F900
G1 X11.05 F12000
G1 X11.05 Y-17.97 E58.539 F900
G1 X10.4 F12000
G1 X10.4 Y15.97 E61.291 F900
G1 X9.75 F12000
G1 X9.75 Y-17.97 E64.043 F900
G1 X9.1 F12000
G1 X9.1 Y15.97 E66.795 F900
G1 E64.295 F6000
G1 Z0.8
G1 X8.45 Y-4.1 F12000
G1 Z0.3
G1 E66.795 F6000
G1 X8.45 Y-17.97 E67.92 F900
G1 X7.8 F12000
G1 Y-5.52 E68.93 F900
G1 X7.15 Y-6.5 F12000
G1 Y-17.97 E69.86 F900
G1 X6.5 F12000
G1 Y-7.27 E70.728 F900
G1 X5.85 Y-7.89 F12000
G1 Y-17.97 E71.545 F900
G1 X5.2 F12000
G1 Y-8.41 E72.321 F900
G1 X4.55 Y-8.84 F12000
G1 Y-17.97 E73.061 F900
G1 X3.9 F12000
G1 Y-9.2 E73.772 F900
G1 X3.25 Y-9.49 F12000
G1 Y-17.97 E74.46 F900
G1 X2.6 F12000
G1 Y-9.71 E75.13 F900
G1 X1.95 Y-9.9 F12000
G1 Y-17.97 E75.784 F900
G1 X1.3 F12000
G1 Y-10.03 E76.428 F900
G1 X0.65 Y-10.1 F12000
G1 Y-17.97 E77.066 F900
G1 X0 F12000
G1 Y-10.14 E77.702 F900
G1 X-0.65 Y-10.14 F12000
G1 Y-17.97 E78.337 F900
G1 X-1.3 F12000
G1 Y-10.07 E78.978 F900
G1 X-1.95 Y-9.96 F12000
G1 Y-17.97 E79.628 F900
G1 X-2.6 F12000
G1 Y-9.81 E80.29 F900
G1 X-3.25 Y-9.6 F12000
G1 Y-17.97 E80.968 F900
G1 X-3.9 F12000
G1 Y-9.33 E81.669 F900
G1 X-4.55 Y-9.01 F12000
G1 Y-17.97 E82.396 F900
G1 X-5.2 F12000
G1 Y-8.62 E83.154 F900
G1 X-5.85 Y-8.15 F12000
G1 Y-17.97 E83.951 F900
G1 X-6.5 F12000
G1 Y-7.58 E84.793 F900
G1 X-7.15 Y-6.89 F12000
G1 Y-17.97 E85.692 F900
G1 X-7.8 F12000
G1 Y-6 E86.663 F900
G1 X-8.45 Y-4.83 F12000
G1 Y-17.97 E87.729 F900
G1 X-9.1 F12000
G1 Y-2.89 E88.952 F900
G1 E86.452 F6000
G1 Z0.8
G1 X-7.8 Y2.55 F12000
G1 X-4.25 Y6.38
G1 X-0.5 Y7.58
G1 X4.35 Y5.77
G1 X8.45 Y2.1
G1 Z0.3
G1 E88.952 F6000
G1 Y15.97 E90.077 F900
G1 X7.8 F12000
G1 Y3.52 E91.086 F900
G1 X7.15 Y4.5 F12000
G1 Y15.98 E92.017 F900
G1 X6.5 F12000
G1 Y5.27 E92.885 F900
G1 X5.85 Y5.89 F12000
G1 Y15.98 E93.702 F900
G1 X5.2 F12000
G1 Y6.41 E94.477 F900
G1 X4.55 Y6.84 F12000
G1 Y15.98 E95.218 F900
G1 X3.9 F12000
G1 Y7.21 E95.929 F900
G1 X3.25 Y7.49 F12000
G1 Y15.98 E96.617 F900
G1 X2.6 F12000
G1 Y7.72 E97.287 F900
G1 X1.95 Y7.9 F12000
G1 Y15.98 E97.941 F900
G1 X1.3 F12000
G1 Y8.03 E98.585 F900
G1 X0.65 Y8.11 F12000
G1 Y15.98 E99.223 F900
G1 X0 F12000
G1 Y8.14 E99.859 F900
G1 X-0.65 Y8.14 F12000
G1 Y15.97 E100.494 F900
G1 X-1.3 F12000
G1 Y8.07 E101.135 F900
G1 X-1.95 Y7.96 F12000
G1 Y15.97 E101.785 F900
G1 X-2.6 F12000
G1 Y7.81 E102.447 F900
G1 X-3.25 Y7.61 F12000
G1 Y15.97 E103.125 F900
G1 X-3.9 F12000
G1 Y7.34 E103.825 F900
G1 X-4.55 Y7.01 F12000
G1 Y15.97 E104.552 F900
G1 X-5.2 F12000
G1 Y6.62 E105.311 F900
G1 X-5.85 Y6.15 F12000
G1 Y15.97 E106.107 F900
G1 X-6.5 F12000
G1 Y5.58 E106.95 F900
G1 X-7.15 Y4.89 F12000
G1 Y15.97 E107.848 F900
G1 X-7.8 F12000
G1 Y4 E108.819 F900
G1 X-8.45 Y2.83 F12000
G1 X-8.45 Y15.97 E109.885 F900
G1 X-9.1 F12000
G1 X-9.1 Y0.89 E111.107 F900
G1 E108.607 F6000
G1 Z0.8
G1 X-9.75 Y15.97 F12000
G1 Z0.3
G1 E111.107 F6000
G1 X-9.75 Y-17.97 E113.86 F900
G1 X-10.4 F12000
G1 X-10.4 Y15.97 E116.612 F900
G1 X-11.05 F12000
G1 X-11.05 Y-17.97 E119.364 F900
G1 X-11.7 F12000
G1 X-11.7 Y15.97 E122.116 F900
G1 X-12.35 F12000
G1 X-12.35 Y-17.97 E124.868 F900
G1 X-13 F12000
G1 X-13 Y15.97 E127.621 F900
G1 X-13.65 F12000
G1 X-13.65 Y-17.97 E130.373 F900
G1 X-14.3 F12000
G1 X-14.3 Y15.97 E133.125 F900
G1 E130.625 F6000
G1 Z0.8
G1 X-18.15 Y7.62 F12000
; TYPE:SUPPORT
G1 Z0.3
G1 E133.125 F6000
G1 X-22.75 E133.412 F900
G1 Y-9.62 E134.487
G1 X-18.15 E134.774
G1 Y7.62 E135.849
G1 X-18.4 Y7 F12000
G1 X-22.5 E136.105 F900
G1 Y6.5 F12000
G1 X-18.4 E136.36 F900
G1 Y6 F12000
G1 X-22.5 E136.616 F900
G1 Y5.5 F12000
G1 X-18.4 E136.872 F900
G1 Y5 F12000
G1 X-22.5 E137.127 F900
G1 Y4.5 F12000
G1 X-18.4 E137.383 F900
G1 Y4 F12000
G1 X-22.5 E137.639 F900
G1 Y3.5 F12000
G1 X-18.4 E137.894 F900
G1 Y3 F12000
G1 X-22.5 E138.15 F900
G1 Y2.5 F12000
G1 X-18.4 E138.406 F900
G1 Y2 F12000
G1 X-22.5 E138.662 F900
G1 Y1.5 F12000
G1 X-18.4 E138.917 F900
G1 Y1 F12000
G1 X-22.5 E139.173 F900
G1 Y0.5 F12000
G1 X-18.4 E139.429 F900
G1 Y0 F12000
G1 X-22.5 E139.684 F900
G1 Y-0.5 F12000
G1 X-18.4 E139.94 F900
G1 Y-1 F12000
G1 X-22.5 E140.196 F900
G1 Y-1.5 F12000
G1 X-18.4 E140.451 F900
G1 Y-2 F12000
G1 X-22.5 E140.707 F900
G1 Y-2.5 F12000
G1 X-18.4 E140.963 F900
G1 Y-3 F12000
G1 X-22.5 E141.218 F900
G1 Y-3.5 F12000
G1 X-18.4 E141.474 F900
G1 Y-4 F12000
G1 X-22.5 E141.73 F900
G1 Y-4.5 F12000
G1 X-18.4 E141.985 F900
G1 Y-5 F12000
G1 X-22.5 E142.241 F900
G1 Y-5.5 F12000
G1 X-18.4 E142.497 F900
G1 Y-6 F12000
G1 X-22.5 E142.753 F900
G1 Y-6.5 F12000
G1 X-18.4 E143.008 F900
G1 Y-7 F12000
G1 X-22.5 E143.264 F900
G1 Y-7.5 F12000
G1 X-18.4 E143.52 F900
G1 Y-8 F12000
G1 X-22.5 E143.775 F900
G1 Y-8.5 F12000
G1 X-18.4 E144.031 F900
G1 Y-9 F12000
G1 X-22.5 E144.287 F900
; Layer Change GCode
; LAYER:1
; LAYER_HEIGHT:0.2
; TYPE:FILL
G1 E141.787 F6000
G1 Z0.8
G1 Z1 F12000
G1 X-14.37 Y-8.59
G1 X-5.92 Y-7.07
; TYPE:WALL-INNER
G1 Z0.5
G1 E144.287 F6000
G1 X-5.28 Y-7.62 E144.322 F2400
G1 X-4.58 Y-8.11 E144.357
G1 X-3.84 Y-8.52 E144.392
G1 X-3.06 Y-8.85 E144.428
G1 X-2.25 Y-9.11 E144.463
G1 X-1.42 Y-9.28 E144.498
G1 X-0.57 Y-9.36 E144.534
G1 X0.27 E144.569
G1 X1.12 Y-9.28 E144.604
G1 X1.95 Y-9.11 E144.639
G1 X2.76 Y-8.85 E144.675
G1 X3.54 Y-8.52 E144.71
G1 X4.28 Y-8.11 E144.745
G1 X4.98 Y-7.62 E144.78
G1 X5.62 Y-7.07 E144.816
G1 X6.21 Y-6.46 E144.851
G1 X6.73 Y-5.78 E144.886
G1 X7.17 Y-5.06 E144.922
G1 X7.55 Y-4.3 E144.957
G1 X7.84 Y-3.51 E144.992
G1 X8.06 Y-2.69 E145.027
G1 X8.18 Y-1.86 E145.062
G1 X8.23 Y-1 E145.098
G1 X8.18 Y-0.15 E145.133
G1 X8.06 Y0.69 E145.168
G1 X7.84 Y1.51 E145.204
G1 X7.55 Y2.3 E145.239
G1 X7.17 Y3.06 E145.274
G1 X6.73 Y3.78 E145.309
G1 X6.21 Y4.46 E145.345
G1 X5.62 Y5.07 E145.38
G1 X4.98 Y5.62 E145.415
G1 X4.28 Y6.11 E145.451
G1 X3.54 Y6.52 E145.486
G1 X2.76 Y6.86 E145.521
G1 X1.95 Y7.11 E145.557
G1 X1.12 Y7.28 E145.592
G1 X0.27 Y7.37 E145.627
G1 X-0.57 E145.662
G1 X-1.42 Y7.28 E145.697
G1 X-2.25 Y7.11 E145.733
G1 X-3.06 Y6.86 E145.768
G1 X-3.84 Y6.52 E145.803
G1 X-4.58 Y6.11 E145.839
G1 X-5.28 Y5.62 E145.874
G1 X-5.92 Y5.07 E145.909
G1 X-6.51 Y4.46 E145.944
G1 X-7.02 Y3.78 E145.98
G1 X-7.47 Y3.06 E146.015
G1 X-7.85 Y2.3 E146.05
G1 X-8.14 Y1.51 E146.086
G1 X-8.35 Y0.69 E146.121
G1 X-8.48 Y-0.15 E146.156
G1 X-8.53 Y-1 E146.191
G1 X-8.48 Y-1.85 E146.227
G1 X-8.35 Y-2.69 E146.262
G1 X-8.14 Y-3.51 E146.297
G1 X-7.85 Y-4.3 E146.332
G1 X-7.47 Y-5.06 E146.368
G1 X-7.02 Y-5.78 E146.403
G1 X-6.51 Y-6.46 E146.438
G1 X-5.95 Y-7.03 E146.471
G1 X-5.92 Y-7.07
G1 X-5.57 Y-6.71 F12000
G1 X-4.97 Y-7.23 E146.505 F2400
G1 X-4.31 Y-7.68 E146.538
G1 X-3.62 Y-8.07 E146.571
G1 X-2.88 Y-8.38 E146.604
G1 X-2.12 Y-8.62 E146.637
G1 X-1.34 Y-8.78 E146.67
G1 X-0.55 Y-8.86 E146.704
G1 X0.25 E146.737
G1 X1.04 Y-8.78 E146.77
G1 X1.82 Y-8.62 E146.803
G1 X2.59 Y-8.38 E146.836
G1 X3.32 Y-8.07 E146.869
G1 X4.02 Y-7.68 E146.903
G1 X4.67 Y-7.23 E146.936
G1 X5.28 Y-6.71 E146.969
G1 X5.83 Y-6.13 E147.002
G1 X6.31 Y-5.5 E147.035
G1 X6.74 Y-4.82 E147.068
G1 X7.09 Y-4.1 E147.102
G1 X7.36 Y-3.36 E147.135
G1 X7.57 Y-2.58 E147.168
G1 X7.68 Y-1.81 E147.2
G1 X7.73 Y-1 E147.234
G1 X7.69 Y-0.2 E147.267
G1 X7.57 Y0.59 E147.301
G1 X7.36 Y1.36 E147.334
G1 X7.09 Y2.11 E147.367
G1 X6.74 Y2.82 E147.4
G1 X6.31 Y3.5 E147.433
G1 X5.83 Y4.13 E147.466
G1 X5.28 Y4.71 E147.5
G1 X4.67 Y5.23 E147.533
G1 X4.02 Y5.68 E147.566
G1 X3.32 Y6.07 E147.599
G1 X2.59 Y6.39 E147.632
G1 X1.82 Y6.62 E147.665
G1 X1.04 Y6.78 E147.699
G1 X0.25 Y6.87 E147.732
G1 X-0.55 E147.765
G1 X-1.34 Y6.78 E147.798
G1 X-2.12 Y6.62 E147.831
G1 X-2.88 Y6.39 E147.864
G1 X-3.62 Y6.07 E147.897
G1 X-4.31 Y5.68 E147.931
G1 X-4.97 Y5.23 E147.964
G1 X-5.57 Y4.71 E147.997
G1 X-6.13 Y4.13 E148.03
G1 X-6.61 Y3.5 E148.063
G1 X-7.04 Y2.82 E148.097
G1 X-7.39 Y2.11 E148.13
G1 X-7.66 Y1.36 E148.163
G1 X-7.86 Y0.59 E148.196
G1 X-7.98 Y-0.2 E148.229
G1 X-8.02 Y-1 E148.262
G1 X-7.98 Y-1.8 E148.295
G1 X-7.86 Y-2.58 E148.329
G1 X-7.66 Y-3.36 E148.362
G1 X-7.39 Y-4.1 E148.395
G1 X-7.04 Y-4.82 E148.428
G1 X-6.61 Y-5.5 E148.461
G1 X-6.13 Y-6.13 E148.494
G1 X-5.61 Y-6.67 E148.526
G1 X-5.57 Y-6.71
G1 X-5.23 Y-6.34 F12000
; TYPE:WALL-OUTER
G1 X-4.66 Y-6.83 E148.557 F1800
G1 X-4.05 Y-7.26 E148.588
G1 X-3.4 Y-7.62 E148.619
G1 X-2.71 Y-7.92 E148.65
G1 X-2 Y-8.14 E148.681
G1 X-1.27 Y-8.29 E148.712
G1 X-0.52 Y-8.36 E148.743
G1 X0.22 E148.774
G1 X0.97 Y-8.29 E148.805
G1 X1.7 Y-8.14 E148.836
G1 X2.41 Y-7.92 E148.867
G1 X3.1 Y-7.62 E148.898
G1 X3.75 Y-7.26 E148.929
G1 X4.36 Y-6.83 E148.96
G1 X4.93 Y-6.34 E148.991
G1 X5.45 Y-5.8 E149.022
G1 X5.9 Y-5.21 E149.054
G1 X6.3 Y-4.58 E149.085
G1 X6.63 Y-3.91 E149.116
G1 X6.89 Y-3.21 E149.147
G1 X7.07 Y-2.48 E149.178
G1 X7.18 Y-1.76 E149.208
G1 X7.23 Y-1 E149.24
G1 X7.19 Y-0.25 E149.271
G1 X7.07 Y0.48 E149.302
G1 X6.89 Y1.21 E149.333
G1 X6.63 Y1.91 E149.364
G1 X6.3 Y2.58 E149.395
G1 X5.9 Y3.21 E149.426
G1 X5.45 Y3.8 E149.457
G1 X4.93 Y4.35 E149.488
G1 X4.36 Y4.83 E149.519
G1 X3.75 Y5.26 E149.55
G1 X3.1 Y5.62 E149.581
G1 X2.41 Y5.92 E149.613
G1 X1.7 Y6.14 E149.644
G1 X0.97 Y6.29 E149.675
G1 X0.22 Y6.37 E149.706
G1 X-0.52 E149.737
G1 X-1.27 Y6.29 E149.768
G1 X-2 Y6.14 E149.799
G1 X-2.71 Y5.92 E149.83
G1 X-3.4 Y5.62 E149.861
G1 X-4.05 Y5.26 E149.892
G1 X-4.66 Y4.83 E149.923
G1 X-5.23 Y4.35 E149.954
G1 X-5.75 Y3.8 E149.985
G1 X-6.2 Y3.21 E150.016
G1 X-6.6 Y2.58 E150.047
G1 X-6.93 Y1.91 E150.078
G1 X-7.19 Y1.21 E150.109
G1 X-7.37 Y0.48 E150.14
G1 X-7.49 Y-0.25 E150.171
G1 X-7.52 Y-1 E150.203
G1 X-7.49 Y-1.74 E150.234
G1 X-7.37 Y-2.48 E150.265
G1 X-7.19 Y-3.21 E150.296
G1 X-6.93 Y-3.91 E150.327
G1 X-6.6 Y-4.58 E150.358
G1 X-6.2 Y-5.21 E150.389
G1 X-5.75 Y-5.8 E150.42
G1 X-5.26 Y-6.31 E150.449
G1 X-5.23 Y-6.34
G1 X-4.66 Y-6.83
G1 X-4.05 Y-7.26
G1 X-3.4 Y-7.62
G1 X-2.71 Y-7.92
G1 X-5.92 Y-7.07 F12000
G1 E147.949 F6000
G1 Z1
G1 X-15.43 Y-18.75 F12000
; TYPE:WALL-INNER
G1 Z0.5
G1 E150.449 F6000
G1 X-11.06 E150.63 F2400
G1 X-6.7 E150.812
G1 X-2.33 E150.993
G1 X2.03 E151.175
G1 X6.4 E151.356
G1 X10.76 E151.538
G1 X15.13 E151.719
G1 Y-14.31 E151.904
G1 Y-9.87 E152.088
G1 Y-5.44 E152.273
G1 Y-1 E152.457
G1 Y3.44 E152.642
G1 Y7.88 E152.826
G1 Y12.31 E153.011
G1 Y16.75 E153.195
G1 X10.76 E153.377
G1 X6.4 E153.558
G1 X2.03 E153.74
G1 X-2.33 E153.921
G1 X-6.7 E154.103
G1 X-11.06 E154.284
G1 X-15.43 E154.466
G1 Y12.32 E154.65
G1 Y7.89 E154.834
G1 Y3.46 E155.018
G1 Y-0.98 E155.203
G1 Y-5.41 E155.387
G1 Y-9.84 E155.571
G1 Y-14.27 E155.755
G1 Y-18.7 E155.94
G1 X-15.43 Y-18.75
G1 X-15.93 Y-19.25 F12000
G1 X-11.42 E156.127 F2400
G1 X-6.91 E156.314
G1 X-2.4 E156.502
G1 X2.11 E156.689
G1 X6.61 E156.877
G1 X11.12 E157.064
G1 X15.63 E157.252
G1 Y-14.69 E157.441
G1 Y-10.12 E157.631
G1 Y-5.56 E157.821
G1 Y-1 E158.01
G1 Y3.56 E158.2
G1 Y8.13 E158.39
G1 Y12.69 E158.579
G1 Y17.25 E158.769
G1 X11.12 E158.956
G1 X6.61 E159.144
G1 X2.11 E159.331
G1 X-2.4 E159.519
G1 X-6.91 E159.706
G1 X-11.42 E159.894
G1 X-15.93 E160.081
G1 Y12.69 E160.271
G1 Y8.14 E160.46
G1 Y3.58 E160.649
G1 Y-0.98 E160.839
G1 Y-5.53 E161.028
G1 Y-10.09 E161.218
G1 Y-14.64 E161.407
G1 Y-19.2 E161.597
G1 X-15.93 Y-19.25
G1 X-16.43 Y-19.75 F12000
; TYPE:WALL-OUTER
G1 X-11.78 E161.79 F1800
G1 X-7.13 E161.983
G1 X-2.47 E162.177
G1 X2.18 E162.37
G1 X6.83 E162.563
G1 X11.48 E162.757
G1 X16.13 E162.95
G1 Y-15.06 E163.145
G1 Y-10.37 E163.34
G1 Y-5.69 E163.535
G1 Y-1 E163.73
G1 Y3.69 E163.924
G1 Y8.38 E164.119
G1 Y13.06 E164.314
G1 Y17.75 E164.509
G1 X11.48 E164.703
G1 X6.83 E164.896
G1 X2.18 E165.089
G1 X-2.47 E165.283
G1 X-7.13 E165.476
G1 X-11.78 E165.669
G1 X-16.43 E165.863
G1 Y13.07 E166.057
G1 Y8.39 E166.252
G1 Y3.71 E166.447
G1 Y-0.98 E166.641
G1 Y-5.66 E166.836
G1 Y-10.34 E167.03
G1 Y-15.02 E167.225
G1 Y-19.7 E167.42
G1 X-16.43 Y-19.75
G1 X-13.43
G1 X-15.43 Y-18.75 F12000
G1 X-15.18 Y-18
; TYPE:FILL
G1 X-10.88 E167.598 F2400
G1 X-6.59 E167.777
G1 X-2.3 E167.955
G1 X2 E168.134
G1 X6.29 E168.312
G1 X10.59 E168.491
G1 X14.88 E168.669
G1 X14.88 Y-17.5 F12000
G1 X10.59 E168.848 F2400
G1 X6.29 E169.026
G1 X2 E169.205
G1 X-2.3 E169.383
G1 X-6.59 E169.562
G1 X-10.88 E169.74
G1 X-15.18 E169.919
G1 X-15.18 Y-17 F12000
G1 X-10.88 E170.097 F2400
G1 X-6.59 E170.276
G1 X-2.3 E170.454
G1 X2 E170.633
G1 X6.29 E170.811
G1 X10.59 E170.99
G1 X14.88 E171.168
G1 X14.88 Y-16.5 F12000
G1 X10.59 E171.347 F2400
G1 X6.29 E171.526
G1 X2 E171.704
G1 X-2.3 E171.883
G1 X-6.59 E172.061
G1 X-10.88 E172.24
G1 X-15.18 E172.418
G1 X-15.18 Y-16 F12000
G1 X-10.88 Y-16 E172.597 F2400
G1 X-6.59 E172.775
G1 X-2.3 E172.954
G1 X2 E173.132
G1 X6.29 E173.311
G1 X10.59 E173.489
G1 X14.88 E173.668
G1 X14.88 Y-15.5 F12000
G1 X10.59 E173.846 F2400
G1 X6.29 E174.025
G1 X2 E174.203
G1 X-2.3 E174.382
G1 X-6.59 E174.56
G1 X-10.88 E174.739
G1 X-15.18 E174.917
G1 X-15.18 Y-15 F12000
G1 X-10.88 Y-15 E175.096 F2400
G1 X-6.59 E175.274
G1 X-2.3 E175.453
G1 X2 E175.631
G1 X6.29 E175.81
G1 X10.59 E175.988
G1 X14.88 E176.167
G1 Y-14.5 F12000
G1 X10.59 E176.345 F2400
G1 X6.29 E176.524
G1 X2 E176.702
G1 X-2.3 E176.881
G1 X-6.59 E177.059
G1 X-10.88 E177.238
G1 X-15.18 E177.416
G1 X-15.18 Y-14 F12000
G1 X-10.88 Y-14 E177.595 F2400
G1 X-6.59 E177.773
G1 X-2.3 E177.952
G1 X2 E178.131
G1 X6.29 E178.309
G1 X10.59 E178.488
G1 X14.88 E178.666
G1 Y-13.5 F12000
G1 X10.59 E178.845 F2400
G1 X6.29 E179.023
G1 X2 E179.202
G1 X-2.3 E179.38
G1 X-6.59 E179.559
G1 X-10.88 E179.737
G1 X-15.18 E179.916
G1 X-15.18 Y-13 F12000
G1 X-10.88 Y-13 E180.094 F2400
G1 X-6.59 E180.273
G1 X-2.3 E180.451
G1 X2 E180.63
G1 X6.29 E180.808
G1 X10.59 E180.987
G1 X14.88 E181.165
G1 Y-12.5 F12000
G1 X10.59 E181.344 F2400
G1 X6.29 E181.522
G1 X2 E181.701
G1 X-2.3 E181.879
G1 X-6.59 E182.058
G1 X-10.88 E182.236
G1 X-15.18 E182.415
G1 X-15.18 Y-12 F12000
G1 X-10.88 Y-12 E182.593 F2400
G1 X-6.59 E182.772
G1 X-2.3 E182.95
G1 X2 E183.129
G1 X6.29 E183.308
G1 X10.59 E183.486
G1 X14.88 E183.665
G1 Y-11.5 F12000
G1 X10.59 E183.843 F2400
G1 X6.29 E184.022
G1 X2 E184.2
G1 X-2.3 E184.379
G1 X-6.59 E184.557
G1 X-10.88 E184.736
G1 X-15.18 E184.914
G1 X-15.18 Y-11 F12000
G1 X-10.88 Y-11 E185.093 F2400
G1 X-6.59 E185.271
G1 X-2.3 E185.45
G1 X2 E185.628
G1 X6.29 E185.807
G1 X10.59 E185.985
G1 X14.88 E186.164
G1 Y-10.5 F12000
G1 X10.59 E186.342 F2400
G1 X6.29 E186.521
G1 X2 E186.699
G1 X-2.3 E186.878
G1 X-6.59 E187.056
G1 X-10.88 E187.235
G1 X-15.18 E187.413
G1 X-15.18 Y-10 F12000
G1 X-10.88 Y-10 E187.592 F2400
G1 X-6.59 E187.77
G1 X-2.3 E187.949
G1 X2 E188.128
G1 X6.29 E188.306
G1 X10.59 E188.485
G1 X14.88 E188.663
G1 E186.163 F6000
G1 Z1
G1 X-1.58 Y-9.5 F12000
G1 Z0.5
G1 E188.663 F6000
G1 X-6.11 E188.852 F2400
G1 X-10.64 E189.04
G1 X-15.18 E189.228
G1 X-15.18 Y-9 F12000
G1 X-11.23 Y-9 E189.392 F2400
G1 X-7.29 E189.556
G1 X-3.35 E189.72
G1 X-4.39 Y-8.5 F12000
G1 X-7.98 E189.87 F2400
G1 X-11.58 E190.019
G1 X-15.18 E190.169
G1 X-15.18 Y-8 F12000
G1 X-11.84 Y-8 E190.308 F2400
G1 X-8.51 E190.446
G1 X-5.17 E190.585
G1 X-5.8 Y-7.5 F12000
G1 X-10.49 E190.78 F2400
G1 X-15.18 E190.975
G1 X-15.18 Y-7 F12000
G1 X-10.75 Y-7 E191.159 F2400
G1 X-6.33 E191.342
G1 X-6.79 Y-6.5 F12000
G1 X-10.98 E191.517 F2400
G1 X-15.18 E191.691
G1 X-15.18 Y-6 F12000
G1 X-11.17 Y-6 E191.858 F2400
G1 X-7.17 E192.024
G1 X-7.5 Y-5.5 F12000
G1 X-11.34 E192.184 F2400
G1 X-15.18 E192.344
G1 X-15.18 Y-5 F12000
G1 X-11.48 E192.497 F2400
G1 X-7.78 E192.651
G1 X-8.03 Y-4.5 F12000
G1 X-11.6 E192.8 F2400
G1 X-15.18 E192.948
G1 X-15.18 Y-4 F12000
G1 X-11.7 E193.093 F2400
G1 X-8.23 E193.237
G1 X-8.4 Y-3.5 F12000
G1 X-11.79 E193.378 F2400
G1 X-15.18 E193.519
G1 X-15.18 Y-3 F12000
G1 X-11.85 E193.657 F2400
G1 X-8.53 E193.795
G1 X-8.64 Y-2.5 F12000
G1 X-11.91 E193.931 F2400
G1 X-15.18 E194.067
G1 X-15.18 Y-2 F12000
G1 X-11.94 E194.202 F2400
G1 X-8.71 E194.336
G1 X-8.75 Y-1.5 F12000
G1 X-11.96 E194.47 F2400
G1 X-15.18 E194.603
G1 X-15.18 Y-1 F12000
G1 X-11.98 E194.736 F2400
G1 X-8.78 E194.869
G1 X-8.75 Y-0.5 F12000
G1 X-11.96 E195.003 F2400
G1 X-15.18 E195.137
G1 X-15.18 Y0 F12000
G1 X-11.94 E195.271 F2400
G1 X-8.71 E195.406
G1 X-8.64 Y0.5 F12000
G1 X-11.91 E195.542 F2400
G1 X-15.18 E195.678
G1 X-15.18 Y1 F12000
G1 X-11.85 E195.816 F2400
G1 X-8.53 E195.954
G1 X-8.4 Y1.5 F12000
G1 X-11.79 E196.095 F2400
G1 X-15.18 E196.236
G1 X-15.18 Y2 F12000
G1 X-11.7 E196.38 F2400
G1 X-8.23 E196.525
G1 X-8.03 Y2.5 F12000
G1 X-11.6 E196.674 F2400
G1 X-15.18 E196.822
G1 X-15.18 Y3 F12000
G1 X-11.48 E196.976 F2400
G1 X-7.78 E197.13
G1 X-7.5 Y3.5 F12000
G1 X-11.34 E197.289 F2400
G1 X-15.18 E197.449
G1 X-15.18 Y4 F12000
G1 X-11.18 E197.615 F2400
G1 X-7.17 E197.782
G1 X-6.79 Y4.5 F12000
G1 X-10.98 E197.956 F2400
G1 X-15.18 E198.131
G1 X-15.18 Y5 F12000
G1 X-10.76 E198.315 F2400
G1 X-6.33 E198.499
G1 X-5.8 Y5.5 F12000
G1 X-10.49 E198.693 F2400
G1 X-15.18 E198.888
G1 X-15.18 Y6 F12000
G1 X-11.84 E199.027 F2400
G1 X-8.51 E199.166
G1 X-5.17 E199.304
G1 X-4.39 Y6.5 F12000
G1 X-7.98 E199.454 F2400
G1 X-11.58 E199.603
G1 X-15.18 E199.753
G1 X-15.18 Y7 F12000
G1 X-11.24 E199.917 F2400
G1 X-7.29 E200.081
G1 X-3.35 E200.245
G1 X-1.58 Y7.5 F12000
G1 X-6.11 E200.433 F2400
G1 X-10.65 E200.621
G1 X-15.18 E200.81
G1 E198.31 F6000
G1 Z1
G1 X-8.21 Y-2.56 F12000
G1 X-6.3 Y-6.39
G1 X-1.77 Y-9.22
G1 X1.28 Y-9.5
G1 Z0.5
G1 E200.81 F6000
G1 X5.81 E200.998 F2400
G1 X10.35 E201.187
G1 X14.88 E201.375
G1 Y-9 F12000
G1 X10.94 E201.539 F2400
G1 X6.99 E201.703
G1 X3.05 E201.867
G1 X4.09 Y-8.5 F12000
G1 X7.68 E202.017 F2400
G1 X11.28 E202.166
G1 X14.88 E202.316
G1 Y-8 F12000
G1 X11.54 E202.455 F2400
G1 X8.21 E202.593
G1 X4.87 E202.732
G1 X5.5 Y-7.5 F12000
G1 X10.19 E202.927 F2400
G1 X14.88 E203.122
G1 Y-7 F12000
G1 X10.46 E203.306 F2400
G1 X6.03 E203.49
G1 X6.49 Y-6.5 F12000
G1 X10.68 E203.664 F2400
G1 X14.88 E203.839
G1 Y-6 F12000
G1 X10.88 E204.005 F2400
G1 X6.87 E204.172
G1 X7.2 Y-5.5 F12000
G1 X11.04 E204.331 F2400
G1 X14.88 E204.491
G1 Y-5 F12000
G1 X11.18 E204.645 F2400
G1 X7.48 E204.799
G1 X7.73 Y-4.5 F12000
G1 X11.3 E204.947 F2400
G1 X14.88 E205.096
G1 Y-4 F12000
G1 X11.4 E205.24 F2400
G1 X7.93 E205.385
G1 X8.1 Y-3.5 F12000
G1 X11.49 E205.526 F2400
G1 X14.88 E205.667
G1 Y-3 F12000
G1 X11.56 E205.805 F2400
G1 X8.23 E205.943
G1 X8.34 Y-2.5 F12000
G1 X11.61 E206.079 F2400
G1 X14.88 E206.215
G1 Y-2 F12000
G1 X11.65 E206.35 F2400
G1 X8.41 E206.484
G1 X8.45 Y-1.5 F12000
G1 X11.67 E206.618 F2400
G1 X14.88 E206.752
G1 Y-1 F12000
G1 X11.68 E206.885 F2400
G1 X8.48 E207.018
G1 X8.45 Y-0.5 F12000
G1 X11.67 E207.151 F2400
G1 X14.88 E207.285
G1 X14.88 Y0 F12000
G1 X11.65 E207.419 F2400
G1 X8.41 E207.554
G1 X8.34 Y0.5 F12000
G1 X11.61 E207.69 F2400
G1 X14.88 E207.826
G1 X14.88 Y1 F12000
G1 X11.56 E207.964 F2400
G1 X8.23 E208.102
G1 X8.1 Y1.5 F12000
G1 X11.49 E208.243 F2400
G1 X14.88 E208.384
G1 X14.88 Y2 F12000
G1 X11.4 E208.528 F2400
G1 X7.93 E208.673
G1 X7.73 Y2.5 F12000
G1 X11.3 E208.822 F2400
G1 X14.88 E208.97
G1 X14.88 Y3 F12000
G1 X11.18 E209.124 F2400
G1 X7.48 E209.278
G1 X7.2 Y3.5 F12000
G1 X11.04 E209.437 F2400
G1 X14.88 E209.597
G1 X14.88 Y4 F12000
G1 X10.88 E209.764 F2400
G1 X6.87 E209.93
G1 X6.49 Y4.5 F12000
G1 X10.68 E210.104 F2400
G1 X14.88 E210.279
G1 X14.88 Y5 F12000
G1 X10.46 Y5 E210.463 F2400
G1 X6.03 E210.647
G1 X5.5 Y5.5 F12000
G1 X10.19 E210.842 F2400
G1 X14.88 E211.036
G1 X14.88 Y6 F12000
G1 X11.54 Y6 E211.175 F2400
G1 X8.21 E211.314
G1 X4.87 E211.452
G1 X4.09 Y6.5 F12000
G1 X7.69 E211.602 F2400
G1 X11.28 E211.751
G1 X14.88 E211.901
G1 X14.88 Y7 F12000
G1 X10.94 Y7 E212.065 F2400
G1 X7 E212.229
G1 X3.05 E212.393
G1 X1.28 Y7.5 F12000
G1 X5.82 E212.581 F2400
G1 X10.35 E212.77
G1 X14.88 E212.958
G1 X14.88 Y8 F12000
G1 X10.59 Y8 E213.136 F2400
G1 X6.29 E213.315
G1 X2 E213.493
G1 X-2.3 E213.672
G1 X-6.59 E213.851
G1 X-10.88 E214.029
G1 X-15.18 E214.208
G1 X-15.18 Y8.5 F12000
G1 X-10.88 E214.386 F2400
G1 X-6.59 E214.565
G1 X-2.3 E214.743
G1 X2 E214.922
G1 X6.29 E215.1
G1 X10.59 E215.279
G1 X14.88 E215.457
G1 X14.88 Y9 F12000
G1 X10.59 Y9 E215.636 F2400
G1 X6.29 E215.814
G1 X2 E215.993
G1 X-2.3 E216.171
G1 X-6.59 E216.35
G1 X-10.88 E216.528
G1 X-15.18 E216.707
G1 X-15.18 Y9.5 F12000
G1 X-10.88 E216.885 F2400
G1 X-6.59 E217.064
G1 X-2.3 E217.242
G1 X2 E217.421
G1 X6.29 E217.599
G1 X10.59 E217.778
G1 X14.88 E217.956
G1 X14.88 Y10 F12000
G1 X10.59 Y10 E218.135 F2400
G1 X6.29 E218.313
G1 X2 E218.492
G1 X-2.3 E218.67
G1 X-6.59 E218.849
G1 X-10.88 E219.028
G1 X-15.18 E219.206
G1 X-15.18 Y10.5 F12000
G1 X-10.88 E219.385 F2400
G1 X-6.59 E219.563
G1 X-2.3 E219.742
G1 X2 E219.92
G1 X6.29 E220.099
G1 X10.59 E220.277
G1 X14.88 E220.456
G1 X14.88 Y11 F12000
G1 X10.59 Y11 E220.634 F2400
G1 X6.29 E220.813
G1 X2 E220.991
G1 X-2.3 E221.17
G1 X-6.59 E221.348
G1 X-10.88 E221.527
G1 X-15.18 E221.705
G1 X-15.18 Y11.5 F12000
G1 X-10.88 E221.884 F2400
G1 X-6.59 E222.062
G1 X-2.3 E222.241
G1 X2 E222.419
G1 X6.29 E222.598
G1 X10.59 E222.776
G1 X14.88 E222.955
G1 X14.88 Y12 F12000
G1 X10.59 Y12 E223.133 F2400
G1 X6.29 E223.312
G1 X2 E223.49
G1 X-2.3 E223.669
G1 X-6.59 E223.848
G1 X-10.88 E224.026
G1 X-15.18 E224.205
G1 X-15.18 Y12.5 F12000
G1 X-10.88 E224.383 F2400
G1 X-6.59 E224.562
G1 X-2.3 E224.74
G1 X2 E224.919
G1 X6.29 E225.097
G1 X10.59 E225.276
G1 X14.88 E225.454
G1 X14.88 Y13 F12000
G1 X10.59 Y13 E225.633 F2400
G1 X6.29 E225.811
G1 X2 E225.99
G1 X-2.3 E226.168
G1 X-6.59 E226.347
G1 X-10.88 E226.525
G1 X-15.18 E226.704
G1 X-15.18 Y13.5 F12000
G1 X-10.88 E226.882 F2400
G1 X-6.59 E227.061
G1 X-2.3 E227.239
G1 X2 E227.418
G1 X6.29 E227.596
G1 X10.59 E227.775
G1 X14.88 E227.953
G1 X14.88 Y14 F12000
G1 X10.59 Y14 E228.132 F2400
G1 X6.29 E228.31
G1 X2 E228.489
G1 X-2.3 E228.667
G1 X-6.59 E228.846
G1 X-10.88 E229.025
G1 X-15.18 E229.203
G1 X-15.18 Y14.5 F12000
G1 X-10.88 E229.382 F2400
G1 X-6.59 E229.56
G1 X-2.3 E229.739
G1 X2 E229.917
G1 X6.29 E230.096
G1 X10.59 E230.274
G1 X14.88 E230.453
G1 X14.88 Y15 F12000
G1 X10.59 Y15 E230.631 F2400
G1 X6.29 E230.81
G1 X2 E230.988
G1 X-2.3 E231.167
G1 X-6.59 E231.345
G1 X-10.88 E231.524
G1 X-15.18 E231.702
G1 X-15.18 Y15.5 F12000
G1 X-10.88 E231.881 F2400
G1 X-6.59 E232.059
G1 X-2.3 E232.238
G1 X2 E232.416
G1 X6.29 E232.595
G1 X10.59 E232.773
G1 X14.88 E232.952
G1 X14.88 Y16 F12000
G1 X10.59 Y16 E233.13 F2400
G1 X6.29 E233.309
G1 X2 E233.487
G1 X-2.3 E233.666
G1 X-6.59 E233.844
G1 X-10.88 E234.023
G1 X-15.18 E234.201
G1 E231.701 F6000
G1 Z1
G1 X-20 Y7.37 F12000
; TYPE:SUPPORT
G1 Z0.5
G1 E234.201 F6000
G1 Y3.18 E234.375 F2400
G1 Y-1 E234.549
G1 Y-5.18 E234.723
G1 Y-9.37 E234.897
G1 X-18.4 Y-7.5 F12000
G1 X-22.5 E235.068 F2400
G1 Y-5 F12000
G1 X-18.4 E235.238 F2400
G1 Y-2.5 F12000
G1 X-22.5 E235.409 F2400
G1 Y0 F12000
G1 X-18.4 E235.579 F2400
G1 Y2.5 F12000
G1 X-22.5 E235.75 F2400
G1 Y5 F12000
G1 X-18.4 E235.92 F2400
; Layer Change GCode
; LAYER:2
; LAYER_HEIGHT:0.2
; TYPE:FILL
G1 E233.42 F6000
G1 Z1
G1 Z1.2 F12000
G1 X-5.92 Y5.07
; TYPE:WALL-INNER
G1 Z0.7
G1 E235.92 F6000
G1 X-6.51 Y4.46 E235.955 F2400
G1 X-7.02 Y3.78 E235.991
G1 X-7.47 Y3.06 E236.026
G1 X-7.85 Y2.3 E236.061
G1 X-8.14 Y1.51 E236.096
G1 X-8.35 Y0.69 E236.132
G1 X-8.48 Y-0.15 E236.167
G1 X-8.53 Y-1 E236.202
G1 X-8.48 Y-1.85 E236.237
G1 X-8.35 Y-2.69 E236.273
G1 X-8.14 Y-3.51 E236.308
G1 X-7.85 Y-4.3 E236.343
G1 X-7.47 Y-5.06 E236.379
G1 X-7.02 Y-5.78 E236.414
G1 X-6.51 Y-6.46 E236.449
G1 X-5.92 Y-7.07 E236.484
G1 X-5.28 Y-7.62 E236.52
G1 X-4.58 Y-8.11 E236.555
G1 X-3.84 Y-8.52 E236.59
G1 X-3.06 Y-8.85 E236.626
G1 X-2.25 Y-9.11 E236.661
G1 X-1.42 Y-9.28 E236.696
G1 X-0.57 Y-9.36 E236.731
G1 X0.27 E236.767
G1 X1.12 Y-9.28 E236.802
G1 X1.95 Y-9.11 E236.837
G1 X2.76 Y-8.85 E236.872
G1 X3.54 Y-8.52 E236.908
G1 X4.28 Y-8.11 E236.943
G1 X4.98 Y-7.62 E236.978
G1 X5.62 Y-7.07 E237.013
G1 X6.21 Y-6.46 E237.049
G1 X6.73 Y-5.78 E237.084
G1 X7.17 Y-5.06 E237.119
G1 X7.55 Y-4.3 E237.155
G1 X7.84 Y-3.51 E237.19
G1 X8.06 Y-2.69 E237.225
G1 X8.18 Y-1.87 E237.259
G1 X8.23 Y-1 E237.296
G1 X8.18 Y-0.15 E237.331
G1 X8.06 Y0.69 E237.366
G1 X7.84 Y1.51 E237.401
G1 X7.55 Y2.3 E237.437
G1 X7.17 Y3.06 E237.472
G1 X6.73 Y3.78 E237.507
G1 X6.21 Y4.46 E237.543
G1 X5.62 Y5.07 E237.578
G1 X4.98 Y5.62 E237.613
G1 X4.28 Y6.11 E237.648
G1 X3.54 Y6.52 E237.684
G1 X2.76 Y6.86 E237.719
G1 X1.95 Y7.11 E237.754
G1 X1.12 Y7.28 E237.79
G1 X0.27 Y7.37 E237.825
G1 X-0.57 E237.86
G1 X-1.42 Y7.28 E237.895
G1 X-2.25 Y7.11 E237.93
G1 X-3.06 Y6.86 E237.966
G1 X-3.84 Y6.52 E238.001
G1 X-4.58 Y6.11 E238.036
G1 X-5.28 Y5.62 E238.072
G1 X-5.88 Y5.1 E238.105
G1 X-5.92 Y5.07
G1 X-5.57 Y4.71 F12000
G1 X-6.13 Y4.13 E238.138 F2400
G1 X-6.61 Y3.5 E238.171
G1 X-7.04 Y2.82 E238.204
G1 X-7.39 Y2.11 E238.238
G1 X-7.66 Y1.36 E238.271
G1 X-7.86 Y0.59 E238.304
G1 X-7.98 Y-0.2 E238.337
G1 X-8.02 Y-1 E238.37
G1 X-7.98 Y-1.8 E238.403
G1 X-7.86 Y-2.58 E238.436
G1 X-7.66 Y-3.36 E238.47
G1 X-7.39 Y-4.1 E238.503
G1 X-7.04 Y-4.82 E238.536
G1 X-6.61 Y-5.5 E238.569
G1 X-6.13 Y-6.13 E238.602
G1 X-5.57 Y-6.71 E238.636
G1 X-4.97 Y-7.23 E238.669
G1 X-4.31 Y-7.68 E238.702
G1 X-3.62 Y-8.07 E238.735
G1 X-2.88 Y-8.38 E238.768
G1 X-2.12 Y-8.62 E238.801
G1 X-1.34 Y-8.78 E238.835
G1 X-0.55 Y-8.86 E238.868
G1 X0.25 E238.901
G1 X1.04 Y-8.78 E238.934
G1 X1.82 Y-8.62 E238.967
G1 X2.59 Y-8.38 E239
G1 X3.32 Y-8.07 E239.033
G1 X4.02 Y-7.68 E239.067
G1 X4.67 Y-7.23 E239.1
G1 X5.28 Y-6.71 E239.133
G1 X5.83 Y-6.13 E239.166
G1 X6.31 Y-5.5 E239.199
G1 X6.74 Y-4.82 E239.232
G1 X7.09 Y-4.1 E239.266
G1 X7.36 Y-3.36 E239.299
G1 X7.57 Y-2.58 E239.332
G1 X7.68 Y-1.82 E239.364
G1 X7.73 Y-1 E239.398
G1 X7.69 Y-0.2 E239.431
G1 X7.57 Y0.59 E239.465
G1 X7.36 Y1.36 E239.498
G1 X7.09 Y2.11 E239.531
G1 X6.74 Y2.82 E239.564
G1 X6.31 Y3.5 E239.597
G1 X5.83 Y4.13 E239.63
G1 X5.28 Y4.71 E239.664
G1 X4.67 Y5.23 E239.697
G1 X4.02 Y5.68 E239.73
G1 X3.32 Y6.07 E239.763
G1 X2.59 Y6.39 E239.796
G1 X1.82 Y6.62 E239.829
G1 X1.04 Y6.78 E239.863
G1 X0.25 Y6.87 E239.896
G1 X-0.55 E239.929
G1 X-1.34 Y6.78 E239.962
G1 X-2.12 Y6.62 E239.995
G1 X-2.88 Y6.39 E240.028
G1 X-3.62 Y6.07 E240.062
G1 X-4.31 Y5.68 E240.095
G1 X-4.97 Y5.23 E240.128
G1 X-5.54 Y4.74 E240.159
G1 X-5.57 Y4.71
G1 X-5.23 Y4.35 F12000
; TYPE:WALL-OUTER
G1 X-5.75 Y3.8 E240.19 F1800
G1 X-6.2 Y3.21 E240.221
G1 X-6.6 Y2.58 E240.252
G1 X-6.93 Y1.91 E240.283
G1 X-7.19 Y1.21 E240.314
G1 X-7.37 Y0.48 E240.345
G1 X-7.49 Y-0.25 E240.376
G1 X-7.52 Y-1 E240.407
G1 X-7.49 Y-1.74 E240.438
G1 X-7.37 Y-2.48 E240.469
G1 X-7.19 Y-3.21 E240.501
G1 X-6.93 Y-3.91 E240.532
G1 X-6.6 Y-4.58 E240.563
G1 X-6.2 Y-5.21 E240.594
G1 X-5.75 Y-5.8 E240.625
G1 X-5.23 Y-6.34 E240.656
G1 X-4.66 Y-6.83 E240.687
G1 X-4.05 Y-7.26 E240.718
G1 X-3.4 Y-7.62 E240.749
G1 X-2.71 Y-7.92 E240.78
G1 X-2 Y-8.14 E240.811
G1 X-1.27 Y-8.29 E240.842
G1 X-0.52 Y-8.36 E240.873
G1 X0.22 E240.904
G1 X0.97 Y-8.29 E240.935
G1 X1.7 Y-8.14 E240.966
G1 X2.41 Y-7.92 E240.997
G1 X3.1 Y-7.62 E241.028
G1 X3.75 Y-7.26 E241.06
G1 X4.36 Y-6.83 E241.091
G1 X4.93 Y-6.34 E241.122
G1 X5.45 Y-5.8 E241.153
G1 X5.9 Y-5.21 E241.184
G1 X6.3 Y-4.58 E241.215
G1 X6.63 Y-3.91 E241.246
G1 X6.89 Y-3.21 E241.277
G1 X7.07 Y-2.48 E241.308
G1 X7.18 Y-1.77 E241.338
G1 X7.23 Y-1 E241.37
G1 X7.19 Y-0.25 E241.401
G1 X7.07 Y0.48 E241.432
G1 X6.89 Y1.21 E241.463
G1 X6.63 Y1.91 E241.494
G1 X6.3 Y2.58 E241.525
G1 X5.9 Y3.21 E241.556
G1 X5.45 Y3.8 E241.588
G1 X4.93 Y4.35 E241.619
G1 X4.36 Y4.83 E241.65
G1 X3.75 Y5.26 E241.681
G1 X3.1 Y5.62 E241.712
G1 X2.41 Y5.92 E241.743
G1 X1.7 Y6.14 E241.774
G1 X0.97 Y6.29 E241.805
G1 X0.22 Y6.37 E241.836
G1 X-0.52 E241.867
G1 X-1.27 Y6.29 E241.898
G1 X-2 Y6.14 E241.929
G1 X-2.71 Y5.92 E241.96
G1 X-3.4 Y5.62 E241.991
G1 X-4.05 Y5.26 E242.022
G1 X-4.66 Y4.83 E242.053
G1 X-5.19 Y4.38 E242.082
G1 X-5.23 Y4.35
G1 X-5.75 Y3.8
G1 X-6.2 Y3.21
G1 X-6.6 Y2.58
G1 X-6.93 Y1.91
G1 X-5.92 Y5.07 F12000
G1 E239.582 F6000
G1 Z1.2
G1 X-15.62 Y16.75 F12000
; TYPE:WALL-INNER
G1 Z0.7
G1 E242.082 F6000
G1 Y12.31 E242.267 F2400
G1 Y7.88 E242.451
G1 Y3.44 E242.636
G1 Y-1 E242.82
G1 Y-5.44 E243.005
G1 Y-9.87 E243.189
G1 Y-14.31 E243.374
G1 Y-18.75 E243.558
G1 X-11.2 E243.742
G1 X-6.78 E243.926
G1 X-2.36 E244.109
G1 X2.06 E244.293
G1 X6.48 E244.477
G1 X10.9 E244.661
G1 X15.32 E244.844
G1 Y-14.31 E245.029
G1 Y-9.87 E245.213
G1 Y-5.44 E245.398
G1 Y-1 E245.582
G1 Y3.44 E245.767
G1 Y7.88 E245.951
G1 Y12.31 E246.136
G1 Y16.75 E246.32
G1 X10.91 E246.504
G1 X6.49 E246.687
G1 X2.08 E246.871
G1 X-2.33 E247.054
G1 X-6.74 E247.238
G1 X-11.16 E247.421
G1 X-15.57 E247.605
G1 X-15.62
G1 X-16.12 Y17.25 F12000
G1 Y12.69 E247.794 F2400
G1 Y8.13 E247.984
G1 Y3.56 E248.174
G1 Y-1 E248.363
G1 Y-5.56 E248.553
G1 Y-10.12 E248.743
G1 Y-14.69 E248.932
G1 Y-19.25 E249.122
G1 X-11.56 E249.312
G1 X-6.99 E249.501
G1 X-2.43 E249.691
G1 X2.13 E249.881
G1 X6.69 E250.07
G1 X11.26 E250.26
G1 X15.82 E250.45
G1 Y-14.69 E250.639
G1 Y-10.12 E250.829
G1 Y-5.56 E251.019
G1 Y-1 E251.209
G1 Y3.56 E251.398
G1 Y8.13 E251.588
G1 Y12.69 E251.778
G1 Y17.25 E251.967
G1 X11.26 E252.157
G1 X6.71 E252.346
G1 X2.15 E252.535
G1 X-2.4 E252.725
G1 X-6.96 E252.914
G1 X-11.51 E253.104
G1 X-16.07 E253.293
G1 X-16.12
G1 X-16.62 Y17.75 F12000
; TYPE:WALL-OUTER
G1 Y13.06 E253.488 F1800
G1 Y8.38 E253.683
G1 Y3.69 E253.878
G1 Y-1 E254.073
G1 Y-5.69 E254.267
G1 Y-10.37 E254.462
G1 Y-15.06 E254.657
G1 Y-19.75 E254.852
G1 X-11.91 E255.048
G1 X-7.21 E255.243
G1 X-2.5 E255.439
G1 X2.2 E255.635
G1 X6.91 E255.83
G1 X11.61 E256.026
G1 X16.32 E256.221
G1 Y-15.06 E256.416
G1 Y-10.37 E256.611
G1 Y-5.69 E256.806
G1 Y-1 E257.001
G1 Y3.69 E257.196
G1 Y8.38 E257.391
G1 Y13.06 E257.586
G1 Y17.75 E257.781
G1 X11.62 E257.976
G1 X6.92 E258.171
G1 X2.22 E258.367
G1 X-2.47 E258.562
G1 X-7.17 E258.757
G1 X-11.87 E258.953
G1 X-16.57 E259.148
G1 X-16.62
G1 Y14.75
G1 X-15.62 Y16.75 F12000
G1 X-15 Y16.5
; TYPE:FILL
G1 X-15 Y11.5 E259.356 F2400
G1 Y6.5 E259.564
G1 Y1.5 E259.771
G1 Y-3.5 E259.979
G1 Y-8.5 E260.187
G1 Y-13.5 E260.395
G1 Y-18.5 E260.603
G1 X-14.5 Y-18.5 F12000
G1 Y-13.5 E260.811 F2400
G1 Y-8.5 E261.019
G1 Y-3.5 E261.226
G1 Y1.5 E261.434
G1 Y6.5 E261.642
G1 Y11.5 E261.85
G1 Y16.5 E262.058
G1 X-14 Y16.5 F12000
G1 X-14 Y11.5 E262.266 F2400
G1 Y6.5 E262.474
G1 Y1.5 E262.682
G1 Y-3.5 E262.889
G1 Y-8.5 E263.097
G1 Y-13.5 E263.305
G1 Y-18.5 E263.513
G1 X-13.5 Y-18.5 F12000
G1 Y-13.5 E263.721 F2400
G1 Y-8.5 E263.929
G1 Y-3.5 E264.137
G1 Y1.5 E264.344
G1 Y6.5 E264.552
G1 Y11.5 E264.76
G1 Y16.5 E264.968
G1 X-13 Y16.5 F12000
G1 X-13 Y11.5 E265.176 F2400
G1 Y6.5 E265.384
G1 Y1.5 E265.592
G1 Y-3.5 E265.799
G1 Y-8.5 E266.007
G1 Y-13.5 E266.215
G1 Y-18.5 E266.423
G1 X-12.5 Y-18.5 F12000
G1 Y-13.5 E266.631 F2400
G1 Y-8.5 E266.839
G1 Y-3.5 E267.047
G1 Y1.5 E267.255
G1 Y6.5 E267.462
G1 Y11.5 E267.67
G1 Y16.5 E267.878
G1 X-12 Y16.5 F12000
G1 X-12 Y11.5 E268.086 F2400
G1 Y6.5 E268.294
G1 Y1.5 E268.502
G1 Y-3.5 E268.71
G1 Y-8.5 E268.917
G1 Y-13.5 E269.125
G1 Y-18.5 E269.333
G1 X-11.5 Y-18.5 F12000
G1 Y-13.5 E269.541 F2400
G1 Y-8.5 E269.749
G1 Y-3.5 E269.957
G1 Y1.5 E270.165
G1 Y6.5 E270.372
G1 Y11.5 E270.58
G1 Y16.5 E270.788
G1 X-11 Y16.5 F12000
G1 X-11 Y11.5 E270.996 F2400
G1 Y6.5 E271.204
G1 Y1.5 E271.412
G1 Y-3.5 E271.62
G1 Y-8.5 E271.828
G1 Y-13.5 E272.035
G1 Y-18.5 E272.243
G1 X-10.5 Y-18.5 F12000
G1 Y-13.5 E272.451 F2400
G1 Y-8.5 E272.659
G1 Y-3.5 E272.867
G1 Y1.5 E273.075
G1 Y6.5 E273.283
G1 Y11.5 E273.49
G1 Y16.5 E273.698
G1 X-10 Y16.5 F12000
G1 X-10 Y11.5 E273.906 F2400
G1 Y6.5 E274.114
G1 Y1.5 E274.322
G1 Y-3.5 E274.53
G1 Y-8.5 E274.738
G1 Y-13.5 E274.945
G1 Y-18.5 E275.153
G1 X-9.5 Y-18.5 F12000
G1 Y-13.5 E275.361 F2400
G1 Y-8.5 E275.569
G1 Y-3.5 E275.777
G1 Y1.5 E275.985
G1 Y6.5 E276.193
G1 Y11.5 E276.401
G1 Y16.5 E276.608
G1 X-9 Y16.5 F12000
G1 X-9 Y11.5 E276.816 F2400
G1 Y6.5 E277.024
G1 Y1.5 E277.232
G1 Y-3.5 E277.44
G1 Y-8.5 E277.648
G1 Y-13.5 E277.856
G1 Y-18.5 E278.063
G1 X-8.5 Y-18.5 F12000
G1 Y-14.65 E278.223 F2400
G1 Y-10.81 E278.383
G1 Y-6.96 E278.543
G1 Y-3.12 E278.703
G1 X-8 Y-4.55 F12000
G1 Y-9.2 E278.896 F2400
G1 Y-13.85 E279.09
G1 Y-18.5 E279.283
G1 X-7.5 Y-18.5 F12000
G1 Y-14.16 E279.463 F2400
G1 Y-9.83 E279.643
G1 Y-5.49 E279.824
G1 X-7 Y-6.22 F12000
G1 Y-10.31 E279.994 F2400
G1 Y-14.41 E280.164
G1 Y-18.5 E280.334
G1 X-6.5 Y-18.5 F12000
G1 Y-14.61 E280.496 F2400
G1 Y-10.71 E280.658
G1 Y-6.82 E280.82
G1 X-6 Y-7.33 F12000
G1 Y-11.05 E280.974 F2400
G1 Y-14.78 E281.129
G1 Y-18.5 E281.284
G1 X-5.5 Y-18.5 F12000
G1 Y-14.92 E281.433 F2400
G1 Y-11.34 E281.582
G1 Y-7.76 E281.731
G1 X-5 Y-8.12 F12000
G1 Y-11.58 E281.875 F2400
G1 Y-15.04 E282.018
G1 Y-18.5 E282.162
G1 X-4.5 Y-18.5 F12000
G1 Y-15.14 E282.302 F2400
G1 Y-11.79 E282.441
G1 Y-8.44 E282.581
G1 X-4 Y-8.71 F12000
G1 Y-13.61 E282.784 F2400
G1 Y-18.5 E282.987
G1 X-3.5 Y-18.5 F12000
G1 Y-13.72 E283.186 F2400
G1 Y-8.94 E283.385
G1 X-3 Y-9.13 F12000
G1 Y-13.82 E283.58 F2400
G1 Y-18.5 E283.775
G1 X-2.5 Y-18.5 F12000
G1 Y-13.89 E283.966 F2400
G1 Y-9.29 E284.157
G1 X-2 Y-9.41 F12000
G1 Y-13.96 E284.346 F2400
G1 Y-18.5 E284.535
G1 X-1.5 Y-18.5 F12000
G1 Y-14.01 E284.722 F2400
G1 Y-9.52 E284.909
G1 X-1 Y-9.57 F12000
G1 Y-14.04 E285.094 F2400
G1 Y-18.5 E285.28
G1 X-0.5 Y-18.5 F12000
G1 Y-14.06 E285.464 F2400
G1 Y-9.61 E285.649
G1 X0 Y-9.61 F12000
G1 Y-14.06 E285.834 F2400
G1 Y-18.5 E286.019
G1 X0.5 Y-18.5 F12000
G1 Y-14.05 E286.204 F2400
G1 Y-9.59 E286.389
G1 X1 Y-9.54 F12000
G1 Y-14.02 E286.575 F2400
G1 Y-18.5 E286.761
G1 X1.5 Y-18.5 F12000
G1 Y-13.98 E286.949 F2400
G1 Y-9.46 E287.137
G1 X2 Y-9.35 F12000
G1 Y-13.93 E287.327 F2400
G1 Y-18.5 E287.517
G1 X2.5 Y-18.5 F12000
G1 Y-13.85 E287.711 F2400
G1 Y-9.2 E287.904
G1 X3 Y-9.02 F12000
G1 Y-13.76 E288.101 F2400
G1 Y-18.5 E288.298
G1 X3.5 Y-18.5 F12000
G1 Y-13.65 E288.499 F2400
G1 Y-8.81 E288.701
G1 X4 Y-8.55 F12000
G1 Y-13.52 E288.908 F2400
G1 Y-18.5 E289.115
G1 X4.5 Y-18.5 F12000
G1 Y-15.09 E289.257 F2400
G1 Y-11.67 E289.398
G1 Y-8.26 E289.54
G1 X5 Y-7.91 F12000
G1 Y-11.44 E289.687 F2400
G1 Y-14.97 E289.834
G1 Y-18.5 E289.98
G1 X5.5 Y-18.5 F12000
G1 Y-14.83 E290.133 F2400
G1 Y-11.17 E290.285
G1 Y-7.5 E290.438
G1 X6 Y-7.03 F12000
G1 Y-10.85 E290.597 F2400
G1 Y-14.68 E290.755
G1 Y-18.5 E290.914
G1 X6.5 Y-18.5 F12000
G1 Y-14.49 E291.081 F2400
G1 Y-10.49 E291.247
G1 Y-6.48 E291.414
G1 X7 Y-5.81 F12000
G1 Y-10.04 E291.59 F2400
G1 Y-14.27 E291.765
G1 Y-18.5 E291.941
G1 X7.5 Y-18.5 F12000
G1 Y-13.99 E292.129 F2400
G1 Y-9.48 E292.316
G1 Y-4.96 E292.504
G1 X8 Y-3.8 F12000
G1 Y-8.7 E292.708 F2400
G1 Y-13.6 E292.911
G1 Y-18.5 E293.115
G1 E290.615 F6000
G1 Z1.2
G1 X-2.41 Y-9.03 F12000
G1 X-6.74 Y-5.82
G1 X-8.4 Y-1.72
G1 X-8.5 Y1.12
G1 Z0.7
G1 E293.115 F6000
G1 Y4.96 E293.275 F2400
G1 Y8.81 E293.435
G1 Y12.65 E293.595
G1 Y16.5 E293.755
G1 X-8 Y16.5 F12000
G1 X-8 Y11.85 E293.948 F2400
G1 Y7.2 E294.141
G1 Y2.56 E294.334
G1 X-7.5 Y3.49 F12000
G1 Y7.83 E294.514 F2400
G1 Y12.16 E294.695
G1 Y16.5 E294.875
G1 X-7 Y16.5 F12000
G1 Y12.41 E295.045 F2400
G1 Y8.32 E295.215
G1 Y4.22 E295.385
G1 X-6.5 Y4.82 F12000
G1 Y8.72 E295.547 F2400
G1 Y12.61 E295.709
G1 Y16.5 E295.871
G1 X-6 Y16.5 F12000
G1 Y12.78 E296.026 F2400
G1 Y9.05 E296.18
G1 Y5.33 E296.335
G1 X-5.5 Y5.76 F12000
G1 Y9.34 E296.484 F2400
G1 Y12.92 E296.633
G1 Y16.5 E296.782
G1 X-5 Y16.5 F12000
G1 Y13.04 E296.926 F2400
G1 Y9.58 E297.069
G1 Y6.12 E297.213
G1 X-4.5 Y6.44 F12000
G1 Y9.79 E297.353 F2400
G1 Y13.15 E297.492
G1 Y16.5 E297.632
G1 X-4 Y16.5 F12000
G1 Y11.61 E297.835 F2400
G1 Y6.71 E298.038
G1 X-3.5 Y6.94 F12000
G1 Y11.72 E298.237 F2400
G1 Y16.5 E298.436
G1 X-3 Y16.5 F12000
G1 Y11.82 E298.631 F2400
G1 Y7.14 E298.825
G1 X-2.5 Y7.29 F12000
G1 Y11.9 E299.017 F2400
G1 Y16.5 E299.208
G1 X-2 Y16.5 F12000
G1 Y11.96 E299.397 F2400
G1 Y7.42 E299.586
G1 X-1.5 Y7.52 F12000
G1 Y12.01 E299.772 F2400
G1 Y16.5 E299.959
G1 X-1 Y16.5 F12000
G1 Y12.04 E300.145 F2400
G1 Y7.57 E300.33
G1 X-0.5 Y7.62 F12000
G1 Y12.06 E300.515 F2400
G1 Y16.5 E300.7
G1 X0 F12000
G1 Y12.06 E300.884 F2400
G1 Y7.62 E301.069
G1 X0.5 Y7.59 F12000
G1 Y12.05 E301.254 F2400
G1 Y16.5 E301.439
G1 X1 F12000
G1 Y12.02 E301.626 F2400
G1 Y7.54 E301.812
G1 X1.5 Y7.46 F12000
G1 Y11.98 E302 F2400
G1 Y16.5 E302.188
G1 X2 F12000
G1 Y11.93 E302.378 F2400
G1 Y7.35 E302.568
G1 X2.5 Y7.2 F12000
G1 Y11.85 E302.762 F2400
G1 Y16.5 E302.955
G1 X3 F12000
G1 Y11.76 E303.152 F2400
G1 Y7.02 E303.349
G1 X3.5 Y6.81 F12000
G1 Y11.65 E303.55 F2400
G1 Y16.5 E303.752
G1 X4 F12000
G1 Y11.52 E303.959 F2400
G1 Y6.55 E304.166
G1 X4.5 Y6.26 F12000
G1 Y9.67 E304.308 F2400
G1 Y13.09 E304.45
G1 Y16.5 E304.591
G1 X5 F12000
G1 Y12.97 E304.738 F2400
G1 Y9.44 E304.885
G1 Y5.91 E305.032
G1 X5.5 Y5.5 F12000
G1 Y9.17 E305.184 F2400
G1 Y12.83 E305.337
G1 Y16.5 E305.489
G1 X6 F12000
G1 Y12.68 E305.648 F2400
G1 Y8.86 E305.807
G1 Y5.03 E305.966
G1 X6.5 Y4.48 F12000
G1 Y8.49 E306.132 F2400
G1 Y12.49 E306.299
G1 Y16.5 E306.465
G1 X7 F12000
G1 Y12.27 E306.641 F2400
G1 Y8.04 E306.817
G1 Y3.81 E306.993
G1 X7.5 Y2.97 F12000
G1 Y7.48 E307.18 F2400
G1 Y11.99 E307.368
G1 Y16.5 E307.556
G1 X8 F12000
G1 Y11.6 E307.759 F2400
G1 Y6.7 E307.963
G1 Y1.8 E308.167
G1 E305.667 F6000
G1 Z1.2
G1 X8.5 Y16.5 F12000
G1 Z0.7
G1 E308.167 F6000
G1 Y11.5 E308.375 F2400
G1 Y6.5 E308.582
G1 Y1.5 E308.79
G1 Y-3.5 E308.998
G1 Y-8.5 E309.206
G1 Y-13.5 E309.414
G1 Y-18.5 E309.622
G1 X9 Y-18.5 F12000
G1 X9 Y-13.5 E309.83 F2400
G1 Y-8.5 E310.037
G1 Y-3.5 E310.245
G1 Y1.5 E310.453
G1 Y6.5 E310.661
G1 Y11.5 E310.869
G1 Y16.5 E311.077
G1 X9.5 F12000
G1 Y11.5 E311.285 F2400
G1 Y6.5 E311.493
G1 Y1.5 E311.7
G1 Y-3.5 E311.908
G1 Y-8.5 E312.116
G1 Y-13.5 E312.324
G1 Y-18.5 E312.532
G1 X10 Y-18.5 F12000
G1 X10 Y-13.5 E312.74 F2400
G1 Y-8.5 E312.948
G1 Y-3.5 E313.155
G1 Y1.5 E313.363
G1 Y6.5 E313.571
G1 Y11.5 E313.779
G1 Y16.5 E313.987
G1 X10.5 F12000
G1 Y11.5 E314.195 F2400
G1 Y6.5 E314.403
G1 Y1.5 E314.61
G1 Y-3.5 E314.818
G1 Y-8.5 E315.026
G1 Y-13.5 E315.234
G1 Y-18.5 E315.442
G1 X11 Y-18.5 F12000
G1 X11 Y-13.5 E315.65 F2400
G1 Y-8.5 E315.858
G1 Y-3.5 E316.066
G1 Y1.5 E316.273
G1 Y6.5 E316.481
G1 Y11.5 E316.689
G1 Y16.5 E316.897
G1 X11.5 F12000
G1 Y11.5 E317.105 F2400
G1 Y6.5 E317.313
G1 Y1.5 E317.521
G1 Y-3.5 E317.728
G1 Y-8.5 E317.936
G1 Y-13.5 E318.144
G1 Y-18.5 E318.352
G1 X12 Y-18.5 F12000
G1 X12 Y-13.5 E318.56 F2400
G1 Y-8.5 E318.768
G1 Y-3.5 E318.976
G1 Y1.5 E319.183
G1 Y6.5 E319.391
G1 Y11.5 E319.599
G1 Y16.5 E319.807
G1 X12.5 F12000
G1 Y11.5 E320.015 F2400
G1 Y6.5 E320.223
G1 Y1.5 E320.431
G1 Y-3.5 E320.639
G1 Y-8.5 E320.846
G1 Y-13.5 E321.054
G1 Y-18.5 E321.262
G1 X13 Y-18.5 F12000
G1 X13 Y-13.5 E321.47 F2400
G1 Y-8.5 E321.678
G1 Y-3.5 E321.886
G1 Y1.5 E322.094
G1 Y6.5 E322.301
G1 Y11.5 E322.509
G1 Y16.5 E322.717
G1 X13.5 F12000
G1 Y11.5 E322.925 F2400
G1 Y6.5 E323.133
G1 Y1.5 E323.341
G1 Y-3.5 E323.549
G1 Y-8.5 E323.756
G1 Y-13.5 E323.964
G1 Y-18.5 E324.172
G1 X14 Y-18.5 F12000
G1 X14 Y-13.5 E324.38 F2400
G1 Y-8.5 E324.588
G1 Y-3.5 E324.796
G1 Y1.5 E325.004
G1 Y6.5 E325.212
G1 Y11.5 E325.419
G1 Y16.5 E325.627
G1 X14.5 F12000
G1 Y11.5 E325.835 F2400
G1 Y6.5 E326.043
G1 Y1.5 E326.251
G1 Y-3.5 E326.459
G1 Y-8.5 E326.667
G1 Y-13.5 E326.874
G1 Y-18.5 E327.082
G1 X15 Y-18.5 F12000
G1 X15 Y-13.5 E327.29 F2400
G1 Y-8.5 E327.498
G1 Y-3.5 E327.706
G1 Y1.5 E327.914
G1 Y6.5 E328.122
G1 Y11.5 E328.329
G1 Y16.5 E328.537
G1 E326.037 F6000
G1 Z1.2
G1 X3.87 Y12.67 F12000
G1 X-7.27 Y8.83
G1 X-18.4 Y5
; TYPE:SUPPORT
G1 Z0.7
G1 E328.537 F6000
G1 X-22.5 E328.708 F2400
G1 Y2.5 F12000
G1 X-18.4 E328.878 F2400
G1 Y0 F12000
G1 X-22.5 E329.049 F2400
G1 Y-2.5 F12000
G1 X-18.4 E329.219 F2400
G1 Y-5 F12000
G1 X-22.5 E329.39 F2400
G1 Y-7.5 F12000
G1 X-18.4 E329.56 F2400
G1 X-20 Y-9.37 F12000
G1 Y-5.18 E329.734 F2400
G1 Y-1 E329.908
G1 Y3.18 E330.082
G1 Y7.37 E330.256
; Layer Change GCode
; LAYER:3
; LAYER_HEIGHT:0.2
; TYPE:FILL
M400
M106 S183
G1 E327.756 F6000
G1 Z1.2
G1 Y7.37 Z1.4 F12000
G1 X-14.83 Y6.91
G1 X-5.92 Y5.07
; TYPE:WALL-INNER
G1 Z0.9
G1 E330.256 F6000
G1 X-6.51 Y4.46 E330.291 F2400
G1 X-7.02 Y3.78 E330.327
G1 X-7.47 Y3.06 E330.362
G1 X-7.85 Y2.3 E330.397
G1 X-8.14 Y1.51 E330.432
G1 X-8.35 Y0.69 E330.468
G1 X-8.48 Y-0.15 E330.503
G1 X-8.53 Y-1 E330.538
G1 X-8.48 Y-1.85 E330.573
G1 X-8.35 Y-2.69 E330.609
G1 X-8.14 Y-3.51 E330.644
G1 X-7.85 Y-4.3 E330.679
G1 X-7.47 Y-5.06 E330.714
G1 X-7.02 Y-5.78 E330.75
G1 X-6.51 Y-6.46 E330.785
G1 X-5.92 Y-7.07 E330.82
G1 X-5.28 Y-7.62 E330.856
G1 X-4.58 Y-8.11 E330.891
G1 X-3.84 Y-8.52 E330.926
G1 X-3.06 Y-8.85 E330.961
G1 X-2.25 Y-9.11 E330.997
G1 X-1.42 Y-9.28 E331.032
G1 X-0.57 Y-9.36 E331.067
G1 X0.27 E331.102
G1 X1.12 Y-9.28 E331.138
G1 X1.95 Y-9.11 E331.173
G1 X2.76 Y-8.85 E331.208
G1 X3.54 Y-8.52 E331.244
G1 X4.28 Y-8.11 E331.279
G1 X4.98 Y-7.62 E331.314
G1 X5.62 Y-7.07 E331.349
G1 X6.21 Y-6.46 E331.385
G1 X6.73 Y-5.78 E331.42
G1 X7.17 Y-5.06 E331.455
G1 X7.55 Y-4.3 E331.49
G1 X7.84 Y-3.51 E331.526
G1 X8.06 Y-2.69 E331.561
G1 X8.18 Y-1.88 E331.595
G1 X8.23 Y-1 E331.631
G1 X8.18 Y-0.15 E331.667
G1 X8.06 Y0.69 E331.702
G1 X7.84 Y1.51 E331.737
G1 X7.55 Y2.3 E331.773
G1 X7.17 Y3.06 E331.808
G1 X6.73 Y3.78 E331.843
G1 X6.21 Y4.46 E331.878
G1 X5.62 Y5.07 E331.914
G1 X4.98 Y5.62 E331.949
G1 X4.28 Y6.11 E331.984
G1 X3.54 Y6.52 E332.02
G1 X2.76 Y6.86 E332.055
G1 X1.95 Y7.11 E332.09
G1 X1.12 Y7.28 E332.125
G1 X0.27 Y7.37 E332.161
G1 X-0.57 E332.196
G1 X-1.42 Y7.28 E332.231
G1 X-2.25 Y7.11 E332.266
G1 X-3.06 Y6.86 E332.302
G1 X-3.84 Y6.52 E332.337
G1 X-4.58 Y6.11 E332.372
G1 X-5.28 Y5.62 E332.408
G1 X-5.88 Y5.1 E332.441
G1 X-5.92 Y5.07
G1 X-5.57 Y4.71 F12000
G1 X-6.13 Y4.13 E332.474 F2400
G1 X-6.61 Y3.5 E332.507
G1 X-7.04 Y2.82 E332.54
G1 X-7.39 Y2.11 E332.573
G1 X-7.66 Y1.36 E332.607
G1 X-7.86 Y0.59 E332.64
G1 X-7.98 Y-0.2 E332.673
G1 X-8.02 Y-1 E332.706
G1 X-7.98 Y-1.8 E332.739
G1 X-7.86 Y-2.58 E332.772
G1 X-7.66 Y-3.36 E332.806
G1 X-7.39 Y-4.1 E332.839
G1 X-7.04 Y-4.82 E332.872
G1 X-6.61 Y-5.5 E332.905
G1 X-6.13 Y-6.13 E332.938
G1 X-5.57 Y-6.71 E332.971
G1 X-4.97 Y-7.23 E333.005
G1 X-4.31 Y-7.68 E333.038
G1 X-3.62 Y-8.07 E333.071
G1 X-2.88 Y-8.38 E333.104
G1 X-2.12 Y-8.62 E333.137
G1 X-1.34 Y-8.78 E333.17
G1 X-0.55 Y-8.86 E333.204
G1 X0.25 E333.237
G1 X1.04 Y-8.78 E333.27
G1 X1.82 Y-8.62 E333.303
G1 X2.59 Y-8.38 E333.336
G1 X3.32 Y-8.07 E333.369
G1 X4.02 Y-7.68 E333.402
G1 X4.67 Y-7.23 E333.436
G1 X5.28 Y-6.71 E333.469
G1 X5.83 Y-6.13 E333.502
G1 X6.31 Y-5.5 E333.535
G1 X6.74 Y-4.82 E333.568
G1 X7.09 Y-4.1 E333.602
G1 X7.36 Y-3.36 E333.635
G1 X7.57 Y-2.58 E333.668
G1 X7.68 Y-1.83 E333.7
G1 X7.73 Y-1 E333.734
G1 X7.69 Y-0.2 E333.767
G1 X7.57 Y0.59 E333.8
G1 X7.36 Y1.36 E333.834
G1 X7.09 Y2.11 E333.867
G1 X6.74 Y2.82 E333.9
G1 X6.31 Y3.5 E333.933
G1 X5.83 Y4.13 E333.966
G1 X5.28 Y4.71 E334
G1 X4.67 Y5.23 E334.033
G1 X4.02 Y5.68 E334.066
G1 X3.32 Y6.07 E334.099
G1 X2.59 Y6.39 E334.132
G1 X1.82 Y6.62 E334.165
G1 X1.04 Y6.78 E334.198
G1 X0.25 Y6.87 E334.232
G1 X-0.55 E334.265
G1 X-1.34 Y6.78 E334.298
G1 X-2.12 Y6.62 E334.331
G1 X-2.88 Y6.39 E334.364
G1 X-3.62 Y6.07 E334.397
G1 X-4.31 Y5.68 E334.431
G1 X-4.97 Y5.23 E334.464
G1 X-5.54 Y4.74 E334.495
G1 X-5.57 Y4.71
G1 X-5.23 Y4.35 F12000
; TYPE:WALL-OUTER
G1 X-5.75 Y3.8 E334.526 F1800
G1 X-6.2 Y3.21 E334.557
G1 X-6.6 Y2.58 E334.588
G1 X-6.93 Y1.91 E334.619
G1 X-7.19 Y1.21 E334.65
G1 X-7.37 Y0.48 E334.681
G1 X-7.49 Y-0.25 E334.712
G1 X-7.52 Y-1 E334.743
G1 X-7.49 Y-1.74 E334.774
G1 X-7.37 Y-2.48 E334.805
G1 X-7.19 Y-3.21 E334.836
G1 X-6.93 Y-3.91 E334.868
G1 X-6.6 Y-4.58 E334.899
G1 X-6.2 Y-5.21 E334.93
G1 X-5.75 Y-5.8 E334.961
G1 X-5.23 Y-6.34 E334.992
G1 X-4.66 Y-6.83 E335.023
G1 X-4.05 Y-7.26 E335.054
G1 X-3.4 Y-7.62 E335.085
G1 X-2.71 Y-7.92 E335.116
G1 X-2 Y-8.14 E335.147
G1 X-1.27 Y-8.29 E335.178
G1 X-0.52 Y-8.36 E335.209
G1 X0.22 E335.24
G1 X0.97 Y-8.29 E335.271
G1 X1.7 Y-8.14 E335.302
G1 X2.41 Y-7.92 E335.333
G1 X3.1 Y-7.62 E335.364
G1 X3.75 Y-7.26 E335.395
G1 X4.36 Y-6.83 E335.427
G1 X4.93 Y-6.34 E335.458
G1 X5.45 Y-5.8 E335.489
G1 X5.9 Y-5.21 E335.52
G1 X6.3 Y-4.58 E335.551
G1 X6.63 Y-3.91 E335.582
G1 X6.89 Y-3.21 E335.613
G1 X7.07 Y-2.48 E335.644
G1 X7.18 Y-1.78 E335.674
G1 X7.23 Y-1 E335.706
G1 X7.19 Y-0.25 E335.737
G1 X7.07 Y0.48 E335.768
G1 X6.89 Y1.21 E335.799
G1 X6.63 Y1.91 E335.83
G1 X6.3 Y2.58 E335.861
G1 X5.9 Y3.21 E335.892
G1 X5.45 Y3.8 E335.923
G1 X4.93 Y4.35 E335.954
G1 X4.36 Y4.83 E335.986
G1 X3.75 Y5.26 E336.017
G1 X3.1 Y5.62 E336.048
G1 X2.41 Y5.92 E336.079
G1 X1.7 Y6.14 E336.11
G1 X0.97 Y6.29 E336.141
G1 X0.22 Y6.37 E336.172
G1 X-0.52 E336.203
G1 X-1.27 Y6.29 E336.234
G1 X-2 Y6.14 E336.265
G1 X-2.71 Y5.92 E336.296
G1 X-3.4 Y5.62 E336.327
G1 X-4.05 Y5.26 E336.358
G1 X-4.66 Y4.83 E336.389
G1 X-5.19 Y4.38 E336.418
G1 X-5.23 Y4.35
G1 X-5.75 Y3.8
G1 X-6.2 Y3.21
G1 X-6.6 Y2.58
G1 X-6.93 Y1.91
G1 X-5.92 Y5.07 F12000
G1 E333.918 F6000
G1 Z1.4
G1 X-15.81 Y16.75 F12000
; TYPE:WALL-INNER
G1 Z0.9
G1 E336.418 F6000
G1 Y12.31 E336.603 F2400
G1 Y7.88 E336.787
G1 Y3.44 E336.972
G1 Y-1 E337.156
G1 Y-5.44 E337.341
G1 Y-9.87 E337.525
G1 Y-14.31 E337.71
G1 Y-18.75 E337.894
G1 X-11.33 E338.08
G1 X-6.86 E338.266
G1 X-2.39 E338.452
G1 X2.09 E338.638
G1 X6.56 E338.824
G1 X11.04 E339.01
G1 X15.51 E339.196
G1 Y-14.31 E339.381
G1 Y-9.87 E339.565
G1 Y-5.44 E339.75
G1 Y-1 E339.934
G1 Y3.44 E340.119
G1 Y7.88 E340.303
G1 Y12.31 E340.488
G1 Y16.75 E340.672
G1 X11.04 E340.858
G1 X6.58 E341.043
G1 X2.11 E341.229
G1 X-2.36 E341.415
G1 X-6.83 E341.601
G1 X-11.29 E341.786
G1 X-15.76 E341.972
G1 X-15.81
G1 X-16.31 Y17.25 F12000
G1 Y12.69 E342.162 F2400
G1 Y8.13 E342.351
G1 Y3.56 E342.541
G1 Y-1 E342.731
G1 Y-5.56 E342.92
G1 Y-10.12 E343.11
G1 Y-14.69 E343.3
G1 Y-19.25 E343.489
G1 X-11.69 E343.681
G1 X-7.07 E343.873
G1 X-2.46 E344.065
G1 X2.16 E344.257
G1 X6.78 E344.449
G1 X11.39 E344.641
G1 X16.01 E344.833
G1 Y-14.69 E345.023
G1 Y-10.12 E345.212
G1 Y-5.56 E345.402
G1 Y-1 E345.592
G1 Y3.56 E345.781
G1 Y8.13 E345.971
G1 Y12.69 E346.161
G1 Y17.25 E346.351
G1 X11.4 E346.542
G1 X6.79 E346.734
G1 X2.18 E346.926
G1 X-2.43 E347.117
G1 X-7.04 E347.309
G1 X-11.65 E347.5
G1 X-16.26 E347.692
G1 X-16.31
G1 X-16.81 Y17.75 F12000
; TYPE:WALL-OUTER
G1 Y13.06 E347.887 F1800
G1 Y8.38 E348.082
G1 Y3.69 E348.277
G1 Y-1 E348.472
G1 Y-5.69 E348.667
G1 Y-10.37 E348.861
G1 Y-15.06 E349.056
G1 Y-19.75 E349.251
G1 X-12.05 E349.449
G1 X-7.29 E349.647
G1 X-2.53 E349.845
G1 X2.23 E350.043
G1 X6.99 E350.241
G1 X11.75 E350.438
G1 X16.51 E350.636
G1 Y-15.06 E350.831
G1 Y-10.37 E351.026
G1 Y-5.69 E351.221
G1 Y-1 E351.416
G1 Y3.69 E351.611
G1 Y8.38 E351.806
G1 Y13.06 E352.001
G1 Y17.75 E352.195
G1 X11.76 E352.393
G1 X7 E352.591
G1 X2.25 E352.788
G1 X-2.5 E352.986
G1 X-7.25 E353.183
G1 X-12.01 E353.381
G1 X-16.76 E353.579
G1 X-16.81
G1 Y14.75
G1 X-15.81 Y16.75 F12000
G1 X-14.57 Y15.23
; TYPE:FILL
G1 X-12.26 Y11.23 E353.77 F2400
G1 X-9.96 Y7.24 E353.962
G1 X-7.65 Y3.25 E354.154
G1 X-6.33 Y5 F12000
G1 X-10.45 E354.325 F2400
G1 X-14.57 E354.496
G1 X-14.57 Y5.23 F12000
G1 X-12.28 Y1.27 E354.686 F2400
G1 X-10 Y-2.68 E354.876
G1 X-7.72 Y-6.64 E355.065
G1 X-5.43 Y-10.59 E355.255
G1 X-3.15 Y-14.54 E355.445
G1 X-0.87 Y-18.5 E355.635
G1 X0.87 Y-18.5 F12000
G1 X3.1 Y-14.63 E355.821 F2400
G1 X5.33 Y-10.76 E356.006
G1 X7.57 Y-6.89 E356.192
G1 X9.8 Y-3.03 E356.378
G1 X12.03 Y0.84 E356.563
G1 X14.27 Y4.71 E356.749
G1 X14.27 Y5 F12000
G1 X10.15 Y5 E356.92 F2400
G1 X6.03 E357.091
G1 X7.49 Y2.98 F12000
G1 X9.75 Y6.89 E357.279 F2400
G1 X12.01 Y10.8 E357.467
G1 X14.27 Y14.71 E357.655
G1 X14.27 Y15 F12000
G1 X9.46 E357.854 F2400
G1 X4.66 E358.054
G1 X-0.15 E358.254
G1 X-4.95 E358.454
G1 X-9.76 E358.654
G1 X-14.57 E358.853
G1 X-14.57 Y14.77 F12000
G1 X-13.57 Y16.5 E358.936 F2400
G1 X-9.53 F12000
G1 X-7.65 Y13.25 E359.092 F2400
G1 X-5.78 Y10.01 E359.248
G1 X-3.9 Y6.76 E359.404
G1 X-1.43 Y7.53 F12000
G1 X0.3 Y10.52 E359.547 F2400
G1 X2.03 Y13.51 E359.691
G1 X3.75 Y16.5 E359.834
G1 X2.02 Y16.5 F12000
G1 X4.47 Y12.26 E360.038 F2400
G1 X6.92 Y8.02 E360.242
G1 X9.37 Y3.77 E360.445
G1 X11.82 Y-0.47 E360.649
G1 X14.27 Y-4.71 E360.853
G1 X14.27 Y-5 F12000
G1 X10.88 E360.994 F2400
G1 X7.48 E361.135
G1 X7.99 Y-3.83 F12000
G1 X10.08 Y-7.46 E361.309 F2400
G1 X12.17 Y-11.09 E361.483
G1 X14.27 Y-14.71 E361.657
G1 X14.27 Y-15 F12000
G1 X9.46 E361.857 F2400
G1 X4.66 E362.057
G1 X-0.15 E362.256
G1 X-4.95 E362.456
G1 X-9.76 E362.656
G1 X-14.57 E362.856
G1 X-14.57 Y-15.23 F12000
G1 X-12.43 Y-11.54 E363.033 F2400
G1 X-10.3 Y-7.84 E363.21
G1 X-8.17 Y-4.15 E363.388
G1 X-7.78 Y-5 F12000
G1 X-11.17 E363.529 F2400
G1 X-14.57 E363.67
G1 X-14.57 Y-4.77 F12000
G1 X-12.58 Y-8.2 E363.834 F2400
G1 X-10.6 Y-11.63 E363.999
G1 X-8.62 Y-15.07 E364.164
G1 X-6.64 Y-18.5 E364.329
G1 X-4.91 Y-18.5 F12000
G1 X-3.2 Y-15.54 E364.471 F2400
G1 X-1.49 Y-12.57 E364.613
G1 X0.22 Y-9.61 E364.755
G1 X-0.22 Y-9.61 F12000
G1 X1.49 Y-12.57 E364.897 F2400
G1 X3.2 Y-15.54 E365.039
G1 X4.91 Y-18.5 E365.182
G1 X6.64 Y-18.5 F12000
G1 X8.55 Y-15.2 E365.34 F2400
G1 X10.45 Y-11.89 E365.499
G1 X12.36 Y-8.59 E365.657
G1 X14.27 Y-5.29 E365.816
G1 X14.27 Y-10 F12000
G1 X9.46 E366.016 F2400
G1 X4.66 E366.215
G1 X-0.15 E366.415
G1 X-4.95 E366.615
G1 X-9.76 E366.815
G1 X-14.57 E367.015
G1 X-14.57 Y-14.77 F12000
G1 X-12.41 Y-18.5 E367.194 F2400
G1 X-10.68 F12000
G1 X-8.71 Y-15.09 E367.357 F2400
G1 X-6.74 Y-11.68 E367.521
G1 X-4.78 Y-8.27 E367.684
G1 X-7.63 Y-4.01 F12000
G1 X-8.43 Y-1.38
G1 X-8.71 Y0
G1 X-11.64 E367.806 F2400
G1 X-14.57 E367.928
G1 X-14.57 Y4.77 F12000
G1 X-12.31 Y8.68 E368.116 F2400
G1 X-10.05 Y12.59 E368.303
G1 X-7.79 Y16.5 E368.491
G1 X-3.75 Y16.5 F12000
G1 X-2.01 Y13.49 E368.635 F2400
G1 X-0.27 Y10.47 E368.78
G1 X1.47 Y7.46 E368.925
G1 X3.83 Y6.64 F12000
G1 X5.73 Y9.93 E369.082 F2400
G1 X7.63 Y13.21 E369.24
G1 X9.53 Y16.5 E369.398
G1 X7.79 Y16.5 F12000
G1 X9.95 Y12.76 E369.577 F2400
G1 X12.11 Y9.03 E369.757
G1 X14.27 Y5.29 E369.936
G1 X14.27 Y10 F12000
G1 X9.46 E370.136 F2400
G1 X4.66 E370.336
G1 X-0.15 E370.536
G1 X-4.96 E370.735
G1 X-9.76 E370.935
G1 X-14.57 E371.135
G1 X-2.02 Y16.5 F12000
G1 X-4.11 Y12.88 E371.309 F2400
G1 X-6.2 Y9.26 E371.483
G1 X-8.29 Y5.64 E371.656
G1 X-10.38 Y2.01 E371.83
G1 X-12.47 Y-1.61 E372.004
G1 X-14.57 Y-5.23 E372.178
G1 X-5.09 Y-7.46 F12000
G1 X-0.51 Y-9.24
G1 X4.69 Y-8.13
G1 X6.69 Y-11.58 E372.344 F2400
G1 X8.68 Y-15.04 E372.51
G1 X10.68 Y-18.5 E372.676
G1 X12.41 Y-18.5 F12000
G1 X14.27 Y-15.29 E372.83 F2400
G1 Y0 F12000
G1 X11.34 E372.952 F2400
G1 X8.41 E373.074
G1 X14.27 Y15.29 F12000
G1 X13.57 Y16.5 E373.132 F2400
G1 X14.27 Y16 F12000
; TYPE:FILL
G1 X15.26 Y16 E373.173 F2400
G1 Y15.5 F12000
G1 X14.27 Y15.5 E373.214 F2400
G1 Y15 F12000
G1 X15.26 Y15 E373.255 F2400
G1 Y14.5 F12000
G1 X14.27 Y14.5 E373.297 F2400
G1 Y14 F12000
G1 X15.26 Y14 E373.338 F2400
G1 Y13.5 F12000
G1 X14.27 Y13.5 E373.379 F2400
G1 Y13 F12000
G1 X15.26 Y13 E373.42 F2400
G1 Y12.5 F12000
G1 X14.27 Y12.5 E373.462 F2400
G1 Y12 F12000
G1 X15.26 Y12 E373.503 F2400
G1 Y11.5 F12000
G1 X14.27 Y11.5 E373.544 F2400
G1 Y11 F12000
G1 X15.26 Y11 E373.585 F2400
G1 Y10.5 F12000
G1 X14.27 Y10.5 E373.627 F2400
G1 Y10 F12000
G1 X15.26 Y10 E373.668 F2400
G1 Y9.5 F12000
G1 X14.27 Y9.5 E373.709 F2400
G1 Y9 F12000
G1 X15.26 Y9 E373.75 F2400
G1 Y8.5 F12000
G1 X14.27 Y8.5 E373.792 F2400
G1 Y8 F12000
G1 X15.26 E373.833 F2400
G1 Y7.5 F12000
G1 X14.27 E373.874 F2400
G1 Y7 F12000
G1 X15.26 E373.915 F2400
G1 Y6.5 F12000
G1 X14.27 E373.957 F2400
G1 Y6 F12000
G1 X15.26 E373.998 F2400
G1 Y5.5 F12000
G1 X14.27 E374.039 F2400
G1 Y5 F12000
G1 X15.26 E374.08 F2400
G1 Y4.5 F12000
G1 X14.27 E374.122 F2400
G1 Y4 F12000
G1 X15.26 E374.163 F2400
G1 Y3.5 F12000
G1 X14.27 E374.204 F2400
G1 Y3 F12000
G1 X15.26 E374.245 F2400
G1 Y2.5 F12000
G1 X14.27 E374.287 F2400
G1 Y2 F12000
G1 X15.26 E374.328 F2400
G1 Y1.5 F12000
G1 X14.27 E374.369 F2400
G1 Y1 F12000
G1 X15.26 E374.41 F2400
G1 Y0.5 F12000
G1 X14.27 E374.451 F2400
G1 Y0 F12000
G1 X15.26 E374.493 F2400
G1 Y-0.5 F12000
G1 X14.27 E374.534 F2400
G1 X14.27 Y-1 F12000
G1 X15.26 E374.575 F2400
G1 Y-1.5 F12000
G1 X14.27 E374.616 F2400
G1 Y-2 F12000
G1 X15.26 E374.658 F2400
G1 Y-2.5 F12000
G1 X14.27 E374.699 F2400
G1 Y-3 F12000
G1 X15.26 E374.74 F2400
G1 Y-3.5 F12000
G1 X14.27 E374.781 F2400
G1 Y-4 F12000
G1 X15.26 E374.823 F2400
G1 Y-4.5 F12000
G1 X14.27 E374.864 F2400
G1 Y-5 F12000
G1 X15.26 E374.905 F2400
G1 Y-5.5 F12000
G1 X14.27 E374.946 F2400
G1 Y-6 F12000
G1 X15.26 E374.988 F2400
G1 Y-6.5 F12000
G1 X14.27 E375.029 F2400
G1 Y-7 F12000
G1 X15.26 E375.07 F2400
G1 Y-7.5 F12000
G1 X14.27 E375.111 F2400
G1 Y-8 F12000
G1 X15.26 E375.153 F2400
G1 Y-8.5 F12000
G1 X14.27 E375.194 F2400
G1 Y-9 F12000
G1 X15.26 E375.235 F2400
G1 Y-9.5 F12000
G1 X14.27 E375.276 F2400
G1 Y-10 F12000
G1 X15.26 E375.318 F2400
G1 Y-10.5 F12000
G1 X14.27 E375.359 F2400
G1 Y-11 F12000
G1 X15.26 E375.4 F2400
G1 Y-11.5 F12000
G1 X14.27 E375.441 F2400
G1 Y-12 F12000
G1 X15.26 E375.483 F2400
G1 Y-12.5 F12000
G1 X14.27 E375.524 F2400
G1 Y-13 F12000
G1 X15.26 E375.565 F2400
G1 Y-13.5 F12000
G1 X14.27 E375.606 F2400
G1 Y-14 F12000
G1 X15.26 E375.648 F2400
G1 Y-14.5 F12000
G1 X14.27 E375.689 F2400
G1 X14.27 Y-15 F12000
G1 X15.26 E375.73 F2400
G1 Y-15.5 F12000
G1 X14.27 E375.771 F2400
G1 Y-16 F12000
G1 X15.26 E375.812 F2400
G1 Y-16.5 F12000
G1 X14.27 E375.854 F2400
G1 Y-17 F12000
G1 X15.26 E375.895 F2400
G1 Y-17.5 F12000
G1 X14.27 E375.936 F2400
G1 Y-18 F12000
G1 X15.26 E375.977 F2400
G1 E373.477 F6000
G1 Z1.4
G1 X8.04 Y-1.02 F12000
G1 X6.96 Y2.37
G1 X3.53 Y6
G1 X-3.53 Y9.35
G1 X-14.57 Y16
G1 Z0.9
G1 E375.977 F6000
G1 X-15.56 E376.019 F2400
G1 Y15.5 F12000
G1 X-14.57 E376.06 F2400
G1 Y15 F12000
G1 X-15.56 E376.101 F2400
G1 X-15.56 Y14.5 F12000
G1 X-14.57 E376.142 F2400
G1 Y14 F12000
G1 X-15.56 E376.184 F2400
G1 Y13.5 F12000
G1 X-14.57 E376.225 F2400
G1 Y13 F12000
G1 X-15.56 E376.266 F2400
G1 Y12.5 F12000
G1 X-14.57 E376.307 F2400
G1 Y12 F12000
G1 X-15.56 E376.349 F2400
G1 Y11.5 F12000
G1 X-14.57 E376.39 F2400
G1 Y11 F12000
G1 X-15.56 E376.431 F2400
G1 Y10.5 F12000
G1 X-14.57 E376.472 F2400
G1 Y10 F12000
G1 X-15.56 E376.514 F2400
G1 Y9.5 F12000
G1 X-14.57 E376.555 F2400
G1 Y9 F12000
G1 X-15.56 E376.596 F2400
G1 Y8.5 F12000
G1 X-14.57 E376.637 F2400
G1 Y8 F12000
G1 X-15.56 E376.679 F2400
G1 Y7.5 F12000
G1 X-14.57 E376.72 F2400
G1 Y7 F12000
G1 X-15.56 E376.761 F2400
G1 Y6.5 F12000
G1 X-14.57 E376.802 F2400
G1 Y6 F12000
G1 X-15.56 E376.844 F2400
G1 Y5.5 F12000
G1 X-14.57 E376.885 F2400
G1 Y5 F12000
G1 X-15.56 E376.926 F2400
G1 Y4.5 F12000
G1 X-14.57 E376.967 F2400
G1 Y4 F12000
G1 X-15.56 E377.009 F2400
G1 Y3.5 F12000
G1 X-14.57 E377.05 F2400
G1 Y3 F12000
G1 X-15.56 E377.091 F2400
G1 Y2.5 F12000
G1 X-14.57 E377.132 F2400
G1 Y2 F12000
G1 X-15.56 E377.173 F2400
G1 Y1.5 F12000
G1 X-14.57 E377.215 F2400
G1 Y1 F12000
G1 X-15.56 E377.256 F2400
G1 Y0.5 F12000
G1 X-14.57 E377.297 F2400
G1 Y0 F12000
G1 X-15.56 E377.338 F2400
G1 Y-0.5 F12000
G1 X-14.57 E377.38 F2400
G1 X-14.57 Y-1 F12000
G1 X-15.56 E377.421 F2400
G1 Y-1.5 F12000
G1 X-14.57 E377.462 F2400
G1 Y-2 F12000
G1 X-15.56 E377.503 F2400
G1 Y-2.5 F12000
G1 X-14.57 E377.545 F2400
G1 Y-3 F12000
G1 X-15.56 E377.586 F2400
G1 Y-3.5 F12000
G1 X-14.57 E377.627 F2400
G1 Y-4 F12000
G1 X-15.56 E377.668 F2400
G1 Y-4.5 F12000
G1 X-14.57 E377.71 F2400
G1 Y-5 F12000
G1 X-15.56 E377.751 F2400
G1 Y-5.5 F12000
G1 X-14.57 E377.792 F2400
G1 Y-6 F12000
G1 X-15.56 E377.833 F2400
G1 Y-6.5 F12000
G1 X-14.57 E377.875 F2400
G1 Y-7 F12000
G1 X-15.56 E377.916 F2400
G1 Y-7.5 F12000
G1 X-14.57 E377.957 F2400
G1 Y-8 F12000
G1 X-15.56 E377.998 F2400
G1 Y-8.5 F12000
G1 X-14.57 Y-8.5 E378.04 F2400
G1 Y-9 F12000
G1 X-15.56 Y-9 E378.081 F2400
G1 Y-9.5 F12000
G1 X-14.57 Y-9.5 E378.122 F2400
G1 Y-10 F12000
G1 X-15.56 Y-10 E378.163 F2400
G1 Y-10.5 F12000
G1 X-14.57 Y-10.5 E378.205 F2400
G1 Y-11 F12000
G1 X-15.56 Y-11 E378.246 F2400
G1 Y-11.5 F12000
G1 X-14.57 Y-11.5 E378.287 F2400
G1 Y-12 F12000
G1 X-15.56 Y-12 E378.328 F2400
G1 Y-12.5 F12000
G1 X-14.57 Y-12.5 E378.37 F2400
G1 Y-13 F12000
G1 X-15.56 Y-13 E378.411 F2400
G1 Y-13.5 F12000
G1 X-14.57 Y-13.5 E378.452 F2400
G1 Y-14 F12000
G1 X-15.56 Y-14 E378.493 F2400
G1 Y-14.5 F12000
G1 X-14.57 Y-14.5 E378.534 F2400
G1 Y-15 F12000
G1 X-15.56 Y-15 E378.576 F2400
G1 Y-15.5 F12000
G1 X-14.57 Y-15.5 E378.617 F2400
G1 Y-16 F12000
G1 X-15.56 Y-16 E378.658 F2400
G1 Y-16.5 F12000
G1 X-14.57 E378.699 F2400
G1 Y-17 F12000
G1 X-15.56 E378.741 F2400
G1 Y-17.5 F12000
G1 X-14.57 E378.782 F2400
G1 Y-18 F12000
G1 X-15.56 E378.823 F2400
G1 E376.323 F6000
G1 Z1.4
G1 X-20 Y-9.37 F12000
; TYPE:SUPPORT
G1 Z0.9
G1 E378.823 F6000
G1 Y-5.18 E378.997 F2400
G1 Y-1 E379.171
G1 Y3.18 E379.345
G1 Y7.37 E379.519
G1 X-18.4 Y5 F12000
G1 X-22.5 E379.689 F2400
G1 Y2.5 F12000
G1 X-18.4 E379.86 F2400
G1 Y0 F12000
G1 X-22.5 E380.03 F2400
G1 Y-2.5 F12000
G1 X-18.4 E380.201 F2400
G1 Y-5 F12000
G1 X-22.5 E380.371 F2400
G1 Y-7.5 F12000
G1 X-18.4 E380.542 F2400
; Layer Change GCode
; LAYER:4
; LAYER_HEIGHT:0.2
; TYPE:FILL
M400
M106 S216
G1 E378.042 F6000
G1 Z1.4
G1 Z1.6 F12000
G1 X-5.92 Y-7.07
; TYPE:WALL-INNER
G1 Z1.1
G1 E380.542 F6000
G1 X-5.28 Y-7.62 E380.577 F2400
G1 X-4.58 Y-8.11 E380.612
G1 X-3.84 Y-8.52 E380.648
G1 X-3.06 Y-8.85 E380.683
G1 X-2.25 Y-9.11 E380.718
G1 X-1.42 Y-9.28 E380.753
G1 X-0.57 Y-9.36 E380.789
G1 X0.27 E380.824
G1 X1.12 Y-9.28 E380.859
G1 X1.95 Y-9.11 E380.894
G1 X2.76 Y-8.85 E380.93
G1 X3.54 Y-8.52 E380.965
G1 X4.28 Y-8.11 E381
G1 X4.98 Y-7.62 E381.036
G1 X5.62 Y-7.07 E381.071
G1 X6.21 Y-6.46 E381.106
G1 X6.73 Y-5.78 E381.141
G1 X7.17 Y-5.06 E381.177
G1 X7.55 Y-4.3 E381.212
G1 X7.84 Y-3.51 E381.247
G1 X8.06 Y-2.69 E381.282
G1 X8.18 Y-1.89 E381.316
G1 X8.23 Y-1 E381.353
G1 X8.18 Y-0.15 E381.388
G1 X8.06 Y0.69 E381.424
G1 X7.84 Y1.51 E381.459
G1 X7.55 Y2.3 E381.494
G1 X7.17 Y3.06 E381.529
G1 X6.73 Y3.78 E381.565
G1 X6.21 Y4.46 E381.6
G1 X5.62 Y5.07 E381.635
G1 X4.98 Y5.62 E381.67
G1 X4.28 Y6.11 E381.706
G1 X3.54 Y6.52 E381.741
G1 X2.76 Y6.86 E381.776
G1 X1.95 Y7.11 E381.812
G1 X1.12 Y7.28 E381.847
G1 X0.27 Y7.37 E381.882
G1 X-0.57 E381.917
G1 X-1.42 Y7.28 E381.953
G1 X-2.25 Y7.11 E381.988
G1 X-3.06 Y6.86 E382.023
G1 X-3.84 Y6.52 E382.058
G1 X-4.58 Y6.11 E382.094
G1 X-5.28 Y5.62 E382.129
G1 X-5.92 Y5.07 E382.164
G1 X-6.51 Y4.46 E382.2
G1 X-7.02 Y3.78 E382.235
G1 X-7.47 Y3.06 E382.27
G1 X-7.85 Y2.3 E382.305
G1 X-8.14 Y1.51 E382.341
G1 X-8.35 Y0.69 E382.376
G1 X-8.48 Y-0.15 E382.411
G1 X-8.53 Y-1 E382.446
G1 X-8.48 Y-1.85 E382.482
G1 X-8.35 Y-2.69 E382.517
G1 X-8.14 Y-3.51 E382.552
G1 X-7.85 Y-4.3 E382.588
G1 X-7.47 Y-5.06 E382.623
G1 X-7.02 Y-5.78 E382.658
G1 X-6.51 Y-6.46 E382.693
G1 X-5.95 Y-7.03 E382.727
G1 X-5.92 Y-7.07
G1 X-5.57 Y-6.71 F12000
G1 X-4.97 Y-7.23 E382.76 F2400
G1 X-4.31 Y-7.68 E382.793
G1 X-3.62 Y-8.07 E382.826
G1 X-2.88 Y-8.38 E382.859
G1 X-2.12 Y-8.62 E382.892
G1 X-1.34 Y-8.78 E382.926
G1 X-0.55 Y-8.86 E382.959
G1 X0.25 E382.992
G1 X1.04 Y-8.78 E383.025
G1 X1.82 Y-8.62 E383.058
G1 X2.59 Y-8.38 E383.091
G1 X3.32 Y-8.07 E383.125
G1 X4.02 Y-7.68 E383.158
G1 X4.67 Y-7.23 E383.191
G1 X5.28 Y-6.71 E383.224
G1 X5.83 Y-6.13 E383.257
G1 X6.31 Y-5.5 E383.29
G1 X6.74 Y-4.82 E383.324
G1 X7.09 Y-4.1 E383.357
G1 X7.36 Y-3.36 E383.39
G1 X7.57 Y-2.58 E383.423
G1 X7.68 Y-1.84 E383.454
G1 X7.73 Y-1 E383.489
G1 X7.69 Y-0.2 E383.523
G1 X7.57 Y0.59 E383.556
G1 X7.36 Y1.36 E383.589
G1 X7.09 Y2.11 E383.622
G1 X6.74 Y2.82 E383.655
G1 X6.31 Y3.5 E383.688
G1 X5.83 Y4.13 E383.721
G1 X5.28 Y4.71 E383.755
G1 X4.67 Y5.23 E383.788
G1 X4.02 Y5.68 E383.821
G1 X3.32 Y6.07 E383.854
G1 X2.59 Y6.39 E383.887
G1 X1.82 Y6.62 E383.921
G1 X1.04 Y6.78 E383.954
G1 X0.25 Y6.87 E383.987
G1 X-0.55 E384.02
G1 X-1.34 Y6.78 E384.053
G1 X-2.12 Y6.62 E384.086
G1 X-2.88 Y6.39 E384.119
G1 X-3.62 Y6.07 E384.153
G1 X-4.31 Y5.68 E384.186
G1 X-4.97 Y5.23 E384.219
G1 X-5.57 Y4.71 E384.252
G1 X-6.13 Y4.13 E384.285
G1 X-6.61 Y3.5 E384.318
G1 X-7.04 Y2.82 E384.352
G1 X-7.39 Y2.11 E384.385
G1 X-7.66 Y1.36 E384.418
G1 X-7.86 Y0.59 E384.451
G1 X-7.98 Y-0.2 E384.484
G1 X-8.02 Y-1 E384.517
G1 X-7.98 Y-1.8 E384.551
G1 X-7.86 Y-2.58 E384.584
G1 X-7.66 Y-3.36 E384.617
G1 X-7.39 Y-4.1 E384.65
G1 X-7.04 Y-4.82 E384.683
G1 X-6.61 Y-5.5 E384.716
G1 X-6.13 Y-6.13 E384.75
G1 X-5.61 Y-6.67 E384.781
G1 X-5.57 Y-6.71
G1 X-5.23 Y-6.34 F12000
; TYPE:WALL-OUTER
G1 X-4.66 Y-6.83 E384.812 F1800
G1 X-4.05 Y-7.26 E384.843
G1 X-3.4 Y-7.62 E384.874
G1 X-2.71 Y-7.92 E384.905
G1 X-2 Y-8.14 E384.936
G1 X-1.27 Y-8.29 E384.967
G1 X-0.52 Y-8.36 E384.998
G1 X0.22 E385.029
G1 X0.97 Y-8.29 E385.06
G1 X1.7 Y-8.14 E385.091
G1 X2.41 Y-7.92 E385.122
G1 X3.1 Y-7.62 E385.153
G1 X3.75 Y-7.26 E385.184
G1 X4.36 Y-6.83 E385.215
G1 X4.93 Y-6.34 E385.246
G1 X5.45 Y-5.8 E385.278
G1 X5.9 Y-5.21 E385.309
G1 X6.3 Y-4.58 E385.34
G1 X6.63 Y-3.91 E385.371
G1 X6.89 Y-3.21 E385.402
G1 X7.07 Y-2.48 E385.433
G1 X7.18 Y-1.79 E385.462
G1 X7.23 Y-1 E385.495
G1 X7.19 Y-0.25 E385.526
G1 X7.07 Y0.48 E385.557
G1 X6.89 Y1.21 E385.588
G1 X6.63 Y1.91 E385.619
G1 X6.3 Y2.58 E385.65
G1 X5.9 Y3.21 E385.681
G1 X5.45 Y3.8 E385.712
G1 X4.93 Y4.35 E385.743
G1 X4.36 Y4.83 E385.774
G1 X3.75 Y5.26 E385.806
G1 X3.1 Y5.62 E385.837
G1 X2.41 Y5.92 E385.868
G1 X1.7 Y6.14 E385.899
G1 X0.97 Y6.29 E385.93
G1 X0.22 Y6.37 E385.961
G1 X-0.52 E385.992
G1 X-1.27 Y6.29 E386.023
G1 X-2 Y6.14 E386.054
G1 X-2.71 Y5.92 E386.085
G1 X-3.4 Y5.62 E386.116
G1 X-4.05 Y5.26 E386.147
G1 X-4.66 Y4.83 E386.178
G1 X-5.23 Y4.35 E386.209
G1 X-5.75 Y3.8 E386.24
G1 X-6.2 Y3.21 E386.271
G1 X-6.6 Y2.58 E386.302
G1 X-6.93 Y1.91 E386.333
G1 X-7.19 Y1.21 E386.365
G1 X-7.37 Y0.48 E386.396
G1 X-7.49 Y-0.25 E386.427
G1 X-7.52 Y-1 E386.458
G1 X-7.49 Y-1.74 E386.489
G1 X-7.37 Y-2.48 E386.52
G1 X-7.19 Y-3.21 E386.551
G1 X-6.93 Y-3.91 E386.582
G1 X-6.6 Y-4.58 E386.613
G1 X-6.2 Y-5.21 E386.644
G1 X-5.75 Y-5.8 E386.675
G1 X-5.26 Y-6.31 E386.704
G1 X-5.23 Y-6.34
G1 X-4.66 Y-6.83
G1 X-4.05 Y-7.26
G1 X-3.4 Y-7.62
G1 X-2.71 Y-7.92
G1 X-5.92 Y-7.07 F12000
G1 E384.204 F6000
G1 Z1.6
G1 X-16 Y-18.75 F12000
; TYPE:WALL-INNER
G1 Z1.1
G1 E386.704 F6000
G1 X-11.47 E386.892 F2400
G1 X-6.94 E387.081
G1 X-2.41 E387.269
G1 X2.12 E387.457
G1 X6.64 E387.645
G1 X11.17 E387.834
G1 X15.7 E388.022
G1 Y-14.31 E388.206
G1 Y-9.87 E388.391
G1 Y-5.44 E388.575
G1 Y-1 E388.76
G1 Y3.44 E388.944
G1 Y7.88 E389.129
G1 Y12.31 E389.313
G1 Y16.75 E389.498
G1 X11.17 E389.686
G1 X6.64 E389.874
G1 X2.12 E390.063
G1 X-2.41 E390.251
G1 X-6.94 E390.439
G1 X-11.47 E390.627
G1 X-16 E390.816
G1 Y12.32 E391
G1 Y7.89 E391.184
G1 Y3.46 E391.368
G1 Y-0.98 E391.553
G1 Y-5.41 E391.737
G1 Y-9.84 E391.921
G1 Y-14.27 E392.105
G1 Y-18.7 E392.289
G1 X-16 Y-18.75
G1 X-16.5 Y-19.25 F12000
G1 X-11.83 E392.484 F2400
G1 X-7.16 E392.678
G1 X-2.48 E392.872
G1 X2.19 E393.066
G1 X6.86 E393.261
G1 X11.53 E393.455
G1 X16.2 E393.649
G1 Y-14.69 E393.839
G1 Y-10.12 E394.028
G1 Y-5.56 E394.218
G1 Y-1 E394.408
G1 Y3.56 E394.597
G1 Y8.13 E394.787
G1 Y12.69 E394.977
G1 Y17.25 E395.166
G1 X11.53 E395.361
G1 X6.86 E395.555
G1 X2.19 E395.749
G1 X-2.48 E395.943
G1 X-7.16 E396.137
G1 X-11.83 E396.332
G1 X-16.5 E396.526
G1 Y12.69 E396.715
G1 Y8.14 E396.905
G1 Y3.58 E397.094
G1 Y-0.98 E397.283
G1 Y-5.53 E397.473
G1 Y-10.09 E397.662
G1 Y-14.64 E397.852
G1 Y-19.2 E398.041
G1 X-16.5 Y-19.25
G1 X-17 Y-19.75 F12000
; TYPE:WALL-OUTER
G1 X-12.18 E398.241 F1800
G1 X-7.37 E398.441
G1 X-2.56 E398.642
G1 X2.26 E398.842
G1 X7.07 E399.042
G1 X11.89 E399.242
G1 X16.7 E399.442
G1 Y-15.06 E399.637
G1 Y-10.37 E399.832
G1 Y-5.69 E400.027
G1 Y-1 E400.222
G1 Y3.69 E400.417
G1 Y8.38 E400.611
G1 Y13.06 E400.806
G1 Y17.75 E401.001
G1 X11.89 E401.201
G1 X7.07 E401.402
G1 X2.26 E401.602
G1 X-2.56 E401.802
G1 X-7.37 E402.002
G1 X-12.18 E402.202
G1 X-17 E402.402
G1 Y13.07 E402.597
G1 Y8.39 E402.791
G1 Y3.71 E402.986
G1 Y-0.98 E403.181
G1 Y-5.66 E403.375
G1 Y-10.34 E403.57
G1 Y-15.02 E403.765
G1 Y-19.7 E403.959
G1 X-17 Y-19.75
G1 X-14
G1 X-16 Y-18.75 F12000
G1 X-15.18 Y-16.29
; TYPE:FILL
G1 X-12.84 Y-12.24 E404.153 F2400
G1 X-10.51 Y-8.2 E404.348
G1 X-8.17 Y-4.15 E404.542
G1 X-7.78 Y-5 F12000
G1 X-11.48 E404.696 F2400
G1 X-15.18 E404.849
G1 X-15.18 Y-3.71 F12000
G1 X-13.04 Y-7.41 E405.027 F2400
G1 X-10.91 Y-11.1 E405.204
G1 X-8.77 Y-14.8 E405.382
G1 X-6.64 Y-18.5 E405.559
G1 X-4.91 Y-18.5 F12000
G1 X-3.2 Y-15.54 E405.701 F2400
G1 X-1.49 Y-12.57 E405.844
G1 X0.22 Y-9.61 E405.986
G1 X-0.22 Y-9.61 F12000
G1 X1.49 Y-12.57 E406.128 F2400
G1 X3.2 Y-15.54 E406.27
G1 X4.91 Y-18.5 E406.412
G1 X6.64 Y-18.5 F12000
G1 X8.7 Y-14.93 E406.584 F2400
G1 X10.76 Y-11.36 E406.755
G1 X12.82 Y-7.8 E406.926
G1 X14.88 Y-4.23 E407.097
G1 Y-5 F12000
G1 X11.18 E407.251 F2400
G1 X7.48 E407.405
G1 X7.99 Y-3.83 F12000
G1 X10.28 Y-7.81 E407.596 F2400
G1 X12.58 Y-11.79 E407.787
G1 X14.88 Y-15.77 E407.978
G1 X14.88 Y-15 F12000
G1 X10.59 E408.157 F2400
G1 X6.29 E408.335
G1 X2 E408.514
G1 X-2.3 E408.692
G1 X-6.59 E408.871
G1 X-10.88 E409.049
G1 X-15.18 E409.228
G1 X-15.18 Y-13.71 F12000
G1 X-13.8 Y-16.1 E409.343 F2400
G1 X-12.41 Y-18.5 E409.457
G1 X-10.68 Y-18.5 F12000
G1 X-8.71 Y-15.09 E409.621 F2400
G1 X-6.74 Y-11.68 E409.785
G1 X-4.78 Y-8.27 E409.948
G1 X-7.63 Y-4.01 F12000
G1 X-8.43 Y-1.38
G1 X-8.71 Y0
G1 X-11.94 E410.083 F2400
G1 X-15.18 E410.217
G1 X-15.18 Y3.71 F12000
G1 X-12.72 Y7.97 E410.422 F2400
G1 X-10.26 Y12.24 E410.626
G1 X-7.79 Y16.5 E410.831
G1 X-9.53 Y16.5 F12000
G1 X-7.65 Y13.25 E410.987 F2400
G1 X-5.78 Y10.01 E411.143
G1 X-3.9 Y6.76 E411.299
G1 X-1.43 Y7.53 F12000
G1 X0.3 Y10.52 E411.442 F2400
G1 X2.03 Y13.51 E411.586
G1 X3.75 Y16.5 E411.729
G1 X2.02 Y16.5 F12000
G1 X4.16 Y12.79 E411.907 F2400
G1 X6.31 Y9.08 E412.086
G1 X8.45 Y5.36 E412.264
G1 X10.59 Y1.65 E412.442
G1 X12.74 Y-2.06 E412.62
G1 X14.88 Y-5.77 E412.798
G1 Y-10 F12000
G1 X10.59 E412.977 F2400
G1 X6.29 E413.155
G1 X2 E413.334
G1 X-2.3 E413.512
G1 X-6.59 E413.691
G1 X-10.88 E413.87
G1 X-15.18 E414.048
G1 X-15.18 Y-6.29 F12000
G1 X-12.98 Y-2.49 E414.23 F2400
G1 X-10.79 Y1.31 E414.413
G1 X-8.6 Y5.11 E414.595
G1 X-6.41 Y8.9 E414.777
G1 X-4.21 Y12.7 E414.96
G1 X-2.02 Y16.5 E415.142
G1 X-3.75 Y16.5 F12000
G1 X-2.01 Y13.49 E415.287 F2400
G1 X-0.27 Y10.47 E415.431
G1 X1.47 Y7.46 E415.576
G1 X3.83 Y6.64 F12000
G1 X5.73 Y9.93 E415.734 F2400
G1 X7.63 Y13.21 E415.891
G1 X9.53 Y16.5 E416.049
G1 X7.79 Y16.5 F12000
G1 X10.16 Y12.41 E416.245 F2400
G1 X12.52 Y8.32 E416.442
G1 X14.88 Y4.23 E416.638
G1 X14.88 Y5 F12000
G1 X10.46 Y5 E416.822 F2400
G1 X6.03 E417.006
G1 X7.49 Y2.98 F12000
G1 X9.96 Y7.24 E417.211 F2400
G1 X12.42 Y11.51 E417.415
G1 X14.88 Y15.77 E417.62
G1 X14.88 Y15 F12000
G1 X10.59 Y15 E417.799 F2400
G1 X6.29 E417.977
G1 X2 E418.156
G1 X-2.3 E418.334
G1 X-6.59 E418.513
G1 X-10.88 E418.691
G1 X-15.18 E418.87
G1 X-15.18 Y16.29 F12000
G1 X-13.3 Y13.03 E419.026 F2400
G1 X-11.41 Y9.77 E419.183
G1 X-9.53 Y6.51 E419.339
G1 X-7.65 Y3.25 E419.496
G1 X-6.33 Y5 F12000
G1 X-10.76 E419.68 F2400
G1 X-15.18 E419.863
G1 X-15.18 Y6.29 F12000
G1 X-12.79 Y2.16 E420.062 F2400
G1 X-10.41 Y-1.97 E420.26
G1 X-8.02 Y-6.11 E420.458
G1 X-5.64 Y-10.24 E420.657
G1 X-3.25 Y-14.37 E420.855
G1 X-0.87 Y-18.5 E421.053
G1 X0.87 Y-18.5 F12000
G1 X3.2 Y-14.45 E421.247 F2400
G1 X5.54 Y-10.41 E421.442
G1 X7.87 Y-6.36 E421.636
G1 X10.21 Y-2.32 E421.83
G1 X12.54 Y1.73 E422.024
G1 X14.88 Y5.77 E422.218
G1 X14.88 Y10 F12000
G1 X10.59 Y10 E422.397 F2400
G1 X6.29 E422.575
G1 X2 E422.754
G1 X-2.3 E422.932
G1 X-6.59 E423.111
G1 X-10.88 E423.289
G1 X-15.18 E423.468
G1 X-15.18 Y13.71 F12000
G1 X-13.57 Y16.5 E423.602 F2400
G1 E421.102 F6000
G1 Z1.6
G1 X0 F12000
G1 X13.57
G1 Z1.1
G1 E423.602 F6000
G1 X14.88 Y14.23 E423.711 F2400
G1 Y0 F12000
G1 X11.65 E423.845 F2400
G1 X8.41 E423.98
G1 X6.94 Y-4.99 F12000
G1 X4.69 Y-8.13
G1 X6.69 Y-11.58 E424.146 F2400
G1 X8.68 Y-15.04 E424.312
G1 X10.68 Y-18.5 E424.478
G1 X12.41 Y-18.5 F12000
G1 X14.88 Y-14.23 E424.683 F2400
G1 E422.183 F6000
G1 Z1.6
G1 X15 Y-18.5 F12000
; TYPE:FILL
G1 Z1.1
G1 E424.683 F6000
G1 X15 Y-13.5 E424.891 F2400
G1 Y-8.5 E425.098
G1 Y-3.5 E425.306
G1 Y1.5 E425.514
G1 Y6.5 E425.722
G1 Y11.5 E425.93
G1 Y16.5 E426.138
G1 E423.638 F6000
G1 Z1.6
G1 X4.83 F12000
G1 X-5.33
G1 X-15.5
G1 Z1.1
G1 E426.138 F6000
G1 Y11.5 E426.346 F2400
G1 Y6.5 E426.553
G1 Y1.5 E426.761
G1 Y-3.5 E426.969
G1 Y-8.5 E427.177
G1 Y-13.5 E427.385
G1 Y-18.5 E427.593
G1 E425.093 F6000
G1 Z1.6
G1 X-20 Y-9.37 F12000
; TYPE:SUPPORT
G1 Z1.1
G1 E427.593 F6000
G1 Y-5.18 E427.767 F2400
G1 Y-1 E427.941
G1 Y3.18 E428.115
G1 Y7.37 E428.289
G1 X-18.4 Y5 F12000
G1 X-22.5 E428.459 F2400
G1 Y2.5 F12000
G1 X-18.4 E428.63 F2400
G1 Y0 F12000
G1 X-22.5 E428.8 F2400
G1 Y-2.5 F12000
G1 X-18.4 E428.97 F2400
G1 Y-5 F12000
G1 X-22.5 E429.141 F2400
G1 Y-7.5 F12000
G1 X-18.4 E429.311 F2400
; Layer Change GCode
; LAYER:5
; LAYER_HEIGHT:0.2
; TYPE:FILL
M400
M106 S188
G1 E426.811 F6000
G1 Z1.6
G1 Z1.8 F12000
G1 X-5.92 Y-7.07
; TYPE:WALL-INNER
G1 Z1.3
G1 E429.311 F6000
G1 X-5.28 Y-7.62 E429.347 F2400
G1 X-4.58 Y-8.11 E429.382
G1 X-3.84 Y-8.52 E429.417
G1 X-3.06 Y-8.85 E429.452
G1 X-2.25 Y-9.11 E429.488
G1 X-1.42 Y-9.28 E429.523
G1 X-0.57 Y-9.36 E429.558
G1 X0.27 E429.593
G1 X1.12 Y-9.28 E429.629
G1 X1.95 Y-9.11 E429.664
G1 X2.76 Y-8.85 E429.699
G1 X3.54 Y-8.52 E429.735
G1 X4.28 Y-8.11 E429.77
G1 X4.98 Y-7.62 E429.805
G1 X5.62 Y-7.07 E429.84
G1 X6.21 Y-6.46 E429.876
G1 X6.73 Y-5.78 E429.911
G1 X7.17 Y-5.06 E429.946
G1 X7.55 Y-4.3 E429.981
G1 X7.84 Y-3.51 E430.017
G1 X8.06 Y-2.69 E430.052
G1 X8.17 Y-1.9 E430.085
G1 X8.23 Y-1 E430.122
G1 X8.18 Y-0.15 E430.158
G1 X8.06 Y0.69 E430.193
G1 X7.84 Y1.51 E430.228
G1 X7.55 Y2.3 E430.264
G1 X7.17 Y3.06 E430.299
G1 X6.73 Y3.78 E430.334
G1 X6.21 Y4.46 E430.369
G1 X5.62 Y5.07 E430.405
G1 X4.98 Y5.62 E430.44
G1 X4.28 Y6.11 E430.475
G1 X3.54 Y6.52 E430.511
G1 X2.76 Y6.86 E430.546
G1 X1.95 Y7.11 E430.581
G1 X1.12 Y7.28 E430.616
G1 X0.27 Y7.37 E430.652
G1 X-0.57 E430.687
G1 X-1.42 Y7.28 E430.722
G1 X-2.25 Y7.11 E430.757
G1 X-3.06 Y6.86 E430.793
G1 X-3.84 Y6.52 E430.828
G1 X-4.58 Y6.11 E430.863
G1 X-5.28 Y5.62 E430.899
G1 X-5.92 Y5.07 E430.934
G1 X-6.51 Y4.46 E430.969
G1 X-7.02 Y3.78 E431.004
G1 X-7.47 Y3.06 E431.04
G1 X-7.85 Y2.3 E431.075
G1 X-8.14 Y1.51 E431.11
G1 X-8.35 Y0.69 E431.145
G1 X-8.48 Y-0.15 E431.181
G1 X-8.53 Y-1 E431.216
G1 X-8.48 Y-1.85 E431.251
G1 X-8.35 Y-2.69 E431.287
G1 X-8.14 Y-3.51 E431.322
G1 X-7.85 Y-4.3 E431.357
G1 X-7.47 Y-5.06 E431.392
G1 X-7.02 Y-5.78 E431.428
G1 X-6.51 Y-6.46 E431.463
G1 X-5.95 Y-7.03 E431.496
G1 X-5.92 Y-7.07
G1 X-5.57 Y-6.71 F12000
G1 X-4.97 Y-7.23 E431.529 F2400
G1 X-4.31 Y-7.68 E431.563
G1 X-3.62 Y-8.07 E431.596
G1 X-2.88 Y-8.38 E431.629
G1 X-2.12 Y-8.62 E431.662
G1 X-1.34 Y-8.78 E431.695
G1 X-0.55 Y-8.86 E431.728
G1 X0.25 E431.761
G1 X1.04 Y-8.78 E431.795
G1 X1.82 Y-8.62 E431.828
G1 X2.59 Y-8.38 E431.861
G1 X3.32 Y-8.07 E431.894
G1 X4.02 Y-7.68 E431.927
G1 X4.67 Y-7.23 E431.96
G1 X5.28 Y-6.71 E431.994
G1 X5.83 Y-6.13 E432.027
G1 X6.31 Y-5.5 E432.06
G1 X6.74 Y-4.82 E432.093
G1 X7.09 Y-4.1 E432.126
G1 X7.36 Y-3.36 E432.159
G1 X7.57 Y-2.58 E432.193
G1 X7.68 Y-1.85 E432.224
G1 X7.73 Y-1 E432.259
G1 X7.69 Y-0.2 E432.292
G1 X7.57 Y0.59 E432.325
G1 X7.36 Y1.36 E432.358
G1 X7.09 Y2.11 E432.392
G1 X6.74 Y2.82 E432.425
G1 X6.31 Y3.5 E432.458
G1 X5.83 Y4.13 E432.491
G1 X5.28 Y4.71 E432.524
G1 X4.67 Y5.23 E432.557
G1 X4.02 Y5.68 E432.591
G1 X3.32 Y6.07 E432.624
G1 X2.59 Y6.39 E432.657
G1 X1.82 Y6.62 E432.69
G1 X1.04 Y6.78 E432.723
G1 X0.25 Y6.87 E432.756
G1 X-0.55 E432.789
G1 X-1.34 Y6.78 E432.823
G1 X-2.12 Y6.62 E432.856
G1 X-2.88 Y6.39 E432.889
G1 X-3.62 Y6.07 E432.922
G1 X-4.31 Y5.68 E432.955
G1 X-4.97 Y5.23 E432.988
G1 X-5.57 Y4.71 E433.022
G1 X-6.13 Y4.13 E433.055
G1 X-6.61 Y3.5 E433.088
G1 X-7.04 Y2.82 E433.121
G1 X-7.39 Y2.11 E433.154
G1 X-7.66 Y1.36 E433.188
G1 X-7.86 Y0.59 E433.221
G1 X-7.98 Y-0.2 E433.254
G1 X-8.02 Y-1 E433.287
G1 X-7.98 Y-1.8 E433.32
G1 X-7.86 Y-2.58 E433.353
G1 X-7.66 Y-3.36 E433.386
G1 X-7.39 Y-4.1 E433.42
G1 X-7.04 Y-4.82 E433.453
G1 X-6.61 Y-5.5 E433.486
G1 X-6.13 Y-6.13 E433.519
G1 X-5.61 Y-6.67 E433.55
G1 X-5.57 Y-6.71
G1 X-5.23 Y-6.34 F12000
; TYPE:WALL-OUTER
G1 X-4.66 Y-6.83 E433.581 F1800
G1 X-4.05 Y-7.26 E433.612
G1 X-3.4 Y-7.62 E433.643
G1 X-2.71 Y-7.92 E433.674
G1 X-2 Y-8.14 E433.706
G1 X-1.27 Y-8.29 E433.737
G1 X-0.52 Y-8.36 E433.768
G1 X0.22 E433.799
G1 X0.97 Y-8.29 E433.83
G1 X1.7 Y-8.14 E433.861
G1 X2.41 Y-7.92 E433.892
G1 X3.1 Y-7.62 E433.923
G1 X3.75 Y-7.26 E433.954
G1 X4.36 Y-6.83 E433.985
G1 X4.93 Y-6.34 E434.016
G1 X5.45 Y-5.8 E434.047
G1 X5.9 Y-5.21 E434.078
G1 X6.3 Y-4.58 E434.109
G1 X6.63 Y-3.91 E434.14
G1 X6.89 Y-3.21 E434.171
G1 X7.07 Y-2.48 E434.202
G1 X7.18 Y-1.8 E434.231
G1 X7.23 Y-1 E434.264
G1 X7.19 Y-0.25 E434.296
G1 X7.07 Y0.48 E434.327
G1 X6.89 Y1.21 E434.358
G1 X6.63 Y1.91 E434.389
G1 X6.3 Y2.58 E434.42
G1 X5.9 Y3.21 E434.451
G1 X5.45 Y3.8 E434.482
G1 X4.93 Y4.35 E434.513
G1 X4.36 Y4.83 E434.544
G1 X3.75 Y5.26 E434.575
G1 X3.1 Y5.62 E434.606
G1 X2.41 Y5.92 E434.637
G1 X1.7 Y6.14 E434.668
G1 X0.97 Y6.29 E434.699
G1 X0.22 Y6.37 E434.73
G1 X-0.52 E434.761
G1 X-1.27 Y6.29 E434.792
G1 X-2 Y6.14 E434.823
G1 X-2.71 Y5.92 E434.855
G1 X-3.4 Y5.62 E434.886
G1 X-4.05 Y5.26 E434.917
G1 X-4.66 Y4.83 E434.948
G1 X-5.23 Y4.35 E434.979
G1 X-5.75 Y3.8 E435.01
G1 X-6.2 Y3.21 E435.041
G1 X-6.6 Y2.58 E435.072
G1 X-6.93 Y1.91 E435.103
G1 X-7.19 Y1.21 E435.134
G1 X-7.37 Y0.48 E435.165
G1 X-7.49 Y-0.25 E435.196
G1 X-7.52 Y-1 E435.227
G1 X-7.49 Y-1.74 E435.258
G1 X-7.37 Y-2.48 E435.289
G1 X-7.19 Y-3.21 E435.32
G1 X-6.93 Y-3.91 E435.351
G1 X-6.6 Y-4.58 E435.382
G1 X-6.2 Y-5.21 E435.414
G1 X-5.75 Y-5.8 E435.445
G1 X-5.26 Y-6.31 E435.474
G1 X-5.23 Y-6.34
G1 X-4.66 Y-6.83
G1 X-4.05 Y-7.26
G1 X-3.4 Y-7.62
G1 X-2.71 Y-7.92
G1 X-5.92 Y-7.07 F12000
G1 E432.974 F6000
G1 Z1.8
G1 X-16.19 Y-18.75 F12000
; TYPE:WALL-INNER
G1 Z1.3
G1 E435.474 F6000
G1 X-11.61 E435.664 F2400
G1 X-7.02 E435.855
G1 X-2.44 E436.045
G1 X2.14 E436.236
G1 X6.72 E436.426
G1 X11.31 E436.617
G1 X15.89 E436.807
G1 Y-14.31 E436.992
G1 Y-9.87 E437.176
G1 Y-5.44 E437.361
G1 Y-1 E437.545
G1 Y3.44 E437.73
G1 Y7.88 E437.914
G1 Y12.31 E438.099
G1 Y16.75 E438.283
G1 X11.31 E438.474
G1 X6.72 E438.664
G1 X2.14 E438.855
G1 X-2.44 E439.045
G1 X-7.02 E439.236
G1 X-11.61 E439.426
G1 X-16.19 E439.617
G1 Y12.32 E439.801
G1 Y7.89 E439.985
G1 Y3.46 E440.169
G1 Y-0.98 E440.354
G1 Y-5.41 E440.538
G1 Y-9.84 E440.722
G1 Y-14.27 E440.906
G1 Y-18.7 E441.091
G1 X-16.19 Y-18.75
G1 X-16.69 Y-19.25 F12000
G1 X-11.96 E441.287 F2400
G1 X-7.24 E441.484
G1 X-2.51 E441.68
G1 X2.21 E441.876
G1 X6.94 E442.073
G1 X11.66 E442.269
G1 X16.39 E442.466
G1 Y-14.69 E442.656
G1 Y-10.12 E442.845
G1 Y-5.56 E443.035
G1 Y-1 E443.225
G1 Y3.56 E443.414
G1 Y8.13 E443.604
G1 Y12.69 E443.794
G1 Y17.25 E443.983
G1 X11.66 E444.18
G1 X6.94 E444.376
G1 X2.21 E444.573
G1 X-2.51 E444.769
G1 X-7.24 E444.966
G1 X-11.96 E445.162
G1 X-16.69 E445.359
G1 Y12.69 E445.548
G1 Y8.14 E445.737
G1 Y3.58 E445.927
G1 Y-0.98 E446.116
G1 Y-5.53 E446.306
G1 Y-10.09 E446.495
G1 Y-14.64 E446.685
G1 Y-19.2 E446.874
G1 X-16.69 Y-19.25
G1 X-17.19 Y-19.75 F12000
; TYPE:WALL-OUTER
G1 X-12.32 E447.076 F1800
G1 X-7.45 E447.279
G1 X-2.58 E447.481
G1 X2.29 E447.684
G1 X7.15 E447.886
G1 X12.02 E448.088
G1 X16.89 E448.291
G1 Y-15.06 E448.486
G1 Y-10.37 E448.68
G1 Y-5.69 E448.875
G1 Y-1 E449.07
G1 Y3.69 E449.265
G1 Y8.38 E449.46
G1 Y13.06 E449.655
G1 Y17.75 E449.85
G1 X12.02 E450.052
G1 X7.15 E450.255
G1 X2.29 E450.457
G1 X-2.58 E450.659
G1 X-7.45 E450.862
G1 X-12.32 E451.064
G1 X-17.19 E451.267
G1 Y13.07 E451.461
G1 Y8.39 E451.656
G1 Y3.71 E451.85
G1 Y-0.98 E452.045
G1 Y-5.66 E452.24
G1 Y-10.34 E452.434
G1 Y-15.02 E452.629
G1 Y-19.7 E452.824
G1 X-17.19 Y-19.75
G1 X-14.19
G1 X-16.19 Y-18.75 F12000
G1 X-15.37 Y-16.62
; TYPE:FILL
G1 X-12.97 Y-12.46 E453.023 F2400
G1 X-10.57 Y-8.3 E453.223
G1 X-8.17 Y-4.15 E453.422
G1 X-7.78 Y-5 F12000
G1 X-11.57 E453.58 F2400
G1 X-15.37 E453.737
G1 X-15.37 Y-3.38 F12000
G1 X-13.19 Y-7.16 E453.919 F2400
G1 X-11 Y-10.94 E454.1
G1 X-8.82 Y-14.72 E454.282
G1 X-6.64 Y-18.5 E454.463
G1 X-4.91 Y-18.5 F12000
G1 X-3.2 Y-15.54 E454.605 F2400
G1 X-1.49 Y-12.57 E454.747
G1 X0.22 Y-9.61 E454.89
G1 X-0.22 Y-9.61 F12000
G1 X1.49 Y-12.57 E455.032 F2400
G1 X3.2 Y-15.54 E455.174
G1 X4.91 Y-18.5 E455.316
G1 X6.64 Y-18.5 F12000
G1 X8.75 Y-14.85 E455.491 F2400
G1 X10.85 Y-11.2 E455.667
G1 X12.96 Y-7.55 E455.842
G1 X15.07 Y-3.9 E456.017
G1 Y-5 F12000
G1 X11.28 E456.175 F2400
G1 X7.48 E456.332
G1 X7.99 Y-3.83 F12000
G1 X10.35 Y-7.92 E456.529 F2400
G1 X12.71 Y-12.01 E456.725
G1 X15.07 Y-16.1 E456.921
G1 X15.07 Y-15 F12000
G1 X10.72 E457.102 F2400
G1 X6.37 E457.283
G1 X2.03 E457.464
G1 X-2.32 E457.644
G1 X-6.67 E457.825
G1 X-11.02 E458.006
G1 X-15.37 E458.187
G1 X-15.37 Y-13.38 F12000
G1 X-13.89 Y-15.94 E458.31 F2400
G1 X-12.41 Y-18.5 E458.432
G1 X-10.68 Y-18.5 F12000
G1 X-8.71 Y-15.09 E458.596 F2400
G1 X-6.74 Y-11.68 E458.76
G1 X-4.78 Y-8.27 E458.923
G1 X-7.63 Y-4.01 F12000
G1 X-8.43 Y-1.38
G1 X-8.71 Y0
G1 X-12.04 E459.062 F2400
G1 X-15.37 E459.2
G1 X-15.37 Y3.38 F12000
G1 X-13.47 Y6.66 E459.357 F2400
G1 X-11.58 Y9.94 E459.515
G1 X-9.69 Y13.22 E459.672
G1 X-7.79 Y16.5 E459.83
G1 X-9.53 Y16.5 F12000
G1 X-7.65 Y13.25 E459.986 F2400
G1 X-5.78 Y10.01 E460.141
G1 X-3.9 Y6.76 E460.297
G1 X-1.43 Y7.53 F12000
G1 X0.3 Y10.52 E460.441 F2400
G1 X2.03 Y13.51 E460.584
G1 X3.75 Y16.5 E460.728
G1 X2.02 Y16.5 F12000
G1 X4.19 Y12.73 E460.909 F2400
G1 X6.37 Y8.97 E461.09
G1 X8.54 Y5.2 E461.27
G1 X10.72 Y1.43 E461.451
G1 X12.89 Y-2.33 E461.632
G1 X15.07 Y-6.1 E461.813
G1 Y-10 F12000
G1 X10.72 E461.994 F2400
G1 X6.37 E462.174
G1 X2.03 E462.355
G1 X-2.32 E462.536
G1 X-6.67 E462.717
G1 X-11.02 E462.897
G1 X-15.37 E463.078
G1 X-15.37 Y-6.62 F12000
G1 X-13.14 Y-2.76 E463.263 F2400
G1 X-10.92 Y1.09 E463.448
G1 X-8.69 Y4.94 E463.633
G1 X-6.47 Y8.79 E463.818
G1 X-4.24 Y12.65 E464.003
G1 X-2.02 Y16.5 E464.188
G1 X-3.75 Y16.5 F12000
G1 X-2.01 Y13.49 E464.333 F2400
G1 X-0.27 Y10.47 E464.477
G1 X1.47 Y7.46 E464.622
G1 X3.83 Y6.64 F12000
G1 X5.73 Y9.93 E464.78 F2400
G1 X7.63 Y13.21 E464.937
G1 X9.53 Y16.5 E465.095
G1 X7.79 Y16.5 F12000
G1 X10.22 Y12.3 E465.297 F2400
G1 X12.64 Y8.1 E465.498
G1 X15.07 Y3.9 E465.7
G1 X15.07 Y5 F12000
G1 X10.55 Y5 E465.888 F2400
G1 X6.03 E466.076
G1 X7.49 Y2.98 F12000
G1 X9.39 Y6.26 E466.233 F2400
G1 X11.28 Y9.54 E466.391
G1 X13.18 Y12.82 E466.548
G1 X15.07 Y16.1 E466.706
G1 X15.07 Y15 F12000
G1 X10.72 Y15 E466.886 F2400
G1 X6.37 E467.067
G1 X2.03 E467.248
G1 X-2.32 E467.429
G1 X-6.67 E467.61
G1 X-11.02 E467.79
G1 X-15.37 E467.971
G1 X-15.3 Y16.5 F12000
G1 X-13.39 Y13.19 E468.13 F2400
G1 X-11.47 Y9.87 E468.289
G1 X-9.56 Y6.56 E468.448
G1 X-7.65 Y3.25 E468.607
G1 X-6.33 Y5 F12000
G1 X-10.85 E468.795 F2400
G1 X-15.37 E468.983
G1 X-15.37 Y6.62 F12000
G1 X-12.95 Y2.43 E469.184 F2400
G1 X-10.53 Y-1.75 E469.385
G1 X-8.12 Y-5.94 E469.586
G1 X-5.7 Y-10.13 E469.787
G1 X-3.28 Y-14.31 E469.988
G1 X-0.87 Y-18.5 E470.189
G1 X0.87 Y-18.5 F12000
G1 X3.23 Y-14.4 E470.385 F2400
G1 X5.6 Y-10.3 E470.582
G1 X7.97 Y-6.2 E470.779
G1 X10.33 Y-2.1 E470.976
G1 X12.7 Y2 E471.173
G1 X15.07 Y6.1 E471.369
G1 X15.07 Y10 F12000
G1 X10.72 Y10 E471.55 F2400
G1 X6.37 E471.731
G1 X2.02 E471.912
G1 X-2.32 E472.093
G1 X-6.67 E472.273
G1 X-11.02 E472.454
G1 X-15.37 E472.635
G1 X-15.37 Y13.38 F12000
G1 X-13.57 Y16.5 E472.785 F2400
G1 E470.285 F6000
G1 Z1.8
G1 X0 F12000
G1 X13.57
G1 Z1.3
G1 E472.785 F6000
G1 X15.07 Y13.9 E472.909 F2400
G1 X15.07 Y0 F12000
G1 X11.74 E473.048 F2400
G1 X8.41 E473.186
G1 X6.94 Y-4.99 F12000
G1 X4.69 Y-8.13
G1 X6.69 Y-11.58 E473.352 F2400
G1 X8.68 Y-15.04 E473.518
G1 X10.68 Y-18.5 E473.684
G1 X12.41 Y-18.5 F12000
G1 X13.74 Y-16.2 E473.795 F2400
G1 X15.07 Y-13.9 E473.905
G1 E471.405 F6000
G1 Z1.8
G1 X15.07 Y-18 F12000
; TYPE:FILL
G1 Z1.3
G1 E473.905 F6000
G1 X15.64 E473.929 F2400
G1 Y-17.5 F12000
G1 X15.07 E473.952 F2400
G1 Y-17 F12000
G1 X15.64 E473.976 F2400
G1 Y-16.5 F12000
G1 X15.07 E474 F2400
G1 Y-16 F12000
G1 X15.64 E474.024 F2400
G1 Y-15.5 F12000
G1 X15.07 E474.047 F2400
G1 Y-15 F12000
G1 X15.64 E474.071 F2400
G1 X15.64 Y-14.5 F12000
G1 X15.07 E474.095 F2400
G1 Y-14 F12000
G1 X15.64 E474.118 F2400
G1 Y-13.5 F12000
G1 X15.07 E474.142 F2400
G1 Y-13 F12000
G1 X15.64 E474.166 F2400
G1 Y-12.5 F12000
G1 X15.07 E474.189 F2400
G1 Y-12 F12000
G1 X15.64 E474.213 F2400
G1 Y-11.5 F12000
G1 X15.07 E474.237 F2400
G1 Y-11 F12000
G1 X15.64 E474.261 F2400
G1 Y-10.5 F12000
G1 X15.07 E474.284 F2400
G1 Y-10 F12000
G1 X15.64 E474.308 F2400
G1 Y-9.5 F12000
G1 X15.07 E474.332 F2400
G1 Y-9 F12000
G1 X15.64 E474.355 F2400
G1 Y-8.5 F12000
G1 X15.07 E474.379 F2400
G1 Y-8 F12000
G1 X15.64 E474.403 F2400
G1 Y-7.5 F12000
G1 X15.07 E474.426 F2400
G1 Y-7 F12000
G1 X15.64 E474.45 F2400
G1 Y-6.5 F12000
G1 X15.07 E474.474 F2400
G1 Y-6 F12000
G1 X15.64 E474.498 F2400
G1 Y-5.5 F12000
G1 X15.07 E474.521 F2400
G1 Y-5 F12000
G1 X15.64 E474.545 F2400
G1 Y-4.5 F12000
G1 X15.07 E474.569 F2400
G1 Y-4 F12000
G1 X15.64 E474.592 F2400
G1 Y-3.5 F12000
G1 X15.07 E474.616 F2400
G1 Y-3 F12000
G1 X15.64 E474.64 F2400
G1 Y-2.5 F12000
G1 X15.07 E474.663 F2400
G1 Y-2 F12000
G1 X15.64 E474.687 F2400
G1 Y-1.5 F12000
G1 X15.07 E474.711 F2400
G1 Y-1 F12000
G1 X15.64 E474.734 F2400
G1 X15.64 Y-0.5 F12000
G1 X15.07 E474.758 F2400
G1 Y0 F12000
G1 X15.64 E474.782 F2400
G1 Y0.5 F12000
G1 X15.07 E474.806 F2400
G1 Y1 F12000
G1 X15.64 E474.829 F2400
G1 Y1.5 F12000
G1 X15.07 E474.853 F2400
G1 Y2 F12000
G1 X15.64 E474.877 F2400
G1 Y2.5 F12000
G1 X15.07 E474.9 F2400
G1 Y3 F12000
G1 X15.64 E474.924 F2400
G1 Y3.5 F12000
G1 X15.07 E474.948 F2400
G1 Y4 F12000
G1 X15.64 E474.971 F2400
G1 Y4.5 F12000
G1 X15.07 E474.995 F2400
G1 Y5 F12000
G1 X15.64 E475.019 F2400
G1 Y5.5 F12000
G1 X15.07 E475.043 F2400
G1 Y6 F12000
G1 X15.64 E475.066 F2400
G1 Y6.5 F12000
G1 X15.07 E475.09 F2400
G1 Y7 F12000
G1 X15.64 E475.114 F2400
G1 Y7.5 F12000
G1 X15.07 E475.137 F2400
G1 Y8 F12000
G1 X15.64 E475.161 F2400
G1 Y8.5 F12000
G1 X15.07 E475.185 F2400
G1 Y9 F12000
G1 X15.64 E475.208 F2400
G1 Y9.5 F12000
G1 X15.07 E475.232 F2400
G1 Y10 F12000
G1 X15.64 E475.256 F2400
G1 Y10.5 F12000
G1 X15.07 E475.28 F2400
G1 Y11 F12000
G1 X15.64 E475.303 F2400
G1 Y11.5 F12000
G1 X15.07 E475.327 F2400
G1 Y12 F12000
G1 X15.64 E475.351 F2400
G1 Y12.5 F12000
G1 X15.07 E475.374 F2400
G1 Y13 F12000
G1 X15.64 E475.398 F2400
G1 Y13.5 F12000
G1 X15.07 E475.422 F2400
G1 Y14 F12000
G1 X15.64 E475.445 F2400
G1 Y14.5 F12000
G1 X15.07 E475.469 F2400
G1 Y15 F12000
G1 X15.64 E475.493 F2400
G1 Y15.5 F12000
G1 X15.07 E475.517 F2400
G1 Y16 F12000
G1 X15.64 E475.54 F2400
G1 E473.04 F6000
G1 Z1.8
G1 X8.05 Y-1.08 F12000
G1 X6.96 Y-4.37
G1 X3.71 Y-8.17
G1 X-2.27 Y-10.44
G1 X-15.37 Y-18
G1 Z1.3
G1 E475.54 F6000
G1 X-15.94 E475.564 F2400
G1 Y-17.5 F12000
G1 X-15.37 E475.588 F2400
G1 Y-17 F12000
G1 X-15.94 E475.611 F2400
G1 Y-16.5 F12000
G1 X-15.37 E475.635 F2400
G1 Y-16 F12000
G1 X-15.94 E475.659 F2400
G1 Y-15.5 F12000
G1 X-15.37 E475.682 F2400
G1 Y-15 F12000
G1 X-15.94 E475.706 F2400
G1 Y-14.5 F12000
G1 X-15.37 E475.73 F2400
G1 Y-14 F12000
G1 X-15.94 E475.753 F2400
G1 Y-13.5 F12000
G1 X-15.37 E475.777 F2400
G1 Y-13 F12000
G1 X-15.94 E475.801 F2400
G1 Y-12.5 F12000
G1 X-15.37 E475.825 F2400
G1 Y-12 F12000
G1 X-15.94 E475.848 F2400
G1 Y-11.5 F12000
G1 X-15.37 E475.872 F2400
G1 Y-11 F12000
G1 X-15.94 E475.896 F2400
G1 Y-10.5 F12000
G1 X-15.37 E475.919 F2400
G1 Y-10 F12000
G1 X-15.94 E475.943 F2400
G1 Y-9.5 F12000
G1 X-15.37 E475.967 F2400
G1 Y-9 F12000
G1 X-15.94 E475.99 F2400
G1 Y-8.5 F12000
G1 X-15.37 E476.014 F2400
G1 Y-8 F12000
G1 X-15.94 E476.038 F2400
G1 Y-7.5 F12000
G1 X-15.37 E476.062 F2400
G1 Y-7 F12000
G1 X-15.94 E476.085 F2400
G1 Y-6.5 F12000
G1 X-15.37 E476.109 F2400
G1 Y-6 F12000
G1 X-15.94 E476.133 F2400
G1 Y-5.5 F12000
G1 X-15.37 E476.156 F2400
G1 Y-5 F12000
G1 X-15.94 E476.18 F2400
G1 Y-4.5 F12000
G1 X-15.37 E476.204 F2400
G1 Y-4 F12000
G1 X-15.94 E476.227 F2400
G1 Y-3.5 F12000
G1 X-15.37 E476.251 F2400
G1 Y-3 F12000
G1 X-15.94 E476.275 F2400
G1 Y-2.5 F12000
G1 X-15.37 E476.299 F2400
G1 Y-2 F12000
G1 X-15.94 E476.322 F2400
G1 Y-1.5 F12000
G1 X-15.37 E476.346 F2400
G1 Y-1 F12000
G1 X-15.94 E476.37 F2400
G1 X-15.94 Y-0.5 F12000
G1 X-15.37 E476.393 F2400
G1 Y0 F12000
G1 X-15.94 E476.417 F2400
G1 Y0.5 F12000
G1 X-15.37 E476.441 F2400
G1 Y1 F12000
G1 X-15.94 E476.464 F2400
G1 Y1.5 F12000
G1 X-15.37 E476.488 F2400
G1 Y2 F12000
G1 X-15.94 E476.512 F2400
G1 Y2.5 F12000
G1 X-15.37 E476.536 F2400
G1 Y3 F12000
G1 X-15.94 E476.559 F2400
G1 Y3.5 F12000
G1 X-15.37 E476.583 F2400
G1 Y4 F12000
G1 X-15.94 E476.607 F2400
G1 Y4.5 F12000
G1 X-15.37 E476.63 F2400
G1 Y5 F12000
G1 X-15.94 E476.654 F2400
G1 Y5.5 F12000
G1 X-15.37 E476.678 F2400
G1 Y6 F12000
G1 X-15.94 E476.701 F2400
G1 Y6.5 F12000
G1 X-15.37 E476.725 F2400
G1 Y7 F12000
G1 X-15.94 E476.749 F2400
G1 Y7.5 F12000
G1 X-15.37 E476.772 F2400
G1 Y8 F12000
G1 X-15.94 E476.796 F2400
G1 Y8.5 F12000
G1 X-15.37 E476.82 F2400
G1 Y9 F12000
G1 X-15.94 E476.844 F2400
G1 Y9.5 F12000
G1 X-15.37 E476.867 F2400
G1 Y10 F12000
G1 X-15.94 E476.891 F2400
G1 Y10.5 F12000
G1 X-15.37 E476.915 F2400
G1 Y11 F12000
G1 X-15.94 E476.938 F2400
G1 Y11.5 F12000
G1 X-15.37 E476.962 F2400
G1 Y12 F12000
G1 X-15.94 E476.986 F2400
G1 Y12.5 F12000
G1 X-15.37 E477.009 F2400
G1 Y13 F12000
G1 X-15.94 E477.033 F2400
G1 Y13.5 F12000
G1 X-15.37 E477.057 F2400
G1 Y14 F12000
G1 X-15.94 E477.081 F2400
G1 Y14.5 F12000
G1 X-15.37 E477.104 F2400
G1 X-15.37 Y15 F12000
G1 X-15.94 E477.128 F2400
G1 Y15.5 F12000
G1 X-15.37 E477.152 F2400
G1 Y16 F12000
G1 X-15.94 E477.175 F2400
G1 E474.675 F6000
G1 Z1.8
G1 X-20 Y7.37 F12000
; TYPE:SUPPORT
G1 Z1.3
G1 E477.175 F6000
G1 Y3.18 E477.349 F2400
G1 Y-1 E477.523
G1 Y-5.18 E477.697
G1 Y-9.37 E477.871
G1 X-18.44 Y-7.5 F12000
G1 X-22.5 E478.04 F2400
G1 Y-5 F12000
G1 X-18.44 E478.209 F2400
G1 Y-2.5 F12000
G1 X-22.5 E478.378 F2400
G1 Y0 F12000
G1 X-18.44 E478.547 F2400
G1 Y2.5 F12000
G1 X-22.5 E478.715 F2400
G1 Y5 F12000
G1 X-18.44 E478.884 F2400
; Layer Change GCode
; LAYER:6
; LAYER_HEIGHT:0.2
; TYPE:FILL
M400
M106 S211
G1 E476.384 F6000
G1 Z1.8
G1 Z2 F12000
G1 X-5.92 Y5.07
; TYPE:WALL-INNER
G1 Z1.5
G1 E478.884 F6000
G1 X-6.51 Y4.46 E478.92 F2400
G1 X-7.02 Y3.78 E478.955
G1 X-7.47 Y3.06 E478.99
G1 X-7.85 Y2.3 E479.025
G1 X-8.14 Y1.51 E479.061
G1 X-8.35 Y0.69 E479.096
G1 X-8.48 Y-0.15 E479.131
G1 X-8.53 Y-1 E479.166
G1 X-8.48 Y-1.85 E479.202
G1 X-8.35 Y-2.69 E479.237
G1 X-8.14 Y-3.51 E479.272
G1 X-7.85 Y-4.3 E479.308
G1 X-7.47 Y-5.06 E479.343
G1 X-7.02 Y-5.78 E479.378
G1 X-6.51 Y-6.46 E479.413
G1 X-5.92 Y-7.07 E479.449
G1 X-5.28 Y-7.62 E479.484
G1 X-4.58 Y-8.11 E479.519
G1 X-3.84 Y-8.52 E479.554
G1 X-3.06 Y-8.85 E479.59
G1 X-2.25 Y-9.11 E479.625
G1 X-1.42 Y-9.28 E479.66
G1 X-0.57 Y-9.36 E479.696
G1 X0.27 E479.731
G1 X1.12 Y-9.28 E479.766
G1 X1.95 Y-9.11 E479.801
G1 X2.76 Y-8.85 E479.837
G1 X3.54 Y-8.52 E479.872
G1 X4.28 Y-8.11 E479.907
G1 X4.98 Y-7.62 E479.942
G1 X5.62 Y-7.07 E479.978
G1 X6.21 Y-6.46 E480.013
G1 X6.73 Y-5.78 E480.048
G1 X7.17 Y-5.06 E480.084
G1 X7.55 Y-4.3 E480.119
G1 X7.84 Y-3.51 E480.154
G1 X8.06 Y-2.69 E480.189
G1 X8.17 Y-1.91 E480.222
G1 X8.23 Y-1 E480.26
G1 X8.18 Y-0.15 E480.295
G1 X8.06 Y0.69 E480.33
G1 X7.84 Y1.51 E480.366
G1 X7.55 Y2.3 E480.401
G1 X7.17 Y3.06 E480.436
G1 X6.73 Y3.78 E480.471
G1 X6.21 Y4.46 E480.507
G1 X5.62 Y5.07 E480.542
G1 X4.98 Y5.62 E480.577
G1 X4.28 Y6.11 E480.613
G1 X3.54 Y6.52 E480.648
G1 X2.76 Y6.86 E480.683
G1 X1.95 Y7.11 E480.718
G1 X1.12 Y7.28 E480.754
G1 X0.27 Y7.37 E480.789
G1 X-0.57 E480.824
G1 X-1.42 Y7.28 E480.859
G1 X-2.25 Y7.11 E480.895
G1 X-3.06 Y6.86 E480.93
G1 X-3.84 Y6.52 E480.965
G1 X-4.58 Y6.11 E481.001
G1 X-5.28 Y5.62 E481.036
G1 X-5.88 Y5.1 E481.069
G1 X-5.92 Y5.07
G1 X-5.57 Y4.71 F12000
G1 X-6.13 Y4.13 E481.102 F2400
G1 X-6.61 Y3.5 E481.135
G1 X-7.04 Y2.82 E481.169
G1 X-7.39 Y2.11 E481.202
G1 X-7.66 Y1.36 E481.235
G1 X-7.86 Y0.59 E481.268
G1 X-7.98 Y-0.2 E481.301
G1 X-8.02 Y-1 E481.334
G1 X-7.98 Y-1.8 E481.367
G1 X-7.86 Y-2.58 E481.401
G1 X-7.66 Y-3.36 E481.434
G1 X-7.39 Y-4.1 E481.467
G1 X-7.04 Y-4.82 E481.5
G1 X-6.61 Y-5.5 E481.533
G1 X-6.13 Y-6.13 E481.567
G1 X-5.57 Y-6.71 E481.6
G1 X-4.97 Y-7.23 E481.633
G1 X-4.31 Y-7.68 E481.666
G1 X-3.62 Y-8.07 E481.699
G1 X-2.88 Y-8.38 E481.732
G1 X-2.12 Y-8.62 E481.766
G1 X-1.34 Y-8.78 E481.799
G1 X-0.55 Y-8.86 E481.832
G1 X0.25 E481.865
G1 X1.04 Y-8.78 E481.898
G1 X1.82 Y-8.62 E481.931
G1 X2.59 Y-8.38 E481.964
G1 X3.32 Y-8.07 E481.998
G1 X4.02 Y-7.68 E482.031
G1 X4.67 Y-7.23 E482.064
G1 X5.28 Y-6.71 E482.097
G1 X5.83 Y-6.13 E482.13
G1 X6.31 Y-5.5 E482.163
G1 X6.74 Y-4.82 E482.197
G1 X7.09 Y-4.1 E482.23
G1 X7.36 Y-3.36 E482.263
G1 X7.57 Y-2.58 E482.296
G1 X7.68 Y-1.86 E482.327
G1 X7.73 Y-1 E482.362
G1 X7.69 Y-0.2 E482.396
G1 X7.57 Y0.59 E482.429
G1 X7.36 Y1.36 E482.462
G1 X7.09 Y2.11 E482.495
G1 X6.74 Y2.82 E482.528
G1 X6.31 Y3.5 E482.561
G1 X5.83 Y4.13 E482.595
G1 X5.28 Y4.71 E482.628
G1 X4.67 Y5.23 E482.661
G1 X4.02 Y5.68 E482.694
G1 X3.32 Y6.07 E482.727
G1 X2.59 Y6.39 E482.76
G1 X1.82 Y6.62 E482.794
G1 X1.04 Y6.78 E482.827
G1 X0.25 Y6.87 E482.86
G1 X-0.55 E482.893
G1 X-1.34 Y6.78 E482.926
G1 X-2.12 Y6.62 E482.959
G1 X-2.88 Y6.39 E482.993
G1 X-3.62 Y6.07 E483.026
G1 X-4.31 Y5.68 E483.059
G1 X-4.97 Y5.23 E483.092
G1 X-5.54 Y4.74 E483.123
G1 X-5.57 Y4.71
G1 X-5.23 Y4.35 F12000
; TYPE:WALL-OUTER
G1 X-5.75 Y3.8 E483.154 F1800
G1 X-6.2 Y3.21 E483.185
G1 X-6.6 Y2.58 E483.216
G1 X-6.93 Y1.91 E483.247
G1 X-7.19 Y1.21 E483.278
G1 X-7.37 Y0.48 E483.31
G1 X-7.49 Y-0.25 E483.341
G1 X-7.52 Y-1 E483.372
G1 X-7.49 Y-1.74 E483.403
G1 X-7.37 Y-2.48 E483.434
G1 X-7.19 Y-3.21 E483.465
G1 X-6.93 Y-3.91 E483.496
G1 X-6.6 Y-4.58 E483.527
G1 X-6.2 Y-5.21 E483.558
G1 X-5.75 Y-5.8 E483.589
G1 X-5.23 Y-6.34 E483.62
G1 X-4.66 Y-6.83 E483.651
G1 X-4.05 Y-7.26 E483.682
G1 X-3.4 Y-7.62 E483.713
G1 X-2.71 Y-7.92 E483.744
G1 X-2 Y-8.14 E483.775
G1 X-1.27 Y-8.29 E483.806
G1 X-0.52 Y-8.36 E483.837
G1 X0.22 E483.868
G1 X0.97 Y-8.29 E483.9
G1 X1.7 Y-8.14 E483.931
G1 X2.41 Y-7.92 E483.962
G1 X3.1 Y-7.62 E483.993
G1 X3.75 Y-7.26 E484.024
G1 X4.36 Y-6.83 E484.055
G1 X4.93 Y-6.34 E484.086
G1 X5.45 Y-5.8 E484.117
G1 X5.9 Y-5.21 E484.148
G1 X6.3 Y-4.58 E484.179
G1 X6.63 Y-3.91 E484.21
G1 X6.89 Y-3.21 E484.241
G1 X7.07 Y-2.48 E484.272
G1 X7.18 Y-1.8 E484.301
G1 X7.23 Y-1 E484.334
G1 X7.19 Y-0.25 E484.365
G1 X7.07 Y0.48 E484.396
G1 X6.89 Y1.21 E484.427
G1 X6.63 Y1.91 E484.459
G1 X6.3 Y2.58 E484.49
G1 X5.9 Y3.21 E484.521
G1 X5.45 Y3.8 E484.552
G1 X4.93 Y4.35 E484.583
G1 X4.36 Y4.83 E484.614
G1 X3.75 Y5.26 E484.645
G1 X3.1 Y5.62 E484.676
G1 X2.41 Y5.92 E484.707
G1 X1.7 Y6.14 E484.738
G1 X0.97 Y6.29 E484.769
G1 X0.22 Y6.37 E484.8
G1 X-0.52 E484.831
G1 X-1.27 Y6.29 E484.862
G1 X-2 Y6.14 E484.893
G1 X-2.71 Y5.92 E484.924
G1 X-3.4 Y5.62 E484.955
G1 X-4.05 Y5.26 E484.986
G1 X-4.66 Y4.83 E485.018
G1 X-5.19 Y4.38 E485.046
G1 X-5.23 Y4.35
G1 X-5.75 Y3.8
G1 X-6.2 Y3.21
G1 X-6.6 Y2.58
G1 X-6.93 Y1.91
G1 X-5.92 Y5.07 F12000
G1 E482.546 F6000
G1 Z2
G1 X-16.38 Y16.75 F12000
; TYPE:WALL-INNER
G1 Z1.5
G1 E485.046 F6000
G1 Y12.31 E485.231 F2400
G1 Y7.88 E485.415
G1 Y3.44 E485.6
G1 Y-1 E485.784
G1 Y-5.44 E485.969
G1 Y-9.87 E486.153
G1 Y-14.31 E486.338
G1 Y-18.75 E486.522
G1 X-11.74 E486.715
G1 X-7.1 E486.908
G1 X-2.47 E487.101
G1 X2.17 E487.293
G1 X6.81 E487.486
G1 X11.44 E487.679
G1 X16.08 E487.872
G1 Y-14.31 E488.056
G1 Y-9.87 E488.241
G1 Y-5.44 E488.425
G1 Y-1 E488.61
G1 Y3.44 E488.794
G1 Y7.88 E488.979
G1 Y12.31 E489.163
G1 Y16.75 E489.348
G1 X11.45 E489.54
G1 X6.82 E489.733
G1 X2.19 E489.925
G1 X-2.44 E490.118
G1 X-7.07 E490.31
G1 X-11.7 E490.503
G1 X-16.33 E490.695
G1 X-16.38
G1 X-16.88 Y17.25 F12000
G1 Y12.69 E490.885 F2400
G1 Y8.13 E491.074
G1 Y3.56 E491.264
G1 Y-1 E491.454
G1 Y-5.56 E491.644
G1 Y-10.12 E491.833
G1 Y-14.69 E492.023
G1 Y-19.25 E492.213
G1 X-12.1 E492.411
G1 X-7.32 E492.61
G1 X-2.54 E492.809
G1 X2.24 E493.007
G1 X7.02 E493.206
G1 X11.8 E493.405
G1 X16.58 E493.604
G1 Y-14.69 E493.793
G1 Y-10.12 E493.983
G1 Y-5.56 E494.173
G1 Y-1 E494.362
G1 Y3.56 E494.552
G1 Y8.13 E494.742
G1 Y12.69 E494.931
G1 Y17.25 E495.121
G1 X11.81 E495.319
G1 X7.03 E495.518
G1 X2.26 E495.716
G1 X-2.51 E495.915
G1 X-7.28 E496.113
G1 X-12.06 E496.312
G1 X-16.83 E496.51
G1 X-16.88
G1 X-17.38 Y17.75 F12000
; TYPE:WALL-OUTER
G1 Y13.06 E496.705 F1800
G1 Y8.38 E496.9
G1 Y3.69 E497.095
G1 Y-1 E497.29
G1 Y-5.69 E497.484
G1 Y-10.37 E497.679
G1 Y-15.06 E497.874
G1 Y-19.75 E498.069
G1 X-12.46 E498.274
G1 X-7.53 E498.478
G1 X-2.61 E498.683
G1 X2.31 E498.888
G1 X7.23 E499.092
G1 X12.16 E499.297
G1 X17.08 E499.502
G1 Y-15.06 E499.697
G1 Y-10.37 E499.891
G1 Y-5.69 E500.086
G1 Y-1 E500.281
G1 Y3.69 E500.476
G1 Y8.38 E500.671
G1 Y13.06 E500.866
G1 Y17.75 E501.061
G1 X12.16 E501.265
G1 X7.25 E501.469
G1 X2.33 E501.674
G1 X-2.58 E501.878
G1 X-7.5 E502.082
G1 X-12.41 E502.287
G1 X-17.33 E502.491
G1 X-17.38
G1 Y14.75
G1 X-16.38 Y16.75 F12000
G1 X-15.3 Y16.5
; TYPE:FILL
G1 X-13.39 Y13.19 E502.65 F2400
G1 X-11.47 Y9.87 E502.809
G1 X-9.56 Y6.56 E502.968
G1 X-7.65 Y3.25 E503.127
G1 X-6.33 Y5 F12000
G1 X-10.95 E503.319 F2400
G1 X-15.56 E503.511
G1 X-15.56 Y6.95 F12000
G1 X-13.11 Y2.71 E503.714 F2400
G1 X-10.66 Y-1.54 E503.918
G1 X-8.21 Y-5.78 E504.122
G1 X-5.76 Y-10.02 E504.325
G1 X-3.31 Y-14.26 E504.529
G1 X-0.87 Y-18.5 E504.732
G1 X0.87 Y-18.5 F12000
G1 X3.26 Y-14.34 E504.932 F2400
G1 X5.66 Y-10.19 E505.131
G1 X8.06 Y-6.03 E505.331
G1 X10.46 Y-1.88 E505.53
G1 X12.86 Y2.28 E505.73
G1 X15.26 Y6.43 E505.929
G1 X15.26 Y5 F12000
G1 X10.65 Y5 E506.121 F2400
G1 X6.03 E506.313
G1 X7.49 Y2.98 F12000
G1 X9.43 Y6.34 E506.474 F2400
G1 X11.38 Y9.7 E506.636
G1 X13.32 Y13.07 E506.797
G1 X15.26 Y16.43 E506.958
G1 X15.26 Y15 F12000
G1 X10.86 Y15 E507.141 F2400
G1 X6.45 E507.324
G1 X2.05 E507.507
G1 X-2.35 E507.69
G1 X-6.75 E507.874
G1 X-11.15 E508.057
G1 X-15.56 E508.24
G1 X-15.56 Y13.05 F12000
G1 X-13.57 Y16.5 E508.405 F2400
G1 X-9.53 F12000
G1 X-7.65 Y13.25 E508.561 F2400
G1 X-5.78 Y10.01 E508.717
G1 X-3.9 Y6.76 E508.872
G1 X-1.43 Y7.53 F12000
G1 X0.3 Y10.52 E509.016 F2400
G1 X2.03 Y13.51 E509.16
G1 X3.75 Y16.5 E509.303
G1 X2.02 Y16.5 F12000
G1 X4.23 Y12.68 E509.487 F2400
G1 X6.43 Y8.86 E509.67
G1 X8.64 Y5.03 E509.854
G1 X10.85 Y1.21 E510.037
G1 X13.05 Y-2.61 E510.22
G1 X15.26 Y-6.43 E510.404
G1 Y-5 F12000
G1 X11.37 E510.566 F2400
G1 X7.48 E510.727
G1 X7.99 Y-3.83 F12000
G1 X10.41 Y-8.03 E510.929 F2400
G1 X12.83 Y-12.23 E511.13
G1 X15.26 Y-16.43 E511.332
G1 X15.26 Y-15 F12000
G1 X10.86 E511.515 F2400
G1 X6.45 E511.698
G1 X2.05 E511.881
G1 X-2.35 E512.064
G1 X-6.75 E512.247
G1 X-11.15 E512.43
G1 X-15.56 E512.613
G1 X-15.56 Y-16.95 F12000
G1 X-13.09 Y-12.68 E512.818 F2400
G1 X-10.63 Y-8.41 E513.023
G1 X-8.17 Y-4.15 E513.227
G1 X-7.78 Y-5 F12000
G1 X-11.67 E513.389 F2400
G1 X-15.56 E513.551
G1 X-15.56 Y-6.95 F12000
G1 X-13.3 Y-3.04 E513.738 F2400
G1 X-11.04 Y0.87 E513.926
G1 X-8.79 Y4.78 E514.114
G1 X-6.53 Y8.68 E514.301
G1 X-4.28 Y12.59 E514.489
G1 X-2.02 Y16.5 E514.676
G1 X-3.75 Y16.5 F12000
G1 X-2.01 Y13.49 E514.821 F2400
G1 X-0.27 Y10.47 E514.966
G1 X1.47 Y7.46 E515.11
G1 X3.83 Y6.64 F12000
G1 X5.73 Y9.93 E515.268 F2400
G1 X7.63 Y13.21 E515.426
G1 X9.53 Y16.5 E515.583
G1 X7.79 Y16.5 F12000
G1 X10.28 Y12.19 E515.79 F2400
G1 X12.77 Y7.88 E515.997
G1 X15.26 Y3.57 E516.204
G1 X15.26 Y0 F12000
G1 X11.84 E516.346 F2400
G1 X8.41 E516.489
G1 X15.26 Y-3.57 F12000
G1 X13.1 Y-7.3 E516.668 F2400
G1 X10.95 Y-11.03 E516.847
G1 X8.79 Y-14.77 E517.026
G1 X6.64 Y-18.5 E517.205
G1 X4.91 Y-18.5 F12000
