; Generated with MatterSlice 2.22.04
; filamentDiameter = 1.75
; extrusionWidth = 0.5
; firstLayerExtrusionWidth = 0.65
; layerThickness = 0.3
; firstLayerThickness = 0.3
; automatic settings before start_gcode
G21 ; set units to millimeters
M107 ; fan off
M140 S60 ; start heating the bed
M104 T0 S210 ; start heating T0
M109 T0 S210 ; wait for T0
T0 ; set the active extruder to 0
; settings from start_gcode
G28
; automatic settings after start_gcode
M190 S60 ; wait for bed temperature to be reached
M109 T0 S210 ; Finish heating T0
T0 ; set the active extruder to 0
G90 ; use absolute coordinates
G92 E0 ; reset the expected extruder position
M82 ; use absolute distance for extrusion
; Layer count: 147
; Layer Change GCode
; LAYER:0
; LAYER_HEIGHT:0.3
; TYPE:FILL
M400
M107
G1 X0 Y-1.12 Z0.8 F12000
G1 X16.65 Y-0.56
G1 X18.19 Y5.79
G1 X19.84 Y10.86
G1 X19.96 Y13.76
G1 X23.16
; TYPE:SKIRT
G1 Z0.3
G1 F6000
G1 X23.16 Y16.23 E0.201 F900
G1 X19.28 Y33.98 E1.673
G1 X-17.09 E4.622
G1 X-21.17 Y15.94 E6.121
G1 X-21.08 Y13.61 E6.31
G1 X-17.09 Y-3.98 E7.772
G1 X19.28 E10.721
G1 X23.16 Y13.76 E12.192
G1 X22.51 Y13.83 F12000
G1 X22.51 Y16.16 E12.382 F900
G1 X18.76 Y33.33 E13.806
G1 X-16.57 E16.67
G1 X-20.52 Y15.88 E18.121
G1 X-20.43 Y13.7 E18.298
G1 X-16.57 Y-3.33 E19.713
G1 X18.76 E22.577
G1 X22.51 Y13.83 E24
G1 E21.5 F6000
G1 Z0.8
G1 X14.62 F12000
G1 X14.32 Y1.61
G1 X15.76 Y0.33
; TYPE:WALL-OUTER
G1 Z0.3
G1 E24 F6000
G1 Y29.68 E26.38 F900
G1 X-13.59 E28.759
G1 Y0.33 E31.138
G1 X15.7 E33.512
G1 X15.76
G1 Y3.33
G1 X15.11 Y0.98 F12000
; TYPE:WALL-INNER
G1 Y29.03 E35.787 F900
G1 X-12.94 E38.06
G1 Y0.98 E40.334
G1 X15.05 E42.603
G1 X15.11
G1 X13.91 Y2.18 F12000
; TYPE:WALL-OUTER
G1 Y27.83 E44.683 F900
G1 X-11.74 E46.762
G1 Y2.18 E48.841
G1 X13.85 E50.916
G1 X13.91
G1 Y5.18
G1 X14.56 Y1.53 F12000
; TYPE:WALL-INNER
G1 Y28.48 E53.1 F900
G1 X-12.39 E55.285
G1 Y1.53 E57.47
G1 X14.5 E59.65
G1 X14.56
G1 E57.15 F6000
G1 Z0.8
G1 X12.83 Y3.25 F12000
; TYPE:SUPPORT
G1 Z0.3
G1 E59.65 F6000
G1 Y26.75 E61.115 F900
G1 X-10.66 E62.581
G1 Y3.25 E64.046
G1 X12.83 E65.511
G1 X12.58 Y3.5 F12000
G1 X-10.41 Y3.5 E66.946 F900
G1 Y4 F12000
G1 X12.58 Y4 E68.38 F900
G1 Y4.5 F12000
G1 X-10.41 Y4.5 E69.814 F900
G1 Y5 F12000
G1 X12.58 Y5 E71.248 F900
G1 Y5.5 F12000
G1 X-10.41 Y5.5 E72.683 F900
G1 Y6 F12000
G1 X12.58 Y6 E74.117 F900
G1 Y6.5 F12000
G1 X-10.41 Y6.5 E75.551 F900
G1 Y7 F12000
G1 X12.58 Y7 E76.985 F900
G1 Y7.5 F12000
G1 X-10.41 Y7.5 E78.419 F900
G1 Y8 F12000
G1 X12.58 Y8 E79.854 F900
G1 Y8.5 F12000
G1 X-10.41 E81.288 F900
G1 Y9 F12000
G1 X12.58 E82.722 F900
G1 Y9.5 F12000
G1 X-10.41 E84.156 F900
G1 Y10 F12000
G1 X12.58 E85.591 F900
G1 Y10.5 F12000
G1 X-10.41 E87.025 F900
G1 Y11 F12000
G1 X12.58 E88.459 F900
G1 Y11.5 F12000
G1 X-10.41 E89.893 F900
G1 Y12 F12000
G1 X12.58 E91.327 F900
G1 Y12.5 F12000
G1 X-10.41 E92.762 F900
G1 Y13 F12000
G1 X12.58 E94.196 F900
G1 Y13.5 F12000
G1 X-10.41 E95.63 F900
G1 Y14 F12000
G1 X12.58 E97.064 F900
G1 Y14.5 F12000
G1 X-10.41 E98.498 F900
G1 X-10.41 Y15 F12000
G1 X12.58 E99.933 F900
G1 X12.58 Y15.5 F12000
G1 X-10.41 E101.367 F900
G1 Y16 F12000
G1 X12.58 E102.801 F900
G1 Y16.5 F12000
G1 X-10.41 E104.235 F900
G1 Y17 F12000
G1 X12.58 E105.669 F900
G1 Y17.5 F12000
G1 X-10.41 E107.103 F900
G1 Y18 F12000
G1 X12.58 E108.537 F900
G1 Y18.5 F12000
G1 X-10.41 E109.971 F900
G1 Y19 F12000
G1 X12.58 E111.405 F900
G1 Y19.5 F12000
G1 X-10.41 E112.839 F900
G1 Y20 F12000
G1 X12.58 E114.274 F900
G1 Y20.5 F12000
G1 X-10.41 E115.708 F900
G1 Y21 F12000
G1 X12.58 E117.142 F900
G1 Y21.5 F12000
G1 X-10.41 E118.576 F900
G1 Y22 F12000
G1 X12.58 E120.01 F900
G1 Y22.5 F12000
G1 X-10.41 E121.444 F900
G1 Y23 F12000
G1 X12.58 E122.878 F900
G1 Y23.5 F12000
G1 X-10.41 E124.312 F900
G1 Y24 F12000
G1 X12.58 E125.746 F900
G1 Y24.5 F12000
G1 X-10.41 E127.18 F900
G1 Y25 F12000
G1 X12.58 E128.615 F900
G1 Y25.5 F12000
G1 X-10.41 E130.049 F900
G1 Y26 F12000
G1 X12.58 E131.483 F900
G1 E128.983 F6000
G1 Z0.8
G1 X-15.13 Y16.44 F12000
G1 X-14.66 Y17.04
G1 Z0.3
G1 E131.483 F6000
G1 X-15.67 Y16.59 E131.552 F900
G1 X-15.98 Y16.75 E131.573
G1 X-16.23 Y16.59 E131.592
G1 X-16.77 Y16.75 E131.627
G1 X-17.43 Y15.64 E131.707
G1 X-17.37 Y14.01 E131.809
G1 X-16.47 Y13.29 E131.881
G1 X-16.23 Y13.4 E131.897
G1 X-16.02 Y13.24 E131.913
G1 X-15.68 Y13.42 E131.937
G1 X-14.66 Y12.98 E132.006
G1 Y17.04 E132.259
G1 X-14.91 Y16.5 F12000
G1 X-15.25 E132.28 F900
G1 Y16.22 F12000
G1 X-14.91 Y16
G1 X-16.92 E132.406 F900
G1 X-16.14 Y15.23 F12000
G1 X-17.18 Y15.5
G1 X-14.91 E132.547 F900
G1 X-16.05 Y15.29 F12000
G1 X-16.05 Y15
G1 X-14.91
G1 X-17.16 E132.687 F900
G1 X-17.14 Y14.5 F12000
G1 X-14.91 E132.825 F900
G1 X-16.05 Y14.64 F12000
G1 X-14.91 Y14
G1 X-16.95 E132.953 F900
G1 X-16.1 Y14.7 F12000
G1 X-15.25 Y13.5
G1 X-14.91 E132.974 F900
G1 E130.474 F6000
G1 Z0.8
G1 X17.88 Y14.35 F12000
G1 X16.83 Y13.27
G1 Z0.3
G1 E132.974 F6000
G1 X17.21 Y13.42 E132.999 F900
G1 X17.62 Y13.23 E133.027
G1 X17.96 Y13.36 E133.05
G1 X18.27 Y13.08 E133.075
G1 X19.44 Y14.07 E133.171
G1 X19.44 Y15.92 E133.286
G1 X18.53 Y16.71 E133.361
G1 X18.27 Y16.59 E133.379
G1 X18.03 Y16.77 E133.398
G1 X17.69 Y16.58 E133.422
G1 X16.83 Y16.92 E133.479
G1 Y13.27 E133.707
G1 X17.08 Y14 F12000
G1 X18.97 E133.825 F900
G1 X18.11 Y14.45 F12000
G1 X19.19 Y14.5
G1 X17.08 E133.956 F900
G1 X18.07 F12000
G1 X17.08 Y15
G1 X19.19 E134.087 F900
G1 X18.13 F12000
G1 X19.19 Y15.5
G1 X17.08 E134.218 F900
G1 X18.07 Y15.37 F12000
G1 X17.08 Y16
G1 X18.97 E134.336 F900
G1 X18.11 Y15.28 F12000
G1 X17.22 Y16.5
G1 X17.08 E134.344 F900
G1 X17.22 Y16.37 F12000
G1 X18.09 Y15
G1 X18.17 Y13.5
G1 X18.37 E134.357 F900
; Layer Change GCode
; LAYER:1
; LAYER_HEIGHT:0.3
; TYPE:FILL
G1 Z0.6 F12000
G1 X14.96
G1 X14.33 Y1.75
; TYPE:WALL-INNER
G1 Y6.17 E134.632 F2160
G1 Y10.58 E134.908
G1 Y15 E135.183
G1 Y19.42 E135.459
G1 Y23.83 E135.734
G1 Y28.25 E136.009
G1 X9.92 E136.285
G1 X5.5 E136.56
G1 X1.09 E136.836
G1 X-3.33 E137.111
G1 X-7.75 E137.387
G1 X-12.16 E137.662
G1 Y23.83 E137.937
G1 Y19.42 E138.213
G1 Y15 E138.488
G1 Y10.58 E138.764
G1 Y6.17 E139.039
G1 Y1.75 E139.315
G1 X-7.76 E139.589
G1 X-3.35 E139.864
G1 X1.06 E140.139
G1 X5.47 E140.414
G1 X9.88 E140.689
G1 X14.29 E140.964
G1 X14.33
G1 X13.83 Y2.25 F12000
; TYPE:WALL-OUTER
G1 Y6.5 E141.229 F1620
G1 Y10.75 E141.494
G1 Y15 E141.759
G1 Y19.25 E142.024
G1 Y23.5 E142.289
G1 Y27.75 E142.554
G1 X9.58 E142.819
G1 X5.33 E143.084
G1 X1.09 E143.349
G1 X-3.16 E143.614
G1 X-7.41 E143.879
G1 X-11.66 E144.144
G1 Y23.5 E144.409
G1 Y19.25 E144.674
G1 Y15 E144.939
G1 Y10.75 E145.205
G1 Y6.5 E145.47
G1 Y2.25 E145.735
G1 X-7.42 E145.999
G1 X-3.18 E146.264
G1 X1.06 E146.528
G1 X5.3 E146.793
G1 X9.54 E147.057
G1 X13.79 E147.322
G1 X13.83
G1 Y5.25
G1 X14.33 Y1.75 F12000
G1 X15.33 Y0.75
; TYPE:WALL-INNER
G1 Y5.5 E147.618 F2160
G1 Y10.25 E147.914
G1 Y15 E148.21
G1 Y19.75 E148.507
G1 Y24.5 E148.803
G1 Y29.25 E149.099
G1 X10.58 E149.395
G1 X5.83 E149.691
G1 X1.09 E149.988
G1 X-3.66 E150.284
G1 X-8.41 E150.58
G1 X-13.16 E150.876
G1 Y24.5 E151.172
G1 Y19.75 E151.469
G1 Y15 E151.765
G1 Y10.25 E152.061
G1 Y5.5 E152.357
G1 Y0.75 E152.654
G1 X-8.42 E152.949
G1 X-3.68 E153.245
G1 X1.06 E153.541
G1 X5.8 E153.836
G1 X10.54 E154.132
G1 X15.29 E154.428
G1 X15.33
G1 X15.83 Y0.25 F12000
; TYPE:WALL-OUTER
G1 Y5.17 E154.734 F1620
G1 Y10.08 E155.041
G1 Y15 E155.348
G1 Y19.92 E155.654
G1 Y24.83 E155.961
G1 Y29.75 E156.267
G1 X10.92 E156.574
G1 X6 E156.881
G1 X1.09 E157.187
G1 X-3.83 E157.494
G1 X-8.75 E157.8
G1 X-13.66 E158.107
G1 Y24.83 E158.414
G1 Y19.92 E158.72
G1 Y15 E159.027
G1 Y10.08 E159.333
G1 Y5.17 E159.64
G1 Y0.25 E159.947
G1 X-8.76 E160.253
G1 X-3.85 E160.559
G1 X1.06 E160.865
G1 X5.97 E161.171
G1 X10.88 E161.477
G1 X15.79 E161.783
G1 X15.83
G1 Y3.25
G1 X15.33 Y0.75 F12000
G1 X14.58 Y1.25
; TYPE:FILL
G1 X10.08 E162.064 F2160
G1 X5.58 E162.344
G1 X1.09 E162.625
G1 X-3.41 E162.906
G1 X-7.91 E163.186
G1 X-12.41 E163.467
G1 X-12.66 Y1.5 F12000
G1 Y6 E163.748 F2160
G1 Y10.5 E164.028
G1 Y15 E164.309
G1 Y19.5 E164.589
G1 Y24 E164.87
G1 Y28.5 E165.151
G1 X-12.41 Y28.75 F12000
G1 X-7.91 E165.431 F2160
G1 X-3.41 E165.712
G1 X1.09 E165.993
G1 X5.58 E166.273
G1 X10.08 E166.554
G1 X14.58 E166.834
G1 X14.83 Y28.5 F12000
G1 Y24 E167.115 F2160
G1 Y19.5 E167.396
G1 Y15 E167.676
G1 Y10.5 E167.957
G1 Y6 E168.237
G1 Y1.5 E168.518
G1 E166.018 F6000
G1 Z1.1
G1 X12.58 Y5 F12000
; TYPE:SUPPORT
G1 Z0.6
G1 E168.518 F6000
G1 X7.98 Y5 E168.805 F2160
G1 X3.38 E169.092
G1 X-1.21 E169.379
G1 X-5.81 E169.666
G1 X-10.41 E169.952
G1 X-10.41 Y7.5 F12000
G1 X-5.81 E170.239 F2160
G1 X-1.21 E170.526
G1 X3.38 E170.813
G1 X7.98 E171.1
G1 X12.58 E171.387
G1 X12.58 Y10 F12000
G1 X7.98 E171.673 F2160
G1 X3.38 E171.96
G1 X-1.21 E172.247
G1 X-5.81 E172.534
G1 X-10.41 E172.821
G1 X-10.41 Y12.5 F12000
G1 X-5.81 E173.108 F2160
G1 X-1.21 E173.394
G1 X3.38 E173.681
G1 X7.98 E173.968
G1 X12.58 E174.255
G1 X12.58 Y15 F12000
G1 X7.98 E174.542 F2160
G1 X3.39 E174.829
G1 X-1.21 E175.116
G1 X-5.81 E175.402
G1 X-10.41 E175.689
G1 X-10.41 Y17.5 F12000
G1 X-5.81 E175.976 F2160
G1 X-1.21 E176.263
G1 X3.38 E176.55
G1 X7.98 E176.836
G1 X12.58 E177.123
G1 X12.58 Y20 F12000
G1 X7.98 E177.41 F2160
G1 X3.38 E177.697
G1 X-1.21 E177.984
G1 X-5.81 E178.271
G1 X-10.41 E178.557
G1 X-10.41 Y22.5 F12000
G1 X-5.81 E178.844 F2160
G1 X-1.21 E179.131
G1 X3.38 E179.418
G1 X7.98 E179.705
G1 X12.58 E179.991
G1 X12.58 Y25 F12000
G1 X7.98 E180.278 F2160
G1 X3.38 E180.565
G1 X-1.21 E180.852
G1 X-5.81 E181.139
G1 X-10.41 E181.426
G1 E178.926 F6000
G1 Z1.1
G1 X-16.05 Y15 F12000
G1 X-14.91
G1 Z0.6
G1 E181.426 F6000
G1 X-17.16 E181.565 F2160
G1 X-5.74 F12000
G1 X5.67
G1 X17.08
G1 X19.19 Y15 E181.697 F2160
; Layer Change GCode
; LAYER:2
; LAYER_HEIGHT:0.3
; TYPE:FILL
M400
M106 S255
G1 Z0.9 F12000
G1 X14.96
G1 X14.33 Y1.75
; TYPE:WALL-INNER
G1 Y6.17 E181.972 F1920
G1 Y10.58 E182.248
G1 Y15 E182.523
G1 Y19.42 E182.799
G1 Y23.83 E183.074
G1 Y28.25 E183.349
G1 X9.92 E183.625
G1 X5.5 E183.9
G1 X1.09 E184.176
G1 X-3.33 E184.451
G1 X-7.75 E184.726
G1 X-12.16 E185.002
G1 Y23.83 E185.277
G1 Y19.42 E185.553
G1 Y15 E185.828
G1 Y10.58 E186.104
G1 Y6.17 E186.379
G1 Y1.75 E186.654
G1 X-7.76 E186.929
G1 X-3.35 E187.204
G1 X1.06 E187.479
G1 X5.47 E187.754
G1 X9.88 E188.029
G1 X14.29 E188.304
G1 X14.33
G1 X13.83 Y2.25 F12000
; TYPE:WALL-OUTER
G1 Y6.5 E188.569 F1440
G1 Y10.75 E188.834
G1 Y15 E189.099
G1 Y19.25 E189.364
G1 Y23.5 E189.629
G1 Y27.75 E189.894
G1 X9.58 E190.159
G1 X5.33 E190.424
G1 X1.09 E190.689
G1 X-3.16 E190.954
G1 X-7.41 E191.219
G1 X-11.66 E191.484
G1 Y23.5 E191.749
G1 Y19.25 E192.014
G1 Y15 E192.279
G1 Y10.75 E192.544
G1 Y6.5 E192.809
G1 Y2.25 E193.075
G1 X-7.42 E193.339
G1 X-3.18 E193.604
G1 X1.06 E193.868
G1 X5.3 E194.133
G1 X9.54 E194.397
G1 X13.79 E194.662
G1 X13.83
G1 Y5.25
G1 X14.33 Y1.75 F12000
G1 X15.33 Y0.75
; TYPE:WALL-INNER
G1 Y5.5 E194.958 F1920
G1 Y10.25 E195.254
G1 Y15 E195.55
G1 Y19.75 E195.846
G1 Y24.5 E196.143
G1 Y29.25 E196.439
G1 X10.58 E196.735
G1 X5.83 E197.031
G1 X1.09 E197.328
G1 X-3.66 E197.624
G1 X-8.41 E197.92
G1 X-13.16 E198.216
G1 Y24.5 E198.512
G1 Y19.75 E198.809
G1 Y15 E199.105
G1 Y10.25 E199.401
G1 Y5.5 E199.697
G1 Y0.75 E199.993
G1 X-8.42 E200.289
G1 X-3.68 E200.585
G1 X1.06 E200.881
G1 X5.8 E201.176
G1 X10.54 E201.472
G1 X15.29 E201.768
G1 X15.33
G1 X15.83 Y0.25 F12000
; TYPE:WALL-OUTER
G1 Y5.17 E202.074 F1440
G1 Y10.08 E202.381
G1 Y15 E202.688
G1 Y19.92 E202.994
G1 Y24.83 E203.301
G1 Y29.75 E203.607
G1 X10.92 E203.914
G1 X6 E204.221
G1 X1.09 E204.527
G1 X-3.83 E204.834
G1 X-8.75 E205.14
G1 X-13.66 E205.447
G1 Y24.83 E205.754
G1 Y19.92 E206.06
G1 Y15 E206.367
G1 Y10.08 E206.673
G1 Y5.17 E206.98
G1 Y0.25 E207.287
G1 X-8.76 E207.593
G1 X-3.85 E207.899
G1 X1.06 E208.205
G1 X5.97 E208.511
G1 X10.88 E208.817
G1 X15.79 E209.123
G1 X15.83
G1 Y3.25
G1 X15.33 Y0.75 F12000
G1 X14.58 Y1.25
; TYPE:FILL
G1 X10.08 E209.404 F1920
G1 X5.58 E209.684
G1 X1.09 E209.965
G1 X-3.41 E210.246
G1 X-7.91 E210.526
G1 X-12.41 E210.807
G1 X-12.66 Y1.5 F12000
G1 Y6 E211.087 F1920
G1 Y10.5 E211.368
G1 Y15 E211.649
G1 Y19.5 E211.929
G1 Y24 E212.21
G1 Y28.5 E212.491
G1 X-12.41 Y28.75 F12000
G1 X-7.91 E212.771 F1920
G1 X-3.41 E213.052
G1 X1.09 E213.332
G1 X5.58 E213.613
G1 X10.08 E213.894
G1 X14.58 E214.174
G1 X14.83 Y28.5 F12000
G1 Y24 E214.455 F1920
G1 Y19.5 E214.736
G1 Y15 E215.016
G1 Y10.5 E215.297
G1 Y6 E215.577
G1 Y1.5 E215.858
G1 E213.358 F6000
G1 Z1.4
G1 X12.58 Y5 F12000
; TYPE:SUPPORT
G1 Z0.9
G1 E215.858 F6000
G1 X7.98 Y5 E216.145 F1920
G1 X3.38 E216.432
G1 X-1.21 E216.719
G1 X-5.81 E217.005
G1 X-10.41 E217.292
G1 X-10.41 Y7.5 F12000
G1 X-5.81 E217.579 F1920
G1 X-1.21 E217.866
G1 X3.38 E218.153
G1 X7.98 E218.44
G1 X12.58 E218.727
G1 X12.58 Y10 F12000
G1 X7.98 E219.013 F1920
G1 X3.38 E219.3
G1 X-1.21 E219.587
G1 X-5.81 E219.874
G1 X-10.41 E220.161
G1 X-10.41 Y12.5 F12000
G1 X-5.81 E220.448 F1920
G1 X-1.21 E220.734
G1 X3.38 E221.021
G1 X7.98 E221.308
G1 X12.58 E221.595
G1 X12.58 Y15 F12000
G1 X7.98 E221.882 F1920
G1 X3.39 E222.169
G1 X-1.21 E222.455
G1 X-5.81 E222.742
G1 X-10.41 E223.029
G1 X-10.41 Y17.5 F12000
G1 X-5.81 E223.316 F1920
G1 X-1.21 E223.603
G1 X3.38 E223.89
G1 X7.98 E224.176
G1 X12.58 E224.463
G1 X12.58 Y20 F12000
G1 X7.98 E224.75 F1920
G1 X3.38 E225.037
G1 X-1.21 E225.324
G1 X-5.81 E225.61
G1 X-10.41 E225.897
G1 X-10.41 Y22.5 F12000
G1 X-5.81 E226.184 F1920
G1 X-1.21 E226.471
G1 X3.38 E226.758
G1 X7.98 E227.045
G1 X12.58 E227.331
G1 X12.58 Y25 F12000
G1 X7.98 E227.618 F1920
G1 X3.38 E227.905
G1 X-1.21 E228.192
G1 X-5.81 E228.479
G1 X-10.41 E228.765
G1 E226.265 F6000
G1 Z1.4
G1 X-16.05 Y15 F12000
G1 X-14.91
G1 Z0.9
G1 E228.765 F6000
G1 X-17.16 E228.905 F1920
G1 X-5.74 F12000
G1 X5.67
G1 X17.08
G1 X19.19 Y15 E229.037 F1920
; Layer Change GCode
; LAYER:3
; LAYER_HEIGHT:0.3
; TYPE:FILL
M400
M106 S252
G1 Z1.2 F12000
G1 X14.96
G1 X14.33 Y1.75
; TYPE:WALL-INNER
G1 Y6.17 E229.312 F1804
G1 Y10.58 E229.588
G1 Y15 E229.863
G1 Y19.42 E230.138
G1 Y23.83 E230.414
G1 Y28.25 E230.689
G1 X9.92 E230.965
G1 X5.5 E231.24
G1 X1.09 E231.516
G1 X-3.33 E231.791
G1 X-7.75 E232.066
G1 X-12.16 E232.342
G1 Y23.83 E232.617
G1 Y19.42 E232.893
G1 Y15 E233.168
G1 Y10.58 E233.444
G1 Y6.17 E233.719
G1 Y1.75 E233.994
G1 X-7.76 E234.269
G1 X-3.35 E234.544
G1 X1.06 E234.819
G1 X5.47 E235.094
G1 X9.88 E235.369
G1 X14.29 E235.644
G1 X14.33
G1 X13.83 Y2.25 F12000
; TYPE:WALL-OUTER
G1 Y6.5 E235.909 F1353
G1 Y10.75 E236.174
G1 Y15 E236.439
G1 Y19.25 E236.704
G1 Y23.5 E236.969
G1 Y27.75 E237.234
G1 X9.58 E237.499
G1 X5.33 E237.764
G1 X1.09 E238.029
G1 X-3.16 E238.294
G1 X-7.41 E238.559
G1 X-11.66 E238.824
G1 Y23.5 E239.089
G1 Y19.25 E239.354
G1 Y15 E239.619
G1 Y10.75 E239.884
G1 Y6.5 E240.149
G1 Y2.25 E240.414
G1 X-7.42 E240.679
G1 X-3.18 E240.943
G1 X1.06 E241.208
G1 X5.3 E241.473
G1 X9.54 E241.737
G1 X13.79 E242.002
G1 X13.83
G1 Y5.25
G1 X14.33 Y1.75 F12000
G1 X15.33 Y0.75
; TYPE:WALL-INNER
G1 Y5.5 E242.298 F1804
G1 Y10.25 E242.594
G1 Y15 E242.89
G1 Y19.75 E243.186
G1 Y24.5 E243.483
G1 Y29.25 E243.779
G1 X10.58 E244.075
G1 X5.83 E244.371
G1 X1.09 E244.667
G1 X-3.66 E244.964
G1 X-8.41 E245.26
G1 X-13.16 E245.556
G1 Y24.5 E245.852
G1 Y19.75 E246.149
G1 Y15 E246.445
G1 Y10.25 E246.741
G1 Y5.5 E247.037
G1 Y0.75 E247.333
G1 X-8.42 E247.629
G1 X-3.68 E247.925
G1 X1.06 E248.221
G1 X5.8 E248.516
G1 X10.54 E248.812
G1 X15.29 E249.108
G1 X15.33
G1 X15.83 Y0.25 F12000
; TYPE:WALL-OUTER
G1 Y5.17 E249.414 F1353
G1 Y10.08 E249.721
G1 Y15 E250.027
G1 Y19.92 E250.334
G1 Y24.83 E250.641
G1 Y29.75 E250.947
G1 X10.92 E251.254
G1 X6 E251.56
G1 X1.09 E251.867
G1 X-3.83 E252.174
G1 X-8.75 E252.48
G1 X-13.66 E252.787
G1 Y24.83 E253.093
G1 Y19.92 E253.4
G1 Y15 E253.707
G1 Y10.08 E254.013
G1 Y5.17 E254.32
G1 Y0.25 E254.627
G1 X-8.76 E254.933
G1 X-3.85 E255.239
G1 X1.06 E255.545
G1 X5.97 E255.851
G1 X10.88 E256.157
G1 X15.79 E256.463
G1 X15.83
G1 Y3.25
G1 X15.33 Y0.75 F12000
G1 X14.58 Y1.25
; TYPE:FILL
G1 X10.08 E256.744 F1804
G1 X5.58 E257.024
G1 X1.09 E257.305
G1 X-3.41 E257.586
G1 X-7.91 E257.866
G1 X-12.41 E258.147
G1 X-12.66 Y1.5 F12000
G1 Y6 E258.427 F1804
G1 Y10.5 E258.708
G1 Y15 E258.989
G1 Y19.5 E259.269
G1 Y24 E259.55
G1 Y28.5 E259.831
G1 X-12.41 Y28.75 F12000
G1 X-7.91 E260.111 F1804
G1 X-3.41 E260.392
G1 X1.09 E260.672
G1 X5.58 E260.953
G1 X10.08 E261.234
G1 X14.58 E261.514
G1 X14.83 Y28.5 F12000
G1 Y24 E261.795 F1804
G1 Y19.5 E262.075
G1 Y15 E262.356
G1 Y10.5 E262.637
G1 Y6 E262.917
G1 Y1.5 E263.198
G1 E260.698 F6000
G1 Z1.7
G1 X12.58 Y5 F12000
; TYPE:SUPPORT
G1 Z1.2
G1 E263.198 F6000
G1 X7.98 Y5 E263.485 F1804
G1 X3.38 E263.772
G1 X-1.21 E264.059
G1 X-5.81 E264.345
G1 X-10.41 E264.632
G1 X-10.41 Y7.5 F12000
G1 X-5.81 E264.919 F1804
G1 X-1.21 E265.206
G1 X3.38 E265.493
G1 X7.98 E265.78
G1 X12.58 E266.066
G1 X12.58 Y10 F12000
G1 X7.98 E266.353 F1804
G1 X3.38 E266.64
G1 X-1.21 E266.927
G1 X-5.81 E267.214
G1 X-10.41 E267.501
G1 X-10.41 Y12.5 F12000
G1 X-5.81 E267.788 F1804
G1 X-1.21 E268.074
G1 X3.38 E268.361
G1 X7.98 E268.648
G1 X12.58 E268.935
G1 X12.58 Y15 F12000
G1 X7.98 E269.222 F1804
G1 X3.39 E269.509
G1 X-1.21 E269.795
G1 X-5.81 E270.082
G1 X-10.41 E270.369
G1 X-10.41 Y17.5 F12000
G1 X-5.81 E270.656 F1804
G1 X-1.21 E270.943
G1 X3.38 E271.23
G1 X7.98 E271.516
G1 X12.58 E271.803
G1 X12.58 Y20 F12000
G1 X7.98 E272.09 F1804
G1 X3.38 E272.377
G1 X-1.21 E272.664
G1 X-5.81 E272.95
G1 X-10.41 E273.237
G1 X-10.41 Y22.5 F12000
G1 X-5.81 E273.524 F1804
G1 X-1.21 E273.811
G1 X3.38 E274.098
G1 X7.98 E274.385
G1 X12.58 E274.671
G1 X12.58 Y25 F12000
G1 X7.98 E274.958 F1804
G1 X3.38 E275.245
G1 X-1.21 E275.532
G1 X-5.81 E275.819
G1 X-10.41 E276.105
G1 E273.605 F6000
G1 Z1.7
G1 X-16.05 Y15 F12000
G1 X-14.91
G1 Z1.2
G1 E276.105 F6000
G1 X-17.16 E276.245 F1804
G1 X-5.74 F12000
G1 X5.67
G1 X17.08
G1 X19.19 Y15 E276.377 F1804
; Layer Change GCode
; LAYER:4
; LAYER_HEIGHT:0.3
; TYPE:FILL
G1 Z1.5 F12000
G1 X14.96
G1 X14.33 Y1.75
; TYPE:WALL-INNER
G1 Y6.17 E276.652 F1804
G1 Y10.58 E276.928
G1 Y15 E277.203
G1 Y19.42 E277.478
G1 Y23.83 E277.754
G1 Y28.25 E278.029
G1 X9.92 E278.305
G1 X5.5 E278.58
G1 X1.09 E278.855
G1 X-3.33 E279.131
G1 X-7.75 E279.406
G1 X-12.16 E279.682
G1 Y23.83 E279.957
G1 Y19.42 E280.233
G1 Y15 E280.508
G1 Y10.58 E280.783
G1 Y6.17 E281.059
G1 Y1.75 E281.334
G1 X-7.76 E281.609
G1 X-3.35 E281.884
G1 X1.06 E282.159
G1 X5.47 E282.434
G1 X9.88 E282.709
G1 X14.29 E282.984
G1 X14.33
G1 X13.83 Y2.25 F12000
; TYPE:WALL-OUTER
G1 Y6.5 E283.249 F1353
G1 Y10.75 E283.514
G1 Y15 E283.779
G1 Y19.25 E284.044
G1 Y23.5 E284.309
G1 Y27.75 E284.574
G1 X9.58 E284.839
G1 X5.33 E285.104
G1 X1.09 E285.369
G1 X-3.16 E285.634
G1 X-7.41 E285.899
G1 X-11.66 E286.164
G1 Y23.5 E286.429
G1 Y19.25 E286.694
G1 Y15 E286.959
G1 Y10.75 E287.224
G1 Y6.5 E287.489
G1 Y2.25 E287.754
G1 X-7.42 E288.019
G1 X-3.18 E288.283
G1 X1.06 E288.548
G1 X5.3 E288.812
G1 X9.54 E289.077
G1 X13.79 E289.341
G1 X13.83
G1 Y5.25
G1 X14.33 Y1.75 F12000
G1 X15.33 Y0.75
; TYPE:WALL-INNER
G1 Y5.5 E289.638 F1804
G1 Y10.25 E289.934
G1 Y15 E290.23
G1 Y19.75 E290.526
G1 Y24.5 E290.823
G1 Y29.25 E291.119
G1 X10.58 E291.415
G1 X5.83 E291.711
G1 X1.09 E292.007
G1 X-3.66 E292.304
G1 X-8.41 E292.6
G1 X-13.16 E292.896
G1 Y24.5 E293.192
G1 Y19.75 E293.488
G1 Y15 E293.785
G1 Y10.25 E294.081
G1 Y5.5 E294.377
G1 Y0.75 E294.673
G1 X-8.42 E294.969
G1 X-3.68 E295.265
G1 X1.06 E295.56
G1 X5.8 E295.856
G1 X10.54 E296.152
G1 X15.29 E296.448
G1 X15.33
G1 X15.83 Y0.25 F12000
; TYPE:WALL-OUTER
G1 Y5.17 E296.754 F1353
G1 Y10.08 E297.061
G1 Y15 E297.367
G1 Y19.92 E297.674
G1 Y24.83 E297.981
G1 Y29.75 E298.287
G1 X10.92 E298.594
G1 X6 E298.9
G1 X1.09 E299.207
G1 X-3.83 E299.514
G1 X-8.75 E299.82
G1 X-13.66 E300.127
G1 Y24.83 E300.433
G1 Y19.92 E300.74
G1 Y15 E301.047
G1 Y10.08 E301.353
G1 Y5.17 E301.66
G1 Y0.25 E301.967
G1 X-8.76 E302.273
G1 X-3.85 E302.579
G1 X1.06 E302.885
G1 X5.97 E303.191
G1 X10.88 E303.497
G1 X15.79 E303.803
G1 X15.83
G1 Y3.25
G1 X15.33 Y0.75 F12000
G1 X14.58 Y1.25
; TYPE:FILL
G1 X10.08 E304.084 F1804
G1 X5.58 E304.364
G1 X1.09 E304.645
G1 X-3.41 E304.925
G1 X-7.91 E305.206
G1 X-12.41 E305.487
G1 X-12.66 Y1.5 F12000
G1 Y6 E305.767 F1804
G1 Y10.5 E306.048
G1 Y15 E306.329
G1 Y19.5 E306.609
G1 Y24 E306.89
G1 Y28.5 E307.17
G1 X-12.41 Y28.75 F12000
G1 X-7.91 E307.451 F1804
G1 X-3.41 E307.732
G1 X1.09 E308.012
G1 X5.58 E308.293
G1 X10.08 E308.574
G1 X14.58 E308.854
G1 X14.83 Y28.5 F12000
G1 Y24 E309.135 F1804
G1 Y19.5 E309.415
G1 Y15 E309.696
G1 Y10.5 E309.977
G1 Y6 E310.257
G1 Y1.5 E310.538
G1 E308.038 F6000
G1 Z2
G1 X12.58 Y5 F12000
; TYPE:SUPPORT
G1 Z1.5
G1 E310.538 F6000
G1 X7.98 Y5 E310.825 F1804
G1 X3.38 E311.112
G1 X-1.21 E311.398
G1 X-5.81 E311.685
G1 X-10.41 E311.972
G1 X-10.41 Y7.5 F12000
G1 X-5.81 E312.259 F1804
G1 X-1.21 E312.546
G1 X3.38 E312.833
G1 X7.98 E313.12
G1 X12.58 E313.406
G1 X12.58 Y10 F12000
G1 X7.98 E313.693 F1804
G1 X3.38 E313.98
G1 X-1.21 E314.267
G1 X-5.81 E314.554
G1 X-10.41 E314.841
G1 X-10.41 Y12.5 F12000
G1 X-5.81 E315.127 F1804
G1 X-1.21 E315.414
G1 X3.38 E315.701
G1 X7.98 E315.988
G1 X12.58 E316.275
G1 X12.58 Y15 F12000
G1 X7.98 E316.562 F1804
G1 X3.39 E316.848
G1 X-1.21 E317.135
G1 X-5.81 E317.422
G1 X-10.41 E317.709
G1 X-10.41 Y17.5 F12000
G1 X-5.81 E317.996 F1804
G1 X-1.21 E318.283
G1 X3.38 E318.569
G1 X7.98 E318.856
G1 X12.58 E319.143
G1 X12.58 Y20 F12000
G1 X7.98 E319.43 F1804
G1 X3.38 E319.717
G1 X-1.21 E320.004
G1 X-5.81 E320.29
G1 X-10.41 E320.577
G1 X-10.41 Y22.5 F12000
G1 X-5.81 E320.864 F1804
G1 X-1.21 E321.151
G1 X3.38 E321.438
G1 X7.98 E321.724
G1 X12.58 E322.011
G1 X12.58 Y25 F12000
G1 X7.98 E322.298 F1804
G1 X3.38 E322.585
G1 X-1.21 E322.872
G1 X-5.81 E323.159
G1 X-10.41 E323.445
G1 E320.945 F6000
G1 Z2
G1 X-16.05 Y15 F12000
G1 X-14.91
G1 Z1.5
G1 E323.445 F6000
G1 X-17.16 E323.585 F1804
G1 X-5.74 F12000
G1 X5.67
G1 X17.08
G1 X19.19 Y15 E323.717 F1804
; Layer Change GCode
; LAYER:5
; LAYER_HEIGHT:0.3
; TYPE:FILL
G1 Z1.8 F12000
G1 X14.96
G1 X14.33 Y1.75
; TYPE:WALL-INNER
G1 Y6.17 E323.992 F1804
G1 Y10.58 E324.267
G1 Y15 E324.543
G1 Y19.42 E324.818
G1 Y23.83 E325.094
G1 Y28.25 E325.369
G1 X9.92 E325.645
G1 X5.5 E325.92
G1 X1.09 E326.195
G1 X-3.33 E326.471
G1 X-7.75 E326.746
G1 X-12.16 E327.022
G1 Y23.83 E327.297
G1 Y19.42 E327.573
G1 Y15 E327.848
G1 Y10.58 E328.123
G1 Y6.17 E328.399
G1 Y1.75 E328.674
G1 X-7.76 E328.949
G1 X-3.35 E329.224
G1 X1.06 E329.499
G1 X5.47 E329.774
G1 X9.88 E330.049
G1 X14.29 E330.324
G1 X14.33
G1 X13.83 Y2.25 F12000
; TYPE:WALL-OUTER
G1 Y6.5 E330.589 F1353
G1 Y10.75 E330.854
G1 Y15 E331.119
G1 Y19.25 E331.384
G1 Y23.5 E331.649
G1 Y27.75 E331.914
G1 X9.58 E332.179
G1 X5.33 E332.444
G1 X1.09 E332.709
G1 X-3.16 E332.974
G1 X-7.41 E333.239
G1 X-11.66 E333.504
G1 Y23.5 E333.769
G1 Y19.25 E334.034
G1 Y15 E334.299
G1 Y10.75 E334.564
G1 Y6.5 E334.829
G1 Y2.25 E335.094
G1 X-7.42 E335.359
G1 X-3.18 E335.623
G1 X1.06 E335.888
G1 X5.3 E336.152
G1 X9.54 E336.417
G1 X13.79 E336.681
G1 X13.83
G1 Y5.25
G1 X14.33 Y1.75 F12000
G1 X15.33 Y0.75
; TYPE:WALL-INNER
G1 Y5.5 E336.978 F1804
G1 Y10.25 E337.274
G1 Y15 E337.57
G1 Y19.75 E337.866
G1 Y24.5 E338.163
G1 Y29.25 E338.459
G1 X10.58 E338.755
G1 X5.83 E339.051
G1 X1.09 E339.347
G1 X-3.66 E339.644
G1 X-8.41 E339.94
G1 X-13.16 E340.236
G1 Y24.5 E340.532
G1 Y19.75 E340.828
G1 Y15 E341.125
G1 Y10.25 E341.421
G1 Y5.5 E341.717
G1 Y0.75 E342.013
G1 X-8.42 E342.309
G1 X-3.68 E342.605
G1 X1.06 E342.9
G1 X5.8 E343.196
G1 X10.54 E343.492
G1 X15.29 E343.787
G1 X15.33
G1 X15.83 Y0.25 F12000
; TYPE:WALL-OUTER
G1 Y5.17 E344.094 F1353
G1 Y10.08 E344.401
G1 Y15 E344.707
G1 Y19.92 E345.014
G1 Y24.83 E345.321
G1 Y29.75 E345.627
G1 X10.92 E345.934
G1 X6 E346.24
G1 X1.09 E346.547
G1 X-3.83 E346.854
G1 X-8.75 E347.16
G1 X-13.66 E347.467
G1 Y24.83 E347.773
G1 Y19.92 E348.08
G1 Y15 E348.387
G1 Y10.08 E348.693
G1 Y5.17 E349
G1 Y0.25 E349.306
G1 X-8.76 E349.613
G1 X-3.85 E349.919
G1 X1.06 E350.225
G1 X5.97 E350.531
G1 X10.88 E350.837
G1 X15.79 E351.143
G1 X15.83
G1 Y3.25
G1 X15.33 Y0.75 F12000
G1 X14.58 Y1.25
; TYPE:FILL
G1 X10.08 E351.424 F1804
G1 X5.58 E351.704
G1 X1.09 E351.985
G1 X-3.41 E352.265
G1 X-7.91 E352.546
G1 X-12.41 E352.827
G1 X-12.66 Y1.5 F12000
G1 Y6 E353.107 F1804
G1 Y10.5 E353.388
G1 Y15 E353.669
G1 Y19.5 E353.949
G1 Y24 E354.23
G1 Y28.5 E354.51
G1 X-12.41 Y28.75 F12000
G1 X-7.91 E354.791 F1804
G1 X-3.41 E355.072
G1 X1.09 E355.352
G1 X5.58 E355.633
G1 X10.08 E355.913
G1 X14.58 E356.194
G1 X14.83 Y28.5 F12000
G1 Y24 E356.475 F1804
G1 Y19.5 E356.755
G1 Y15 E357.036
G1 Y10.5 E357.317
G1 Y6 E357.597
G1 Y1.5 E357.878
G1 E355.378 F6000
G1 Z2.3
G1 X12.58 Y5 F12000
; TYPE:SUPPORT
G1 Z1.8
G1 E357.878 F6000
G1 X7.98 Y5 E358.165 F1804
G1 X3.38 E358.452
G1 X-1.21 E358.738
G1 X-5.81 E359.025
G1 X-10.41 E359.312
G1 X-10.41 Y7.5 F12000
G1 X-5.81 E359.599 F1804
G1 X-1.21 E359.886
G1 X3.38 E360.173
G1 X7.98 E360.459
G1 X12.58 E360.746
G1 X12.58 Y10 F12000
G1 X7.98 E361.033 F1804
G1 X3.38 E361.32
G1 X-1.21 E361.607
G1 X-5.81 E361.894
G1 X-10.41 E362.181
G1 X-10.41 Y12.5 F12000
G1 X-5.81 E362.467 F1804
G1 X-1.21 E362.754
G1 X3.38 E363.041
G1 X7.98 E363.328
G1 X12.58 E363.615
G1 X12.58 Y15 F12000
G1 X7.98 E363.902 F1804
G1 X3.39 E364.188
G1 X-1.21 E364.475
G1 X-5.81 E364.762
G1 X-10.41 E365.049
G1 X-10.41 Y17.5 F12000
G1 X-5.81 E365.336 F1804
G1 X-1.21 E365.623
G1 X3.38 E365.909
G1 X7.98 E366.196
G1 X12.58 E366.483
G1 X12.58 Y20 F12000
G1 X7.98 E366.77 F1804
G1 X3.38 E367.057
G1 X-1.21 E367.343
G1 X-5.81 E367.63
G1 X-10.41 E367.917
G1 X-10.41 Y22.5 F12000
G1 X-5.81 E368.204 F1804
G1 X-1.21 E368.491
G1 X3.38 E368.778
G1 X7.98 E369.064
G1 X12.58 E369.351
G1 X12.58 Y25 F12000
G1 X7.98 E369.638 F1804
G1 X3.38 E369.925
G1 X-1.21 E370.212
G1 X-5.81 E370.498
G1 X-10.41 E370.785
G1 E368.285 F6000
G1 Z2.3
G1 X-16.05 Y15 F12000
G1 X-14.91
G1 Z1.8
G1 E370.785 F6000
G1 X-17.16 E370.925 F1804
G1 X-5.74 F12000
G1 X5.67
G1 X17.08
G1 X19.19 Y15 E371.057 F1804
; Layer Change GCode
; LAYER:6
; LAYER_HEIGHT:0.3
; TYPE:FILL
G1 Z2.1 F12000
G1 X14.96
G1 X14.33 Y1.75
; TYPE:WALL-INNER
G1 Y6.17 E371.332 F1804
G1 Y10.58 E371.607
G1 Y15 E371.883
G1 Y19.42 E372.158
G1 Y23.83 E372.434
G1 Y28.25 E372.709
G1 X9.92 E372.985
G1 X5.5 E373.26
G1 X1.09 E373.535
G1 X-3.33 E373.811
G1 X-7.75 E374.086
G1 X-12.16 E374.362
G1 Y23.83 E374.637
G1 Y19.42 E374.912
G1 Y15 E375.188
G1 Y10.58 E375.463
G1 Y6.17 E375.739
G1 Y1.75 E376.014
G1 X-7.76 E376.289
G1 X-3.35 E376.564
G1 X1.06 E376.839
G1 X5.47 E377.114
G1 X9.88 E377.389
G1 X14.29 E377.664
G1 X14.33
G1 X13.83 Y2.25 F12000
; TYPE:WALL-OUTER
G1 Y6.5 E377.929 F1353
G1 Y10.75 E378.194
G1 Y15 E378.459
G1 Y19.25 E378.724
G1 Y23.5 E378.989
G1 Y27.75 E379.254
G1 X9.58 E379.519
G1 X5.33 E379.784
G1 X1.09 E380.049
G1 X-3.16 E380.314
G1 X-7.41 E380.579
G1 X-11.66 E380.844
G1 Y23.5 E381.109
G1 Y19.25 E381.374
G1 Y15 E381.639
G1 Y10.75 E381.904
G1 Y6.5 E382.169
G1 Y2.25 E382.434
G1 X-7.42 E382.699
G1 X-3.18 E382.963
G1 X1.06 E383.228
G1 X5.3 E383.492
G1 X9.54 E383.757
G1 X13.79 E384.021
G1 X13.83
G1 Y5.25
G1 X14.33 Y1.75 F12000
G1 X15.33 Y0.75
; TYPE:WALL-INNER
G1 Y5.5 E384.318 F1804
G1 Y10.25 E384.614
G1 Y15 E384.91
G1 Y19.75 E385.206
G1 Y24.5 E385.502
G1 Y29.25 E385.799
G1 X10.58 E386.095
G1 X5.83 E386.391
G1 X1.09 E386.687
G1 X-3.66 E386.984
G1 X-8.41 E387.28
G1 X-13.16 E387.576
G1 Y24.5 E387.872
G1 Y19.75 E388.168
G1 Y15 E388.465
G1 Y10.25 E388.761
G1 Y5.5 E389.057
G1 Y0.75 E389.353
G1 X-8.42 E389.649
G1 X-3.68 E389.945
G1 X1.06 E390.24
G1 X5.8 E390.536
G1 X10.54 E390.832
G1 X15.29 E391.127
G1 X15.33
G1 X15.83 Y0.25 F12000
; TYPE:WALL-OUTER
G1 Y5.17 E391.434 F1353
G1 Y10.08 E391.741
G1 Y15 E392.047
G1 Y19.92 E392.354
G1 Y24.83 E392.66
G1 Y29.75 E392.967
G1 X10.92 E393.274
G1 X6 E393.58
G1 X1.09 E393.887
G1 X-3.83 E394.193
G1 X-8.75 E394.5
G1 X-13.66 E394.807
G1 Y24.83 E395.113
G1 Y19.92 E395.42
G1 Y15 E395.727
G1 Y10.08 E396.033
G1 Y5.17 E396.34
G1 Y0.25 E396.646
G1 X-8.76 E396.952
G1 X-3.85 E397.259
G1 X1.06 E397.565
G1 X5.97 E397.871
G1 X10.88 E398.177
G1 X15.79 E398.483
G1 X15.83
G1 Y3.25
G1 X15.33 Y0.75 F12000
G1 X14.58 Y1.25
; TYPE:FILL
G1 X10.08 E398.764 F1804
G1 X5.58 E399.044
G1 X1.09 E399.325
G1 X-3.41 E399.605
G1 X-7.91 E399.886
G1 X-12.41 E400.167
G1 X-12.66 Y1.5 F12000
G1 Y6 E400.447 F1804
G1 Y10.5 E400.728
G1 Y15 E401.008
G1 Y19.5 E401.289
G1 Y24 E401.57
G1 Y28.5 E401.85
G1 X-12.41 Y28.75 F12000
G1 X-7.91 E402.131 F1804
G1 X-3.41 E402.412
G1 X1.09 E402.692
G1 X5.58 E402.973
G1 X10.08 E403.253
G1 X14.58 E403.534
G1 X14.83 Y28.5 F12000
G1 Y24 E403.815 F1804
G1 Y19.5 E404.095
G1 Y15 E404.376
G1 Y10.5 E404.657
G1 Y6 E404.937
G1 Y1.5 E405.218
G1 E402.718 F6000
G1 Z2.6
G1 X12.58 Y5 F12000
; TYPE:SUPPORT
G1 Z2.1
G1 E405.218 F6000
G1 X7.98 Y5 E405.505 F1804
G1 X3.38 E405.792
G1 X-1.21 E406.078
G1 X-5.81 E406.365
G1 X-10.41 E406.652
G1 X-10.41 Y7.5 F12000
G1 X-5.81 E406.939 F1804
G1 X-1.21 E407.226
G1 X3.38 E407.513
G1 X7.98 E407.799
G1 X12.58 E408.086
G1 X12.58 Y10 F12000
G1 X7.98 E408.373 F1804
G1 X3.38 E408.66
G1 X-1.21 E408.947
G1 X-5.81 E409.234
G1 X-10.41 E409.52
G1 X-10.41 Y12.5 F12000
G1 X-5.81 E409.807 F1804
G1 X-1.21 E410.094
G1 X3.38 E410.381
G1 X7.98 E410.668
G1 X12.58 E410.955
G1 X12.58 Y15 F12000
G1 X7.98 E411.242 F1804
G1 X3.39 E411.528
G1 X-1.21 E411.815
G1 X-5.81 E412.102
G1 X-10.41 E412.389
G1 X-10.41 Y17.5 F12000
G1 X-5.81 E412.676 F1804
G1 X-1.21 E412.963
G1 X3.38 E413.249
G1 X7.98 E413.536
G1 X12.58 E413.823
G1 X12.58 Y20 F12000
G1 X7.98 E414.11 F1804
G1 X3.38 E414.397
G1 X-1.21 E414.683
G1 X-5.81 E414.97
G1 X-10.41 E415.257
G1 X-10.41 Y22.5 F12000
G1 X-5.81 E415.544 F1804
G1 X-1.21 E415.831
G1 X3.38 E416.118
G1 X7.98 E416.404
G1 X12.58 E416.691
G1 X12.58 Y25 F12000
G1 X7.98 E416.978 F1804
G1 X3.38 E417.265
G1 X-1.21 E417.552
G1 X-5.81 E417.838
G1 X-10.41 E418.125
G1 E415.625 F6000
G1 Z2.6
G1 X-16.05 Y15 F12000
G1 X-14.91
G1 Z2.1
G1 E418.125 F6000
G1 X-17.16 E418.265 F1804
G1 X-5.74 F12000
G1 X5.67
G1 X17.08
G1 X19.19 Y15 E418.396 F1804
; Layer Change GCode
; LAYER:7
; LAYER_HEIGHT:0.3
; TYPE:FILL
G1 Z2.4 F12000
G1 X14.96
G1 X14.33 Y1.75
; TYPE:WALL-INNER
G1 Y6.17 E418.672 F1804
G1 Y10.58 E418.947
G1 Y15 E419.223
G1 Y19.42 E419.498
G1 Y23.83 E419.774
G1 Y28.25 E420.049
G1 X9.92 E420.324
G1 X5.5 E420.6
G1 X1.09 E420.875
G1 X-3.33 E421.151
G1 X-7.75 E421.426
G1 X-12.16 E421.702
G1 Y23.83 E421.977
G1 Y19.42 E422.252
G1 Y15 E422.528
G1 Y10.58 E422.803
G1 Y6.17 E423.079
G1 Y1.75 E423.354
G1 X-7.76 E423.629
G1 X-3.35 E423.904
G1 X1.06 E424.179
G1 X5.47 E424.454
G1 X9.88 E424.729
G1 X14.29 E425.004
G1 X14.33
G1 X13.83 Y2.25 F12000
; TYPE:WALL-OUTER
G1 Y6.5 E425.269 F1353
G1 Y10.75 E425.534
G1 Y15 E425.799
G1 Y19.25 E426.064
G1 Y23.5 E426.329
G1 Y27.75 E426.594
G1 X9.58 E426.859
G1 X5.33 E427.124
G1 X1.09 E427.389
G1 X-3.16 E427.654
G1 X-7.41 E427.919
G1 X-11.66 E428.184
G1 Y23.5 E428.449
G1 Y19.25 E428.714
G1 Y15 E428.979
G1 Y10.75 E429.244
G1 Y6.5 E429.509
G1 Y2.25 E429.774
G1 X-7.42 E430.039
G1 X-3.18 E430.303
G1 X1.06 E430.568
G1 X5.3 E430.832
G1 X9.54 E431.097
G1 X13.79 E431.361
G1 X13.83
G1 Y5.25
G1 X14.33 Y1.75 F12000
G1 X15.33 Y0.75
; TYPE:WALL-INNER
G1 Y5.5 E431.658 F1804
G1 Y10.25 E431.954
G1 Y15 E432.25
G1 Y19.75 E432.546
G1 Y24.5 E432.842
G1 Y29.25 E433.139
G1 X10.58 E433.435
G1 X5.83 E433.731
G1 X1.09 E434.027
G1 X-3.66 E434.323
G1 X-8.41 E434.62
G1 X-13.16 E434.916
G1 Y24.5 E435.212
G1 Y19.75 E435.508
G1 Y15 E435.805
G1 Y10.25 E436.101
G1 Y5.5 E436.397
G1 Y0.75 E436.693
G1 X-8.42 E436.989
G1 X-3.68 E437.285
G1 X1.06 E437.58
G1 X5.8 E437.876
G1 X10.54 E438.172
G1 X15.29 E438.467
G1 X15.33
G1 X15.83 Y0.25 F12000
; TYPE:WALL-OUTER
G1 Y5.17 E438.774 F1353
G1 Y10.08 E439.081
G1 Y15 E439.387
G1 Y19.92 E439.694
G1 Y24.83 E440
G1 Y29.75 E440.307
G1 X10.92 E440.614
G1 X6 E440.92
G1 X1.09 E441.227
G1 X-3.83 E441.533
G1 X-8.75 E441.84
G1 X-13.66 E442.147
G1 Y24.83 E442.453
G1 Y19.92 E442.76
G1 Y15 E443.066
G1 Y10.08 E443.373
G1 Y5.17 E443.68
G1 Y0.25 E443.986
G1 X-8.76 E444.292
G1 X-3.85 E444.599
G1 X1.06 E444.905
G1 X5.97 E445.211
G1 X10.88 E445.517
G1 X15.79 E445.823
G1 X15.83
G1 Y3.25
G1 X15.33 Y0.75 F12000
G1 X14.58 Y1.25
; TYPE:FILL
G1 X10.08 E446.103 F1804
G1 X5.58 E446.384
G1 X1.09 E446.665
G1 X-3.41 E446.945
G1 X-7.91 E447.226
G1 X-12.41 E447.507
G1 X-12.66 Y1.5 F12000
G1 Y6 E447.787 F1804
G1 Y10.5 E448.068
G1 Y15 E448.348
G1 Y19.5 E448.629
G1 Y24 E448.91
G1 Y28.5 E449.19
G1 X-12.41 Y28.75 F12000
G1 X-7.91 E449.471 F1804
G1 X-3.41 E449.752
G1 X1.09 E450.032
G1 X5.58 E450.313
G1 X10.08 E450.593
G1 X14.58 E450.874
G1 X14.83 Y28.5 F12000
G1 Y24 E451.155 F1804
G1 Y19.5 E451.435
G1 Y15 E451.716
G1 Y10.5 E451.997
G1 Y6 E452.277
G1 Y1.5 E452.558
G1 E450.058 F6000
G1 Z2.9
G1 X12.58 Y5 F12000
; TYPE:SUPPORT
G1 Z2.4
G1 E452.558 F6000
G1 X7.98 Y5 E452.845 F1804
G1 X3.38 E453.131
G1 X-1.21 E453.418
G1 X-5.81 E453.705
G1 X-10.41 E453.992
G1 X-10.41 Y7.5 F12000
G1 X-5.81 E454.279 F1804
G1 X-1.21 E454.566
G1 X3.38 E454.853
G1 X7.98 E455.139
G1 X12.58 E455.426
G1 X12.58 Y10 F12000
G1 X7.98 E455.713 F1804
G1 X3.38 E456
G1 X-1.21 E456.287
G1 X-5.81 E456.574
G1 X-10.41 E456.86
G1 X-10.41 Y12.5 F12000
G1 X-5.81 E457.147 F1804
G1 X-1.21 E457.434
G1 X3.38 E457.721
G1 X7.98 E458.008
G1 X12.58 E458.295
G1 X12.58 Y15 F12000
G1 X7.98 E458.581 F1804
G1 X3.39 E458.868
G1 X-1.21 E459.155
G1 X-5.81 E459.442
G1 X-10.41 E459.729
G1 X-10.41 Y17.5 F12000
G1 X-5.81 E460.016 F1804
G1 X-1.21 E460.302
G1 X3.38 E460.589
G1 X7.98 E460.876
G1 X12.58 E461.163
G1 X12.58 Y20 F12000
G1 X7.98 E461.45 F1804
G1 X3.38 E461.737
G1 X-1.21 E462.023
G1 X-5.81 E462.31
G1 X-10.41 E462.597
G1 X-10.41 Y22.5 F12000
G1 X-5.81 E462.884 F1804
G1 X-1.21 E463.171
G1 X3.38 E463.457
G1 X7.98 E463.744
G1 X12.58 E464.031
G1 X12.58 Y25 F12000
G1 X7.98 E464.318 F1804
G1 X3.38 E464.605
G1 X-1.21 E464.892
G1 X-5.81 E465.178
G1 X-10.41 E465.465
G1 E462.965 F6000
G1 Z2.9
G1 X-16.05 Y15 F12000
G1 X-14.91
G1 Z2.4
G1 E465.465 F6000
G1 X-17.16 E465.605 F1804
G1 X-5.74 F12000
G1 X5.67
G1 X17.08
G1 X19.19 Y15 E465.736 F1804
; Layer Change GCode
; LAYER:8
; LAYER_HEIGHT:0.3
; TYPE:FILL
M400
M106 S242
G1 X18.46 Z2.7 F12000
G1 X8.58 Y15
G1 X7.84
G1 X6.25 Y19.39
G1 X2.96 Y21.39
G1 X0.92 Y21.5
G1 Y21.69
G1 X-3.97 Y20.54
G1 X-4.5 Y21.04
G1 X-11.41 Y27.5
G1 X-11.79 Y27.88
G1 X-12.16 Y28.25
; TYPE:WALL-INNER
G1 Y23.83 E466.012 F2400
G1 Y19.42 E466.287
G1 Y15 E466.563
G1 Y10.58 E466.838
G1 Y6.17 E467.114
G1 Y1.75 E467.389
G1 X-7.75 E467.664
G1 X-3.33 E467.94
G1 X1.09 E468.215
G1 X5.5 E468.491
G1 X9.92 E468.766
G1 X14.33 E469.042
G1 Y6.17 E469.317
G1 Y10.58 E469.592
G1 Y15 E469.868
G1 Y19.42 E470.143
G1 Y23.83 E470.419
G1 Y28.25 E470.694
G1 X9.93 E470.969
G1 X5.52 E471.244
G1 X1.11 E471.519
G1 X-3.3 E471.794
G1 X-7.71 E472.069
G1 X-12.12 E472.344
G1 X-12.16
G1 X-11.66 Y27.75 F12000
; TYPE:WALL-OUTER
G1 Y23.5 E472.609 F1800
G1 Y19.25 E472.874
G1 Y15 E473.139
G1 Y10.75 E473.404
G1 Y6.5 E473.669
G1 Y2.25 E473.934
G1 X-7.41 E474.199
G1 X-3.16 E474.464
G1 X1.09 E474.729
G1 X5.33 E474.994
G1 X9.58 E475.259
G1 X13.83 E475.524
G1 Y6.5 E475.789
G1 Y10.75 E476.054
G1 Y15 E476.319
G1 Y19.25 E476.584
G1 Y23.5 E476.849
G1 Y27.75 E477.114
G1 X9.59 E477.379
G1 X5.35 E477.643
G1 X1.11 E477.908
G1 X-3.13 E478.172
G1 X-7.37 E478.437
G1 X-11.62 E478.701
G1 X-11.66
G1 Y24.75
G1 X-12.16 Y28.25 F12000
G1 X-13.16 Y29.25
; TYPE:WALL-INNER
G1 Y24.5 E478.997 F2400
G1 Y19.75 E479.294
G1 Y15 E479.59
G1 Y10.25 E479.886
G1 Y5.5 E480.182
G1 Y0.75 E480.479
G1 X-8.41 E480.775
G1 X-3.66 E481.071
G1 X1.09 E481.367
G1 X5.83 E481.663
G1 X10.58 E481.96
G1 X15.33 E482.256
G1 Y5.5 E482.552
G1 Y10.25 E482.848
G1 Y15 E483.144
G1 Y19.75 E483.441
G1 Y24.5 E483.737
G1 Y29.25 E484.033
G1 X10.59 E484.329
G1 X5.85 E484.625
G1 X1.11 E484.92
G1 X-3.63 E485.216
G1 X-8.37 E485.512
G1 X-13.12 E485.807
G1 X-13.16
G1 X-13.66 Y29.75 F12000
; TYPE:WALL-OUTER
G1 Y24.83 E486.114 F1800
G1 Y19.92 E486.421
G1 Y15 E486.727
G1 Y10.08 E487.034
G1 Y5.17 E487.34
G1 Y0.25 E487.647
G1 X-8.75 E487.954
G1 X-3.83 E488.26
G1 X1.09 E488.567
G1 X6 E488.873
G1 X10.92 E489.18
G1 X15.83 E489.487
G1 Y5.17 E489.793
G1 Y10.08 E490.1
G1 Y15 E490.406
G1 Y19.92 E490.713
G1 Y24.83 E491.02
G1 Y29.75 E491.326
G1 X10.93 E491.632
G1 X6.02 E491.938
G1 X1.11 E492.245
G1 X-3.8 E492.551
G1 X-8.71 E492.857
G1 X-13.62 E493.163
G1 X-13.66
G1 Y26.75
G1 X-13.16 Y29.25 F12000
G1 X-12.41 Y28.75
; TYPE:FILL
G1 X-7.91 E493.443 F2400
G1 X-3.41 E493.724
G1 X1.09 E494.005
G1 X5.58 E494.285
G1 X10.08 E494.566
G1 X14.58 E494.846
G1 X14.83 Y28.5 F12000
G1 Y24 E495.127 F2400
G1 Y19.5 E495.408
G1 Y15 E495.688
G1 Y10.5 E495.969
G1 Y6 E496.25
G1 Y1.5 E496.53
G1 X14.58 Y1.25 F12000
G1 X10.08 E496.811 F2400
G1 X5.58 E497.091
G1 X1.09 E497.372
G1 X-3.41 E497.653
G1 X-7.91 E497.933
G1 X-12.41 E498.214
G1 X-12.66 Y1.5 F12000
G1 Y6 E498.495 F2400
G1 Y10.5 E498.775
G1 Y15 E499.056
G1 Y19.5 E499.336
G1 Y24 E499.617
G1 Y28.5 E499.898
G1 E497.398 F6000
G1 Z3.2
G1 X-3.5 Y17.5 F12000
; TYPE:SUPPORT
G1 Z2.7
G1 E499.898 F6000
G1 X1.1 E500.184 F2400
G1 X5.69 E500.471
G1 X6.3 Y15 F12000
G1 X2.82 E500.688 F2400
G1 X-0.66 E500.905
G1 X-4.14 E501.122
G1 X-3.5 Y12.5 F12000
G1 X1.1 E501.409 F2400
G1 X5.69 E501.695
G1 X2.63 Y10 F12000
G1 X-0.41 E501.885 F2400
G1 X-0.45 Y20 F12000
G1 X2.63 E502.077 F2400
G1 E499.577 F6000
G1 Z3.2
G1 X3.7 Y24.05 F12000
G1 X5.01 Y23.56
G1 X5.02 Y22.5
G1 Z2.7
G1 E502.077 F6000
G1 X8.8 E502.313 F2400
G1 X12.58 E502.549
G1 X11.46 F12000
G1 X11.46
G1 Y25
G1 X12.58
G1 X7.98 E502.835 F2400
G1 X3.38 E503.122
G1 X-1.21 E503.409
G1 X-5.81 E503.696
G1 X-10.41 E503.983
G1 X-9.29 F12000
G1 Y23.33
G1 X-10.41 Y22.5
G1 X-6.63 E504.219 F2400
G1 X-2.84 E504.455
G1 X-3.41 Y23.06 F12000
G1 X-5.94 Y21.25
G1 X-5.78 Y20
G1 X-10.41 E504.744 F2400
G1 X-9.29 F12000
G1 Y18.33
G1 X-10.41 Y17.5
G1 X-7.03 E504.955 F2400
G1 X-8.15 F12000
G1 X-8.51 Y15.77
G1 X-7.38 Y15
G1 X-10.41 E505.144 F2400
G1 X-9.29 F12000
G1 Y13.33
G1 X-10.41 Y12.5
G1 X-7.03 E505.355 F2400
G1 X-8.15 Y12.31 F12000
G1 X-5.78 Y10
G1 X-10.41 E505.644 F2400
G1 X-9.29 F12000
G1 Y8.33
G1 X-10.41 Y7.5
G1 X-6.63 E505.88 F2400
G1 X-2.85 E506.116
G1 X-3.6 Y6.75 F12000
G1 X-0.49 Y7.5
G1 X3.44
G1 X5.17 Y6.57
G1 X5.02 Y7.5
G1 X8.8 E506.352 F2400
G1 X12.58 E506.588
G1 X11.46 Y7.5 F12000
G1 X12.58 Y5
G1 X7.98 Y5 E506.875 F2400
G1 X3.38 E507.162
G1 X-1.21 E507.448
G1 X-5.81 E507.735
G1 X-10.41 E508.022
G1 E505.522 F6000
G1 Z3.2
G1 X-9.29 F12000
G1 X-1.56 Y5.79
G1 X2.85 Y5.52
G1 X6.75 Y7.68
G1 X8.44 Y9.32
G1 X7.95 Y10
G1 Z2.7
G1 E508.022 F6000
G1 X12.58 E508.311 F2400
G1 X11.46 F12000
G1 X12.58 Y12.5
G1 X9.2 E508.522 F2400
G1 X10.13 Y12.31 F12000
G1 X10.49 Y14.22
G1 X9.55 Y15
G1 X12.58 E508.711 F2400
G1 X11.46 F12000
G1 Y17.5
G1 X12.58
G1 X9.2 E508.923 F2400
G1 X10.13 F12000
G1 X9.11 Y19.91
G1 X7.95 Y20
G1 X12.58 E509.212 F2400
G1 E506.712 F6000
G1 Z3.2
G1 X-1.27 Y18.22 F12000
G1 X-15.13 Y16.44
G1 X-16.05 Y15
G1 X-14.91
G1 Z2.7
G1 E509.212 F6000
G1 X-17.16 E509.352 F2400
G1 X-5.74 F12000
G1 X5.67
G1 X17.08
G1 X19.19 Y15 E509.483 F2400
G1 X18.46 Z3.3 F12000
G1 X8.58 Y15
G1 X7.84
G1 X8.33
; TYPE:AIR-GAP-INSET
G1 X8.3 Y14.34 E509.525 F900
G1 X8.21 Y13.66 E509.567
G1 X8.06 Y13.02 E509.608
G1 X7.85 Y12.39 E509.65
G1 X7.57 Y11.77 E509.692
G1 X7.25 Y11.18 E509.734
G1 X6.87 Y10.64 E509.775
G1 X6.45 Y10.12 E509.817
G1 X5.97 Y9.64 E509.859
G1 X5.45 Y9.21 E509.901
G1 X4.9 Y8.84 E509.942
G1 X4.32 Y8.51 E509.984
G1 X3.7 Y8.24 E510.026
G1 X3.07 Y8.03 E510.068
G1 X2.43 Y7.88 E510.109
G1 X1.75 Y7.78 E510.151
G1 X1.09 Y7.75 E510.193
G1 X0.42 Y7.78 E510.235
G1 X-0.25 Y7.87 E510.277
G1 X-0.89 Y8.03 E510.318
G1 X-1.53 Y8.24 E510.359
G1 X-2.15 Y8.51 E510.402
G1 X-2.72 Y8.83 E510.443
G1 X-3.29 Y9.22 E510.485
G1 X-3.79 Y9.64 E510.526
G1 X-4.27 Y10.12 E510.569
G1 X-4.7 Y10.63 E510.611
G1 X-5.07 Y11.18 E510.652
G1 X-5.4 Y11.76 E510.694
G1 X-5.68 Y12.38 E510.736
G1 X-5.89 Y13.01 E510.777
G1 X-6.04 Y13.65 E510.818
G1 X-6.13 Y14.32 E510.861
G1 X-6.16 Y15 E510.903
G1 X-6.13 Y15.66 E510.944
G1 X-6.04 Y16.34 E510.987
G1 X-5.89 Y16.98 E511.028
G1 X-5.68 Y17.61 E511.069
G1 X-5.4 Y18.23 E511.112
G1 X-5.08 Y18.82 E511.153
G1 X-4.7 Y19.36 E511.195
G1 X-4.28 Y19.88 E511.236
G1 X-3.8 Y20.36 E511.279
G1 X-3.28 Y20.79 E511.32
G1 X-2.73 Y21.16 E511.362
G1 X-2.15 Y21.49 E511.403
G1 X-1.53 Y21.76 E511.446
G1 X-0.9 Y21.97 E511.487
G1 X-0.26 Y22.12 E511.528
G1 X0.41 Y22.22 E511.571
G1 X1.08 Y22.25 E511.612
G1 X1.75 Y22.22 E511.654
G1 X2.42 Y22.12 E511.697
G1 X3.06 Y21.97 E511.738
G1 X3.7 Y21.76 E511.779
G1 X4.32 Y21.49 E511.822
G1 X4.89 Y21.17 E511.863
G1 X5.46 Y20.78 E511.905
G1 X5.96 Y20.36 E511.946
G1 X6.44 Y19.88 E511.989
G1 X6.87 Y19.37 E512.03
G1 X7.25 Y18.82 E512.072
G1 X7.57 Y18.24 E512.113
G1 X7.85 Y17.62 E512.156
G1 X8.06 Y16.98 E512.197
G1 X8.21 Y16.34 E512.239
G1 X8.3 Y15.67 E512.281
G1 X8.33 Y15 E512.322
G1 X7.58 Y15 F12000
G1 X7.55 Y15.65 E512.363 F900
G1 X7.46 Y16.29 E512.403
G1 X7.3 Y16.92 E512.444
G1 X7.07 Y17.52 E512.484
G1 X6.79 Y18.11 E512.525
G1 X6.46 Y18.66 E512.565
G1 X6.06 Y19.18 E512.605
G1 X5.62 Y19.65 E512.646
G1 X5.14 Y20.08 E512.686
G1 X4.61 Y20.46 E512.727
G1 X4.05 Y20.78 E512.767
G1 X3.46 Y21.05 E512.807
G1 X2.85 Y21.26 E512.848
G1 X2.21 Y21.4 E512.888
G1 X1.57 Y21.48 E512.929
G1 X0.92 Y21.5 E512.969
G1 X0.28 Y21.45 E513.009
G1 X-0.36 Y21.34 E513.05
G1 X-0.99 Y21.16 E513.09
G1 X-1.59 Y20.92 E513.131
G1 X-2.16 Y20.63 E513.171
G1 X-2.71 Y20.28 E513.211
G1 X-3.22 Y19.87 E513.252
G1 X-3.68 Y19.42 E513.292
G1 X-4.1 Y18.92 E513.333
G1 X-4.46 Y18.39 E513.373
G1 X-4.77 Y17.82 E513.413
G1 X-5.02 Y17.22 E513.454
G1 X-5.21 Y16.6 E513.494
G1 X-5.34 Y15.97 E513.535
G1 X-5.41 Y15.32 E513.575
G1 Y14.68 E513.616
G1 X-5.34 Y14.03 E513.656
G1 X-5.21 Y13.4 E513.696
G1 X-5.02 Y12.78 E513.737
G1 X-4.77 Y12.18 E513.777
G1 X-4.46 Y11.61 E513.818
G1 X-4.1 Y11.08 E513.858
G1 X-3.68 Y10.58 E513.898
G1 X-3.22 Y10.13 E513.939
G1 X-2.71 Y9.72 E513.979
G1 X-2.16 Y9.37 E514.02
G1 X-1.59 Y9.08 E514.06
G1 X-0.99 Y8.84 E514.1
G1 X-0.36 Y8.66 E514.141
G1 X0.28 Y8.55 E514.181
G1 X0.92 Y8.5 E514.222
G1 X1.57 Y8.52 E514.262
G1 X2.21 Y8.6 E514.302
G1 X2.85 Y8.74 E514.343
G1 X3.46 Y8.95 E514.383
G1 X4.05 Y9.22 E514.424
G1 X4.61 Y9.54 E514.464
G1 X5.14 Y9.92 E514.505
G1 X5.62 Y10.35 E514.545
G1 X6.06 Y10.82 E514.585
G1 X6.46 Y11.34 E514.626
G1 X6.79 Y11.89 E514.666
G1 X7.07 Y12.48 E514.707
G1 X7.3 Y13.08 E514.747
G1 X7.46 Y13.71 E514.787
G1 X7.55 Y14.35 E514.828
G1 X7.58 Y15 E514.868
; Layer Change GCode
; LAYER:9
; LAYER_HEIGHT:0.3
; TYPE:FILL
G1 X7.77 Z3 F12000
G1 X6.23 Y19.4
G1 X2.95 Y21.4
G1 X0.9 Y21.5
; TYPE:WALL-OUTER
G1 X1.55 Y21.48 E514.909 F1800
G1 X2.2 Y21.4 E514.949
G1 X2.83 Y21.26 E514.989
G1 X3.44 Y21.06 E515.03
G1 X4.03 Y20.79 E515.07
G1 X4.6 Y20.47 E515.111
G1 X5.12 Y20.09 E515.151
G1 X5.61 Y19.67 E515.191
G1 X6.05 Y19.19 E515.232
G1 X6.44 Y18.68 E515.272
G1 X6.78 Y18.12 E515.313
G1 X7.07 Y17.54 E515.353
G1 X7.29 Y16.93 E515.393
G1 X7.45 Y16.31 E515.434
G1 X7.55 Y15.67 E515.474
G1 X7.58 Y15 E515.516
G1 X7.55 Y14.35 E515.556
G1 X7.46 Y13.73 E515.596
G1 X7.3 Y13.1 E515.636
G1 X7.08 Y12.49 E515.676
G1 X6.8 Y11.91 E515.717
G1 X6.46 Y11.35 E515.757
G1 X6.08 Y10.84 E515.797
G1 X5.64 Y10.36 E515.838
G1 X5.15 Y9.93 E515.878
G1 X4.63 Y9.55 E515.919
G1 X4.07 Y9.23 E515.959
G1 X3.48 Y8.96 E516
G1 X2.86 Y8.75 E516.04
G1 X2.23 Y8.6 E516.08
G1 X1.59 Y8.52 E516.121
G1 X0.94 Y8.5 E516.161
G1 X0.29 Y8.55 E516.202
G1 X-0.34 Y8.66 E516.242
G1 X-0.97 Y8.83 E516.282
G1 X-1.57 Y9.07 E516.323
G1 X-2.15 Y9.36 E516.363
G1 X-2.69 Y9.71 E516.403
G1 X-3.2 Y10.11 E516.444
G1 X-3.67 Y10.57 E516.484
G1 X-4.08 Y11.06 E516.525
G1 X-4.45 Y11.6 E516.565
G1 X-4.76 Y12.16 E516.606
G1 X-5.02 Y12.76 E516.646
G1 X-5.21 Y13.38 E516.686
G1 X-5.34 Y14.01 E516.727
G1 X-5.4 Y14.66 E516.767
G1 X-5.41 Y15.31 E516.808
G1 X-5.34 Y15.95 E516.848
G1 X-5.22 Y16.59 E516.888
G1 X-5.03 Y17.21 E516.929
G1 X-4.78 Y17.8 E516.969
G1 X-4.47 Y18.37 E517.01
G1 X-4.11 Y18.91 E517.05
G1 X-3.69 Y19.41 E517.09
G1 X-3.23 Y19.86 E517.131
G1 X-2.72 Y20.27 E517.171
G1 X-2.18 Y20.62 E517.212
G1 X-1.61 Y20.92 E517.252
G1 X-1 Y21.16 E517.292
G1 X-0.38 Y21.33 E517.333
G1 X0.26 Y21.45 E517.373
G1 X0.86 Y21.49 E517.411
G1 X0.9 Y21.5
G1 X1.55 Y21.48
G1 X2.2 Y21.4
G1 X2.83 Y21.26
G1 X3.44 Y21.06
G1 X3.82 Y20.89
G1 X1.08 Y22.25 F12000
G1 X0.42 Y22.22 E517.452 F1800
G1 X-0.26 Y22.12 E517.494
G1 X-0.9 Y21.97 E517.536
G1 X-1.53 Y21.76 E517.577
G1 X-2.15 Y21.49 E517.619
G1 X-2.73 Y21.16 E517.661
G1 X-3.28 Y20.79 E517.703
G1 X-3.8 Y20.36 E517.744
G1 X-4.28 Y19.88 E517.787
G1 X-4.7 Y19.37 E517.828
G1 X-5.08 Y18.82 E517.87
G1 X-5.4 Y18.24 E517.911
G1 X-5.68 Y17.61 E517.954
G1 X-5.89 Y16.98 E517.995
G1 X-6.04 Y16.34 E518.036
G1 X-6.13 Y15.67 E518.079
G1 X-6.16 Y15 E518.12
G1 X-6.13 Y14.33 E518.162
G1 X-6.04 Y13.66 E518.205
G1 X-5.89 Y13.02 E518.245
G1 X-5.68 Y12.39 E518.287
G1 X-5.4 Y11.76 E518.329
G1 X-5.08 Y11.18 E518.371
G1 X-4.7 Y10.63 E518.412
G1 X-4.28 Y10.12 E518.454
G1 X-3.8 Y9.64 E518.496
G1 X-3.28 Y9.21 E518.538
G1 X-2.73 Y8.84 E518.58
G1 X-2.15 Y8.51 E518.621
G1 X-1.53 Y8.24 E518.664
G1 X-0.9 Y8.03 E518.705
G1 X-0.25 Y7.87 E518.746
G1 X0.42 Y7.78 E518.788
G1 X1.08 Y7.75 E518.83
G1 X1.75 Y7.78 E518.872
G1 X2.42 Y7.87 E518.914
G1 X3.07 Y8.03 E518.955
G1 X3.7 Y8.24 E518.997
G1 X4.32 Y8.51 E519.039
G1 X4.9 Y8.84 E519.081
G1 X5.45 Y9.21 E519.122
G1 X5.97 Y9.64 E519.164
G1 X6.45 Y10.12 E519.206
G1 X6.87 Y10.63 E519.248
G1 X7.25 Y11.18 E519.289
G1 X7.57 Y11.76 E519.331
G1 X7.85 Y12.39 E519.373
G1 X8.06 Y13.02 E519.415
G1 X8.21 Y13.66 E519.456
G1 X8.3 Y14.33 E519.498
G1 X8.33 Y15 E519.54
G1 X8.3 Y15.68 E519.583
G1 X8.21 Y16.34 E519.624
G1 X8.06 Y16.98 E519.665
G1 X7.85 Y17.61 E519.707
G1 X7.57 Y18.24 E519.749
G1 X7.25 Y18.82 E519.791
G1 X6.87 Y19.37 E519.832
G1 X6.45 Y19.88 E519.874
G1 X5.97 Y20.36 E519.916
G1 X5.45 Y20.79 E519.958
G1 X4.9 Y21.16 E519.999
G1 X4.32 Y21.49 E520.041
G1 X3.7 Y21.76 E520.083
G1 X3.07 Y21.97 E520.125
G1 X2.43 Y22.12 E520.166
G1 X1.75 Y22.22 E520.208
G1 X1.13 Y22.25 E520.247
G1 X1.08 Y22.25
G1 X0.42 Y22.22
G1 X-0.26 Y22.12
G1 X-0.9 Y21.97
G1 X-1.53 Y21.76
G1 X-1.83 Y21.63
G1 X1.57 Y21.82 F12000
; TYPE:FILL
G1 X0.44 Y21.84 E520.278 F2400
G1 X0.2 Y21.8 E520.284
G1 X-1.11 Y21.5 E520.32
G1 X-1.39 Y21.4 E520.326
G1 X-2.35 Y20.92 E520.351
G1 X-3.05 Y20.47 E520.371
G1 X-3.46 Y20.12 E520.384
G1 X-4.39 Y19.15 E520.416
G1 X-4.41 Y19.12 E520.417
G1 X-5.09 Y17.96 E520.45
G1 X-5.31 Y17.48 E520.462
G1 X-5.55 Y16.67 E520.481
G1 X-5.75 Y15.62 E520.509
G1 X-5.76 Y15.31 E520.518
G1 X-5.7 Y13.97 E520.555
G1 X-5.67 Y13.75 E520.56
G1 X-5.34 Y12.64 E520.587
G1 X-5.05 Y11.94 E520.605
G1 X-4.74 Y11.41 E520.619
G1 X-3.99 Y10.37 E520.657
G1 X-3.93 Y10.31 E520.659
G1 X-2.9 Y9.43 E520.693
G1 X-2.53 Y9.17 E520.703
G1 X-1.71 Y8.76 E520.724
G1 X-0.79 Y8.4 E520.747
G1 X-0.41 Y8.31 E520.757
G1 X0.92 Y8.14 E520.795
G1 X1.08 Y8.13 E520.798
G1 X1.62 Y8.17 E520.812
G1 X2.95 Y8.39 E520.844
G1 X2.98 Y8.39 E520.845
G1 X4.22 Y8.91 E520.878
G1 X4.69 Y9.17 E520.89
G1 X5.37 Y9.66 E520.909
G1 X6.17 Y10.39 E520.937
G1 X6.36 Y10.61 E520.945
G1 X7.11 Y11.73 E520.982
G1 X7.23 Y11.93 E520.987
G1 X7.63 Y13 E521.014
G1 X7.83 Y13.75 E521.035
G1 X7.91 Y14.32 E521.05
G1 X7.94 Y15 E521.066
G1 X7.89 Y15.7 E521.083
G1 X7.69 Y16.89 E521.117
G1 X7.63 Y17.05 E521.121
G1 X7.1 Y18.29 E521.156
G1 X6.92 Y18.61 E521.164
G1 X6.31 Y19.41 E521.187
G1 X5.7 Y20.07 E521.21
G1 X5.33 Y20.37 E521.221
G1 X4.21 Y21.11 E521.261
G1 X4.15 Y21.15 E521.263
G1 X2.92 Y21.59 E521.294
G1 X2.34 Y21.74 E521.308
G1 X1.57 Y21.82 E521.326
G1 E518.826 F6000
G1 Z3.5
G1 X5 Y20.37 F12000
G1 X6.63 Y20.05
G1 X7.12 Y20.58
G1 X13.58 Y27.5
G1 X13.96 Y27.88
G1 X14.33 Y28.25
; TYPE:WALL-INNER
G1 Z3
G1 E521.326 F6000
G1 X9.92 E521.601 F2400
G1 X5.5 E521.877
G1 X1.09 E522.152
G1 X-3.33 E522.428
G1 X-7.75 E522.703
G1 X-12.16 E522.978
G1 Y23.83 E523.254
G1 Y19.42 E523.529
G1 Y15 E523.805
G1 Y10.58 E524.08
G1 Y6.17 E524.356
G1 Y1.75 E524.631
G1 X-7.75 E524.906
G1 X-3.33 E525.182
G1 X1.09 E525.457
G1 X5.5 E525.733
G1 X9.92 E526.008
G1 X14.33 E526.284
G1 Y6.16 E526.558
G1 Y10.57 E526.833
G1 Y14.98 E527.108
G1 Y19.38 E527.383
G1 Y23.79 E527.658
G1 Y28.2 E527.933
G1 X14.33 Y28.25
G1 X13.83 Y27.75 F12000
; TYPE:WALL-OUTER
G1 X9.58 E528.198 F1800
G1 X5.33 E528.463
G1 X1.09 E528.728
G1 X-3.16 E528.993
G1 X-7.41 E529.258
G1 X-11.66 E529.523
G1 Y23.5 E529.788
G1 Y19.25 E530.053
G1 Y15 E530.318
G1 Y10.75 E530.583
G1 Y6.5 E530.848
G1 Y2.25 E531.113
G1 X-7.41 E531.378
G1 X-3.16 E531.644
G1 X1.09 E531.909
G1 X5.33 E532.174
G1 X9.58 E532.439
G1 X13.83 E532.704
G1 Y6.49 E532.968
G1 Y10.73 E533.233
G1 Y14.98 E533.497
G1 Y19.22 E533.762
G1 Y23.46 E534.026
G1 Y27.7 E534.291
G1 X13.83 Y27.75
G1 X10.83
G1 X14.33 Y28.25 F12000
G1 X15.33 Y29.25
; TYPE:WALL-INNER
G1 X10.58 E534.587 F2400
G1 X5.83 E534.883
G1 X1.09 E535.179
G1 X-3.66 E535.476
G1 X-8.41 E535.772
G1 X-13.16 E536.068
G1 Y24.5 E536.364
G1 Y19.75 E536.66
G1 Y15 E536.957
G1 Y10.25 E537.253
G1 Y5.5 E537.549
G1 Y0.75 E537.845
G1 X-8.41 E538.142
G1 X-3.66 E538.438
G1 X1.09 E538.734
G1 X5.83 E539.03
G1 X10.58 E539.326
G1 X15.33 E539.623
G1 Y5.49 E539.918
G1 Y10.23 E540.214
G1 Y14.98 E540.51
G1 Y19.72 E540.805
G1 Y24.46 E541.101
G1 Y29.2 E541.397
G1 X15.33 Y29.25
G1 X15.83 Y29.75 F12000
; TYPE:WALL-OUTER
G1 X10.92 E541.703 F1800
G1 X6 E542.01
G1 X1.09 E542.317
G1 X-3.83 E542.623
G1 X-8.75 E542.93
G1 X-13.66 E543.236
G1 Y24.83 E543.543
G1 Y19.92 E543.85
G1 Y15 E544.156
G1 Y10.08 E544.463
G1 Y5.17 E544.77
G1 Y0.25 E545.076
G1 X-8.75 E545.383
G1 X-3.83 E545.689
G1 X1.09 E545.996
G1 X6 E546.303
G1 X10.92 E546.609
G1 X15.83 E546.916
G1 Y5.16 E547.222
G1 Y10.07 E547.528
G1 Y14.98 E547.834
G1 Y19.88 E548.14
G1 Y24.79 E548.446
G1 Y29.7 E548.752
G1 X15.83 Y29.75
G1 X12.83
G1 X15.33 Y29.25 F12000
G1 X14.58 Y28.75
; TYPE:FILL
G1 X10.08 E549.033 F2400
G1 X5.58 E549.314
G1 X1.09 E549.594
G1 X-3.41 E549.875
G1 X-7.91 E550.155
G1 X-12.41 E550.436
G1 X-12.66 Y28.5 F12000
G1 Y24 E550.717 F2400
G1 Y19.5 E550.997
G1 Y15 E551.278
G1 Y10.5 E551.559
G1 Y6 E551.839
G1 Y1.5 E552.12
G1 X-12.41 Y1.25 F12000
G1 X-7.91 E552.4 F2400
G1 X-3.41 E552.681
G1 X1.09 E552.962
G1 X5.58 E553.242
G1 X10.08 E553.523
G1 X14.58 E553.803
G1 X14.83 Y1.5 F12000
G1 Y6 E554.084 F2400
G1 Y10.5 E554.365
G1 Y15 E554.645
G1 Y19.5 E554.926
G1 Y24 E555.207
G1 Y28.5 E555.487
G1 E552.987 F6000
G1 Z3.5
G1 X5.69 Y17.5 F12000
; TYPE:SUPPORT
G1 Z3
G1 E555.487 F6000
G1 X1.1 E555.774 F2400
G1 X-3.5 E556.06
G1 X-4.14 Y15 F12000
G1 X-0.66 E556.277 F2400
G1 X2.82 E556.494
G1 X6.3 E556.711
G1 X5.69 Y12.5 F12000
G1 X1.1 E556.998 F2400
G1 X-3.5 E557.284
G1 X-0.41 Y10 F12000
G1 X2.63 E557.474 F2400
G1 X2.62 Y20 F12000
G1 X-0.45 E557.665 F2400
G1 E555.165 F6000
G1 Z3.5
G1 X-1.71 Y24.05 F12000
G1 X-2.73 Y23.68
G1 X-2.85 Y22.5
G1 Z3
G1 E557.665 F6000
G1 X-6.63 E557.901 F2400
G1 X-10.41 E558.137
G1 X-9.29 F12000
G1 Y24.17
G1 X-10.41 Y25
G1 X-5.81 E558.424 F2400
G1 X-1.21 E558.71
G1 X3.38 E558.997
G1 X7.98 E559.284
G1 X12.58 E559.571
G1 X11.46 F12000
G1 X11.46 Y25.19
G1 Y22.5
G1 X12.58
G1 X8.8 E559.807 F2400
G1 X5.02 E560.042
G1 X5.58 Y23.06 F12000
G1 X7.92 Y21.06
G1 X7.95 Y20
G1 X12.58 E560.332 F2400
G1 X11.46 F12000
G1 X11.46
G1 Y17.5
G1 X12.58
G1 X9.2 E560.543 F2400
G1 X10.13 F12000
G1 X10.49 Y15.8
G1 X9.55 Y15
G1 X12.58 E560.732 F2400
G1 X11.46 F12000
G1 X12.58 Y12.5
G1 X9.2 E560.943 F2400
G1 X10.13 Y12.31 F12000
G1 X9.44 Y10.46
G1 X7.95 Y10
G1 X12.58 E561.232 F2400
G1 X11.46 F12000
G1 X12.58 Y7.5
G1 X8.8 Y7.5 E561.468 F2400
G1 X5.02 E561.704
G1 X5.77 Y6.75 F12000
G1 X1.08 Y5.37
G1 X-2.73 Y6.32
G1 X-2.85 Y7.5
G1 X-6.63 E561.94 F2400
G1 X-10.41 E562.175
G1 X-9.29 F12000
G1 Y5.83
G1 X-10.41 Y5
G1 X-5.81 E562.462 F2400
G1 X-1.21 E562.749
G1 X3.38 E563.036
G1 X7.98 E563.323
G1 X12.58 E563.61
G1 E561.11 F6000
G1 Z3.5
G1 X11.46 Y5 F12000
G1 X-1.61 Y5.73
G1 X-5.92 Y8.55
G1 X-6.45 Y9.13
G1 X-5.78 Y10
G1 Z3
G1 E563.61 F6000
G1 X-10.41 E563.899 F2400
G1 X-9.29 F12000
G1 Y11.67
G1 X-10.41 Y12.5
G1 X-7.03 E564.11 F2400
G1 X-8.15 Y12.31 F12000
G1 X-8.51 Y15
G1 X-7.38
G1 X-10.41 E564.299 F2400
G1 X-9.29 F12000
G1 Y16.67
G1 X-10.41 Y17.5
G1 X-7.03 E564.51 F2400
G1 X-8.15 F12000
G1 X-7.27 Y19.54
G1 X-5.78 Y20
G1 X-10.41 E564.799 F2400
G1 E562.299 F6000
G1 Z3.5
G1 X-16.05 Y15.34 F12000
G1 X-14.91 Y15
G1 Z3
G1 E564.799 F6000
G1 X-17.16 E564.939 F2400
G1 X-5.74 F12000
G1 X5.67
G1 X17.08
G1 X19.19 Y15 E565.07 F2400
; Layer Change GCode
; LAYER:10
; LAYER_HEIGHT:0.3
; TYPE:FILL
M400
M106 S224
G1 X18.47 Z3.3 F12000
G1 X8.58 Y15
G1 X7.84
G1 X6.93 Y18.39
G1 X4.28 Y20.95
G1 X0.89 Y21.5
; TYPE:WALL-OUTER
G1 X1.54 Y21.48 E565.111 F1800
G1 X2.18 Y21.41 E565.151
G1 X2.81 Y21.26 E565.192
G1 X3.43 Y21.06 E565.232
G1 X4.02 Y20.8 E565.272
G1 X4.58 Y20.48 E565.313
G1 X5.11 Y20.1 E565.353
G1 X5.6 Y19.68 E565.394
G1 X6.04 Y19.2 E565.434
G1 X6.43 Y18.69 E565.474
G1 X6.78 Y18.14 E565.515
G1 X7.06 Y17.55 E565.555
G1 X7.28 Y16.95 E565.596
G1 X7.45 Y16.32 E565.636
G1 X7.55 Y15.68 E565.676
G1 X7.58 Y15 E565.719
G1 X7.55 Y14.35 E565.759
G1 X7.46 Y13.74 E565.798
G1 X7.3 Y13.12 E565.838
G1 X7.09 Y12.51 E565.878
G1 X6.81 Y11.92 E565.919
G1 X6.47 Y11.37 E565.959
G1 X6.09 Y10.85 E566
G1 X5.65 Y10.37 E566.04
G1 X5.16 Y9.94 E566.081
G1 X4.64 Y9.56 E566.121
G1 X4.08 Y9.23 E566.161
G1 X3.49 Y8.96 E566.202
G1 X2.88 Y8.75 E566.242
G1 X2.25 Y8.61 E566.282
G1 X1.6 Y8.52 E566.323
G1 X0.96 Y8.5 E566.363
G1 X0.31 Y8.55 E566.404
G1 X-0.33 Y8.66 E566.444
G1 X-0.95 Y8.83 E566.484
G1 X-1.56 Y9.06 E566.525
G1 X-2.13 Y9.36 E566.565
G1 X-2.68 Y9.7 E566.606
G1 X-3.19 Y10.1 E566.646
G1 X-3.66 Y10.55 E566.686
G1 X-4.07 Y11.05 E566.727
G1 X-4.44 Y11.58 E566.767
G1 X-4.76 Y12.15 E566.808
G1 X-5.01 Y12.75 E566.848
G1 X-5.2 Y13.36 E566.888
G1 X-5.34 Y14 E566.929
G1 X-5.4 Y14.64 E566.969
G1 X-5.41 Y15.29 E567.01
G1 X-5.35 Y15.94 E567.05
G1 X-5.22 Y16.57 E567.09
G1 X-5.03 Y17.19 E567.131
G1 X-4.78 Y17.79 E567.171
G1 X-4.48 Y18.36 E567.212
G1 X-4.11 Y18.9 E567.252
G1 X-3.7 Y19.4 E567.292
G1 X-3.24 Y19.85 E567.333
G1 X-2.73 Y20.26 E567.373
G1 X-2.19 Y20.61 E567.414
G1 X-1.62 Y20.91 E567.454
G1 X-1.02 Y21.15 E567.494
G1 X-0.39 Y21.33 E567.535
G1 X0.24 Y21.44 E567.575
G1 X0.84 Y21.49 E567.612
G1 X0.89 Y21.5
G1 X1.54 Y21.48
G1 X2.18 Y21.41
G1 X2.81 Y21.26
G1 X3.43 Y21.06
G1 X3.8 Y20.89
G1 X1.08 Y22.25 F12000
G1 X0.42 Y22.22 E567.654 F1800
G1 X-0.26 Y22.12 E567.696
G1 X-0.9 Y21.97 E567.738
G1 X-1.53 Y21.76 E567.779
G1 X-2.15 Y21.49 E567.821
G1 X-2.73 Y21.16 E567.863
G1 X-3.28 Y20.79 E567.905
G1 X-3.8 Y20.36 E567.946
G1 X-4.28 Y19.88 E567.989
G1 X-4.7 Y19.37 E568.03
G1 X-5.08 Y18.82 E568.072
G1 X-5.4 Y18.24 E568.113
G1 X-5.68 Y17.61 E568.156
G1 X-5.89 Y16.98 E568.197
G1 X-6.04 Y16.34 E568.238
G1 X-6.13 Y15.67 E568.281
G1 X-6.16 Y15 E568.322
G1 X-6.13 Y14.33 E568.364
G1 X-6.04 Y13.66 E568.407
G1 X-5.89 Y13.02 E568.447
G1 X-5.68 Y12.39 E568.489
G1 X-5.4 Y11.76 E568.531
G1 X-5.08 Y11.18 E568.573
G1 X-4.7 Y10.63 E568.614
G1 X-4.28 Y10.12 E568.656
G1 X-3.8 Y9.64 E568.698
G1 X-3.28 Y9.21 E568.74
G1 X-2.73 Y8.84 E568.782
G1 X-2.15 Y8.51 E568.823
G1 X-1.53 Y8.24 E568.866
G1 X-0.9 Y8.03 E568.907
G1 X-0.25 Y7.87 E568.948
G1 X0.42 Y7.78 E568.99
G1 X1.08 Y7.75 E569.032
G1 X1.75 Y7.78 E569.074
G1 X2.42 Y7.87 E569.116
G1 X3.07 Y8.03 E569.157
G1 X3.7 Y8.24 E569.199
G1 X4.32 Y8.51 E569.241
G1 X4.9 Y8.84 E569.283
G1 X5.45 Y9.21 E569.324
G1 X5.97 Y9.64 E569.366
G1 X6.45 Y10.12 E569.408
G1 X6.87 Y10.63 E569.45
G1 X7.25 Y11.18 E569.491
G1 X7.57 Y11.76 E569.533
G1 X7.85 Y12.39 E569.575
G1 X8.06 Y13.02 E569.617
G1 X8.21 Y13.66 E569.658
G1 X8.3 Y14.33 E569.7
G1 X8.33 Y15 E569.742
G1 X8.3 Y15.7 E569.786
G1 X8.21 Y16.34 E569.826
G1 X8.06 Y16.98 E569.867
G1 X7.85 Y17.61 E569.909
G1 X7.57 Y18.24 E569.951
G1 X7.25 Y18.82 E569.993
G1 X6.87 Y19.37 E570.034
G1 X6.45 Y19.88 E570.076
G1 X5.97 Y20.36 E570.118
G1 X5.45 Y20.79 E570.16
G1 X4.9 Y21.16 E570.201
G1 X4.32 Y21.49 E570.243
G1 X3.7 Y21.76 E570.285
G1 X3.07 Y21.97 E570.327
G1 X2.43 Y22.12 E570.368
G1 X1.75 Y22.22 E570.41
G1 X1.13 Y22.25 E570.449
G1 X1.08 Y22.25
G1 X0.42 Y22.22
G1 X-0.26 Y22.12
G1 X-0.9 Y21.97
G1 X-1.53 Y21.76
G1 X-1.83 Y21.63
G1 X1.56 Y21.83 F12000
; TYPE:FILL
G1 X0.45 Y21.83 E570.479 F2400
G1 X0.19 Y21.8 E570.486
G1 X-1.12 Y21.49 E570.522
G1 X-1.39 Y21.4 E570.529
G1 X-2.36 Y20.91 E570.554
G1 X-3.05 Y20.47 E570.574
G1 X-3.47 Y20.11 E570.587
G1 X-4.4 Y19.14 E570.619
G1 X-4.42 Y19.11 E570.62
G1 X-5.1 Y17.94 E570.653
G1 X-5.31 Y17.48 E570.665
G1 X-5.55 Y16.65 E570.685
G1 X-5.75 Y15.62 E570.712
G1 X-5.76 Y15.3 E570.721
G1 X-5.69 Y13.95 E570.758
G1 X-5.67 Y13.75 E570.763
G1 X-5.33 Y12.63 E570.79
G1 X-5.05 Y11.95 E570.808
G1 X-4.73 Y11.4 E570.823
G1 X-3.99 Y10.37 E570.86
G1 X-3.91 Y10.29 E570.863
G1 X-2.89 Y9.42 E570.896
G1 X-2.53 Y9.17 E570.906
G1 X-1.7 Y8.75 E570.928
G1 X-0.79 Y8.4 E570.95
G1 X-0.4 Y8.31 E570.96
G1 X0.93 Y8.14 E570.998
G1 X1.08 Y8.13 E571.002
G1 X1.64 Y8.18 E571.015
G1 X2.96 Y8.39 E571.048
G1 X3 Y8.4 E571.049
G1 X4.23 Y8.92 E571.082
G1 X4.69 Y9.17 E571.094
G1 X5.38 Y9.67 E571.113
G1 X6.17 Y10.39 E571.141
G1 X6.36 Y10.63 E571.149
G1 X7.12 Y11.74 E571.186
G1 X7.23 Y11.93 E571.191
G1 X7.63 Y13.01 E571.218
G1 X7.83 Y13.74 E571.239
G1 X7.91 Y14.32 E571.255
G1 X7.94 Y15 E571.271
G1 X7.89 Y15.72 E571.287
G1 X7.69 Y16.89 E571.321
G1 X7.63 Y17.07 E571.326
G1 X7.09 Y18.3 E571.361
G1 X6.92 Y18.61 E571.369
G1 X6.3 Y19.42 E571.392
G1 X5.7 Y20.07 E571.414
G1 X5.32 Y20.38 E571.426
G1 X4.2 Y21.12 E571.466
G1 X4.15 Y21.15 E571.467
G1 X2.91 Y21.6 E571.499
G1 X2.34 Y21.74 E571.513
G1 X1.56 Y21.83 E571.531
G1 E569.031 F6000
G1 Z3.8
G1 X1.08 Y22.5 F12000
G1 X1.13 Y23.17
G1 Y23.55
G1 X1.51 Y29
G1 X0.95 Y28.44
G1 X-1.76 Y28.25
G1 X-1.95 Y28.44
G1 X-11.7 Y28.25
G1 X-11.71 Y29.25
; TYPE:WALL-INNER
G1 Z3.3
G1 E571.531 F6000
G1 X-13.16 E571.622 F2400
G1 Y24.5 E571.918
G1 Y19.75 E572.214
G1 Y15 E572.511
G1 Y10.25 E572.807
G1 Y5.5 E573.103
G1 Y0.75 E573.399
G1 X-8.41 E573.696
G1 X-3.66 E573.992
G1 X1.09 E574.288
G1 X5.83 E574.584
G1 X10.58 E574.88
G1 X15.33 E575.177
G1 Y5.5 E575.473
G1 Y10.25 E575.769
G1 Y15 E576.065
G1 Y19.75 E576.361
G1 Y24.5 E576.658
G1 Y29.25 E576.954
G1 X14.16 E577.027
G1 Y28.25 E577.09
G1 X14.33 E577.101
G1 Y23.83 E577.376
G1 Y19.42 E577.652
G1 Y15 E577.927
G1 Y10.58 E578.202
G1 Y6.17 E578.478
G1 Y1.75 E578.753
G1 X9.92 E579.029
G1 X5.5 E579.304
G1 X1.09 E579.58
G1 X-3.33 E579.855
G1 X-7.75 E580.13
G1 X-12.16 E580.406
G1 Y6.17 E580.681
G1 Y10.58 E580.957
G1 Y15 E581.232
G1 Y19.42 E581.508
G1 Y23.83 E581.783
G1 Y28.25 E582.058
G1 X-11.71 E582.087
G1 Y29.2 E582.146
G1 Y29.25
G1 X-12.08 Y28.69 F12000
G1 X-9.13 Y28.06
G1 X-6.56 Y28.44
G1 X-4.86 Y28.25
G1 X-1.74 Y29.25
G1 Y28.25 E582.213 F2400
G1 X-1.93 Y28.44 F12000
G1 X7.79 Y28.32
G1 X13.06 Y28.52
G1 X13.83 Y27.75
; TYPE:WALL-OUTER
G1 X9.58 E582.478 F1800
G1 X5.33 E582.743
G1 X1.09 E583.008
G1 X-3.16 E583.273
G1 X-7.41 E583.538
G1 X-11.66 E583.803
G1 Y23.5 E584.068
G1 Y19.25 E584.333
G1 Y15 E584.598
G1 Y10.75 E584.863
G1 Y6.5 E585.128
G1 Y2.25 E585.393
G1 X-7.41 E585.658
G1 X-3.16 E585.923
G1 X1.09 E586.188
G1 X5.33 E586.453
G1 X9.58 E586.718
G1 X13.83 E586.983
G1 Y6.49 E587.248
G1 Y10.73 E587.513
G1 Y14.98 E587.777
G1 Y19.22 E588.042
G1 Y23.46 E588.306
G1 Y27.7 E588.571
G1 X13.83 Y27.75
G1 X10.83
G1 X14.16 Y28.25 F12000
G1 X5.6 Y28.44
G1 X5.04 Y29.25
; TYPE:WALL-INNER
G1 Y28.25 E588.633 F2400
G1 X5.42 E588.657
G1 Y29.25 E588.719
G1 X5.09 E588.74
G1 X5.04
G1 X4.54 Y28.75 F12000
G1 X4.91 Y28.56
G1 X13.01 Y28.44
G1 X13.66 Y29.75
; TYPE:WALL-OUTER
G1 Y28.75 E588.802 F1800
G1 X12.84 E588.853
G1 X11.59 F12000
G1 X10.77 E588.904 F1800
G1 X10.4 Y28.37 F12000
G1 X4.54 Y28.75
G1 X3.71 E588.956 F1800
G1 X3.46 Y29.75 F12000
G1 Y28.75 E589.08 F1800
G1 X3.21 F12000
G1 X2.4 E589.131 F1800
G1 X2.38 Y29.75 F12000
G1 Y28.75 E589.198 F1800
G1 X0.66 E589.305
G1 X0.62 Y29.75 F12000
G1 Y28.75 E589.377 F1800
G1 X-1.23 E589.492
G1 Y29.75 E589.555
G1 X-2.26 E589.619
G1 Y28.75 E589.682
G1 X-3.08 E589.733
G1 Y29.75 E589.795
G1 X-3.72 E589.835
G1 Y28.75 E589.898
G1 X-4.73 E589.96
G1 X-4.74 Y29.75 F12000
G1 Y28.75 E590.025 F1800
G1 X-6.33 E590.124
G1 X-6.51 Y29.75 F12000
G1 Y28.75 E590.231 F1800
G1 X-6.69 F12000
G1 X-7.5 E590.281 F1800
G1 X-7.53 Y29.75 F12000
G1 Y28.75 E590.352 F1800
G1 X-9.38 E590.468
G1 X-9.39 Y29.75 F12000
G1 Y28.75 E590.532 F1800
G1 X-11.21 E590.645
G1 Y29.75 E590.708
G1 X-13.66 E590.861
G1 Y24.83 E591.168
G1 Y19.92 E591.474
G1 Y15 E591.781
G1 Y10.08 E592.088
G1 Y5.17 E592.394
G1 Y0.25 E592.701
G1 X-8.75 E593.007
G1 X-3.83 E593.314
G1 X1.09 E593.621
G1 X6 E593.927
G1 X10.92 E594.234
G1 X15.83 E594.54
G1 Y5.17 E594.847
G1 Y10.08 E595.154
G1 Y15 E595.46
G1 Y19.92 E595.767
G1 Y24.83 E596.073
G1 Y29.75 E596.38
G1 X13.66 E596.516
G1 Y28.62 F12000
G1 X12.77 Y29.75
G1 Y28.75 E596.595 F1800
G1 X11.73 E596.66
G1 X11.66 Y29.75 E596.74
G1 Y29.37 F12000
G1 X11.02 Y28.06
G1 X10.73 Y29.75
G1 Y28.75 E596.812 F1800
G1 X8.89 E596.927
G1 X8.87 Y29.75 F12000
G1 Y28.75 E596.995 F1800
G1 X7.04 E597.109
G1 X7.03 Y29.75 F12000
G1 Y28.75 E597.174 F1800
G1 X5.92 E597.244
G1 Y29.75 E597.306
G1 X4.54 E597.392
G1 Y28.75 E597.454
G1 X5.04 Y29.25 F12000
G1 X4.79 Y28.25
; TYPE:FILL
G1 X1.65 E597.65 F2400
G1 X-1.48 E597.845
G1 X-2.01 F12000
G1 X-3.33 E597.927 F2400
G1 X-3.47 F12000
G1 X-7.46 E598.176 F2400
G1 X-11.46 E598.425
G1 X-12.66 Y28.5 F12000
G1 Y24 E598.705 F2400
G1 Y19.5 E598.986
G1 Y15 E599.267
G1 Y10.5 E599.547
G1 Y6 E599.828
G1 Y1.5 E600.109
G1 X-12.41 Y1.25 F12000
G1 X-7.91 E600.389 F2400
G1 X-3.41 E600.67
G1 X1.09 E600.95
G1 X5.58 E601.231
G1 X10.08 E601.512
G1 X14.58 E601.792
G1 X14.83 Y1.5 F12000
G1 Y6 E602.073 F2400
G1 Y10.5 E602.354
G1 Y15 E602.634
G1 Y19.5 E602.915
G1 Y24 E603.195
G1 Y28.5 E603.476
G1 X13.91 Y28.25 F12000
G1 X9.79 E603.733 F2400
G1 X5.67 E603.99
G1 X5.48 Y28.44 F12000
G1 X3.21 Y28.5
G1 X-3.4 Y28.5
G1 Y29.5 E604.008 F2400
G1 X-3.03 Y28.75 F12000
G1 X0.9 Y28.44
G1 X0.95
G1 X2.96 Y28.62
G1 X9.77 Y28.25
G1 X9.79 Y30
; TYPE:WALL-OUTER
G1 X9.79 Y29 E604.07 F1800
G1 Y28.25 F12000
G1 X7.79 Y28.25
G1 X7.93 Y29
G1 Y30 E604.132 F1800
G1 E601.632 F6000
G1 Z3.8
G1 X1.36 F12000
G1 Z3.3
G1 E604.132 F6000
G1 Y29 E604.195 F1800
G1 X0.99 Y28.44 F12000
G1 X-0.49 Y28.25
G1 X-0.32 Y29
G1 Y30 E604.257 F1800
G1 E601.757 F6000
G1 Z3.8
G1 X-10.31 F12000
G1 Z3.3
G1 E604.257 F6000
G1 Y29 E604.32 F1800
G1 Y28.25 F12000
G1 X-8.68
G1 X-8.47 Y29
G1 Y30 E604.382 F1800
G1 E601.882 F6000
G1 Z3.8
G1 X-5.54 F12000
G1 Z3.3
G1 E604.382 F6000
G1 Y29 E604.444 F1800
G1 E601.944 F6000
G1 Z3.8
G1 X-0.44 Y20 F12000
; TYPE:SUPPORT
G1 Z3.3
G1 E604.444 F6000
G1 X2.61 E604.635 F2400
G1 X5.69 Y17.5 F12000
G1 X1.1 E604.921 F2400
G1 X-3.5 E605.208
G1 X-4.14 Y15 F12000
G1 X-0.66 E605.425 F2400
G1 X2.82 E605.642
G1 X6.3 E605.858
G1 X5.69 Y12.5 F12000
G1 X1.1 E606.145 F2400
G1 X-3.5 E606.431
G1 X-0.41 Y10 F12000
G1 X2.63 E606.621 F2400
G1 E604.121 F6000
G1 Z3.8
G1 X3.52 Y5.76 F12000
G1 X4.9 Y6.32
G1 X5.02 Y7.5
G1 Z3.3
G1 E606.621 F6000
G1 X8.8 E606.857 F2400
G1 X12.58 E607.093
G1 X11.46 Y7.5 F12000
G1 X12.58 Y5
G1 X7.98 Y5 E607.38 F2400
G1 X3.38 E607.666
G1 X-1.21 E607.953
G1 X-5.81 E608.24
G1 X-10.41 E608.527
G1 X-9.29 F12000
G1 Y6.67
G1 X-10.41 Y7.5
G1 X-6.63 E608.763 F2400
G1 X-2.85 E608.999
G1 X-3.6 Y6.75 F12000
G1 X-6.45 Y9.13
G1 X-5.78 Y10
G1 X-10.41 E609.288 F2400
G1 X-9.29 F12000
G1 Y11.67
G1 X-10.41 Y12.5
G1 X-7.03 E609.499 F2400
G1 X-8.15 Y12.31 F12000
G1 X-8.51 Y15
G1 X-7.38
G1 X-10.41 E609.688 F2400
G1 X-9.29 F12000
G1 Y16.67
G1 X-10.41 Y17.5
G1 X-7.03 E609.899 F2400
G1 X-8.15 F12000
G1 X-7.27 Y19.54
G1 X-5.78 Y20
G1 X-10.41 E610.188 F2400
G1 X-9.29 F12000
G1 Y21.67
G1 X-10.41 Y22.5
G1 X-6.63 E610.424 F2400
G1 X-2.85 E610.66
G1 X-3.41 Y23.06 F12000
G1 X0.3 Y24.37
G1 X3.59 Y24.08
G1 X4.71 Y23.49
G1 X5.02 Y22.5
G1 X8.8 E610.896 F2400
G1 X12.58 E611.132
G1 X11.46 F12000
G1 X11.46
G1 Y25
G1 X12.58
G1 X7.98 E611.418 F2400
G1 X3.38 E611.705
G1 X-1.21 E611.992
G1 X-5.81 E612.279
G1 X-10.41 E612.566
G1 X-9.29 F12000
G1 X-3.39 Y23.36
G1 X7.95 Y20
G1 X12.58 E612.855 F2400
G1 X11.46 F12000
G1 X11.46
G1 Y17.5
G1 X12.58
G1 X9.2 E613.066 F2400
G1 X10.13 F12000
G1 X10.55 Y15.83
G1 X9.55 Y15
G1 X12.58 E613.255 F2400
G1 X11.46 F12000
G1 X12.58 Y12.5
G1 X9.2 E613.466 F2400
G1 X10.13 Y12.31 F12000
G1 X9.44 Y10.46
G1 X7.95 Y10
G1 X12.58 E613.756 F2400
G1 E611.256 F6000
G1 Z3.8
G1 X-1.34 Y11.85 F12000
G1 X-15.27 Y13.71
G1 X-16.05 Y15
G1 X-14.91
G1 Z3.3
G1 E613.756 F6000
G1 X-17.16 E613.895 F2400
G1 X-5.74 F12000
G1 X5.67
G1 X17.08
G1 X19.19 Y15 E614.027 F2400
; Layer Change GCode
; LAYER:11
; LAYER_HEIGHT:0.3
; TYPE:FILL
M400
M106 S229
G1 X18.48 Z3.6 F12000
G1 X8.58 Y15
G1 X7.84
G1 X6.92 Y18.4
G1 X4.27 Y20.95
G1 X0.87 Y21.49
; TYPE:WALL-OUTER
G1 X1.52 Y21.48 E614.067 F1800
G1 X2.16 Y21.41 E614.107
G1 X2.8 Y21.27 E614.148
G1 X3.41 Y21.07 E614.188
G1 X4 Y20.8 E614.229
G1 X4.57 Y20.49 E614.269
G1 X5.1 Y20.11 E614.31
G1 X5.59 Y19.69 E614.35
G1 X6.03 Y19.21 E614.39
G1 X6.43 Y18.7 E614.431
G1 X6.77 Y18.15 E614.471
G1 X7.05 Y17.57 E614.511
G1 X7.28 Y16.96 E614.552
G1 X7.44 Y16.34 E614.592
G1 X7.55 Y15.7 E614.633
G1 X7.58 Y15 E614.676
G1 X7.55 Y14.35 E614.717
G1 X7.46 Y13.76 E614.754
G1 X7.31 Y13.13 E614.794
G1 X7.09 Y12.52 E614.835
G1 X6.82 Y11.94 E614.875
G1 X6.48 Y11.38 E614.915
G1 X6.09 Y10.86 E614.956
G1 X5.66 Y10.38 E614.996
G1 X5.17 Y9.95 E615.037
G1 X4.65 Y9.57 E615.077
G1 X4.09 Y9.24 E615.118
G1 X3.5 Y8.97 E615.158
G1 X2.89 Y8.76 E615.198
G1 X2.26 Y8.61 E615.239
G1 X1.62 Y8.52 E615.279
G1 X0.97 Y8.5 E615.32
G1 X0.33 Y8.55 E615.36
G1 X-0.31 Y8.65 E615.4
G1 X-0.94 Y8.82 E615.441
G1 X-1.54 Y9.06 E615.481
G1 X-2.12 Y9.35 E615.521
G1 X-2.67 Y9.7 E615.562
G1 X-3.18 Y10.1 E615.602
G1 X-3.64 Y10.54 E615.643
G1 X-4.07 Y11.04 E615.683
G1 X-4.43 Y11.57 E615.723
G1 X-4.75 Y12.14 E615.764
G1 X-5 Y12.73 E615.804
G1 X-5.2 Y13.35 E615.845
G1 X-5.33 Y13.98 E615.885
G1 X-5.4 Y14.63 E615.925
G1 X-5.41 Y15.27 E615.966
G1 X-5.35 Y15.92 E616.006
G1 X-5.22 Y16.56 E616.047
G1 X-5.04 Y17.18 E616.087
G1 X-4.79 Y17.77 E616.127
G1 X-4.49 Y18.35 E616.168
G1 X-4.12 Y18.88 E616.208
G1 X-3.71 Y19.38 E616.249
G1 X-3.25 Y19.84 E616.289
G1 X-2.75 Y20.25 E616.329
G1 X-2.21 Y20.6 E616.37
G1 X-1.63 Y20.9 E616.41
G1 X-1.03 Y21.14 E616.451
G1 X-0.41 Y21.32 E616.491
G1 X0.23 Y21.44 E616.531
G1 X0.82 Y21.49 E616.569
G1 X0.87 Y21.49
G1 X1.52 Y21.48
G1 X2.16 Y21.41
G1 X2.8 Y21.27
G1 X3.41 Y21.07
G1 X3.79 Y20.9
G1 X1.08 Y22.25 F12000
G1 X0.42 Y22.22 E616.61 F1800
G1 X-0.26 Y22.12 E616.653
G1 X-0.9 Y21.97 E616.694
G1 X-1.53 Y21.76 E616.735
G1 X-2.15 Y21.49 E616.778
G1 X-2.73 Y21.16 E616.819
G1 X-3.28 Y20.79 E616.861
G1 X-3.8 Y20.36 E616.902
G1 X-4.28 Y19.88 E616.945
G1 X-4.7 Y19.37 E616.986
G1 X-5.08 Y18.82 E617.028
G1 X-5.4 Y18.24 E617.069
G1 X-5.68 Y17.61 E617.112
G1 X-5.89 Y16.98 E617.153
G1 X-6.04 Y16.34 E617.195
G1 X-6.13 Y15.67 E617.237
G1 X-6.16 Y15 E617.278
G1 X-6.13 Y14.33 E617.32
G1 X-6.04 Y13.66 E617.363
G1 X-5.89 Y13.02 E617.404
G1 X-5.68 Y12.39 E617.445
G1 X-5.4 Y11.76 E617.488
G1 X-5.08 Y11.18 E617.529
G1 X-4.7 Y10.63 E617.571
G1 X-4.28 Y10.12 E617.612
G1 X-3.8 Y9.64 E617.655
G1 X-3.28 Y9.21 E617.696
G1 X-2.73 Y8.84 E617.738
G1 X-2.15 Y8.51 E617.779
G1 X-1.53 Y8.24 E617.822
G1 X-0.9 Y8.03 E617.863
G1 X-0.25 Y7.87 E617.904
G1 X0.42 Y7.78 E617.946
G1 X1.08 Y7.75 E617.988
G1 X1.75 Y7.78 E618.03
G1 X2.42 Y7.87 E618.072
G1 X3.07 Y8.03 E618.113
G1 X3.7 Y8.24 E618.155
G1 X4.32 Y8.51 E618.197
G1 X4.9 Y8.84 E618.239
G1 X5.45 Y9.21 E618.28
G1 X5.97 Y9.64 E618.322
G1 X6.45 Y10.12 E618.364
G1 X6.87 Y10.63 E618.406
G1 X7.25 Y11.18 E618.447
G1 X7.57 Y11.76 E618.489
G1 X7.85 Y12.39 E618.531
G1 X8.06 Y13.02 E618.573
G1 X8.21 Y13.66 E618.614
G1 X8.3 Y14.33 E618.656
G1 X8.33 Y15 E618.698
G1 X8.3 Y15.72 E618.743
G1 X8.21 Y16.34 E618.782
G1 X8.06 Y16.98 E618.823
G1 X7.85 Y17.61 E618.865
G1 X7.57 Y18.24 E618.907
G1 X7.25 Y18.82 E618.949
G1 X6.87 Y19.37 E618.99
G1 X6.45 Y19.88 E619.032
G1 X5.97 Y20.36 E619.074
G1 X5.45 Y20.79 E619.116
G1 X4.9 Y21.16 E619.157
G1 X4.32 Y21.49 E619.199
G1 X3.7 Y21.76 E619.241
G1 X3.07 Y21.97 E619.283
G1 X2.43 Y22.12 E619.324
G1 X1.75 Y22.22 E619.366
G1 X1.13 Y22.25 E619.405
G1 X1.08 Y22.25
G1 X0.42 Y22.22
G1 X-0.26 Y22.12
G1 X-0.9 Y21.97
G1 X-1.53 Y21.76
G1 X-1.83 Y21.63
G1 X1.54 Y21.83 F12000
; TYPE:FILL
G1 X0.45 Y21.83 E619.435 F2400
G1 X0.17 Y21.79 E619.442
G1 X-1.14 Y21.49 E619.478
G1 X-1.39 Y21.4 E619.484
G1 X-2.38 Y20.9 E619.51
G1 X-3.04 Y20.47 E619.529
G1 X-3.49 Y20.09 E619.543
G1 X-4.41 Y19.13 E619.584
G1 X-4.43 Y19.09 E619.585
G1 X-5.1 Y17.93 E619.618
G1 X-5.31 Y17.48 E619.63
G1 X-5.56 Y16.64 E619.65
G1 X-5.75 Y15.62 E619.677
G1 X-5.76 Y15.28 E619.686
G1 X-5.69 Y13.94 E619.724
G1 X-5.67 Y13.75 E619.729
G1 X-5.33 Y12.61 E619.756
G1 X-5.05 Y11.95 E619.774
G1 X-4.72 Y11.38 E619.789
G1 X-3.99 Y10.37 E619.826
G1 X-3.9 Y10.28 E619.829
G1 X-2.88 Y9.41 E619.863
G1 X-2.53 Y9.17 E619.872
G1 X-1.68 Y8.74 E619.894
G1 X-0.79 Y8.4 E619.916
G1 X-0.38 Y8.31 E619.926
G1 X0.95 Y8.14 E619.965
G1 X1.08 Y8.13 E619.968
G1 X1.65 Y8.18 E619.982
G1 X2.98 Y8.39 E620.024
G1 X2.98 Y8.39 E620.024
G1 X2.98 E620.024
G1 X3.01 Y8.41 E620.025
G1 X4.25 Y8.93 E620.058
G1 X4.69 Y9.17 E620.07
G1 X5.39 Y9.68 E620.09
G1 X6.16 Y10.39 E620.117
G1 X6.37 Y10.64 E620.126
G1 X7.13 Y11.75 E620.163
G1 X7.23 Y11.93 E620.168
G1 X7.64 Y13.03 E620.195
G1 X7.83 Y13.75 E620.216
G1 X7.91 Y14.32 E620.231
G1 X7.94 Y15 E620.247
G1 X7.89 Y15.74 E620.265
G1 X7.68 Y16.89 E620.297
G1 X7.62 Y17.08 E620.303
G1 X7.08 Y18.32 E620.338
G1 X6.92 Y18.61 E620.346
G1 X6.29 Y19.44 E620.37
G1 X5.7 Y20.07 E620.391
G1 X5.31 Y20.39 E620.403
G1 X4.19 Y21.13 E620.444
G1 X4.15 Y21.15 E620.446
G1 X4.16 Y21.15 E620.446
G1 X4.15 Y21.15 E620.446
G1 X2.89 Y21.6 E620.478
G1 X2.34 Y21.74 E620.491
G1 X1.54 Y21.83 E620.51
G1 E618.01 F6000
G1 Z4.1
G1 X1.78 Y22.47 F12000
G1 X1.78 Y23.13
G1 Y23.32
G1 X1.82 Y29
G1 Y28.06
G1 X13.83 Y27.75
; TYPE:WALL-OUTER
G1 Z3.6
G1 E620.51 F6000
G1 X9.58 E620.775 F1800
G1 X5.33 E621.04
G1 X1.09 E621.305
G1 X-3.16 E621.57
G1 X-7.41 E621.835
G1 X-11.66 E622.1
G1 Y23.5 E622.365
G1 Y19.25 E622.63
G1 Y15 E622.895
G1 Y10.75 E623.16
G1 Y6.5 E623.425
G1 Y2.25 E623.69
G1 X-7.41 E623.955
G1 X-3.16 E624.22
G1 X1.09 E624.485
G1 X5.33 E624.75
G1 X9.58 E625.015
G1 X13.83 E625.28
G1 Y6.49 E625.545
G1 Y10.73 E625.809
G1 Y14.98 E626.074
G1 Y19.22 E626.338
G1 Y23.46 E626.603
G1 Y27.7 E626.867
G1 X13.83 Y27.75
G1 X10.83
G1 X14.16 Y28.25 F12000
G1 X10.32 Y28.06
G1 X7.83 Y28.47
G1 X6.48 Y28.06
G1 X5.04 Y29.25
; TYPE:WALL-INNER
G1 X5.73 E626.911 F2400
G1 Y28.25 E626.973
G1 X9.94 E627.236
G1 X14.16 E627.499
G1 X14.33 E627.51
G1 Y23.83 E627.785
G1 Y19.42 E628.06
G1 Y15 E628.336
G1 Y10.58 E628.611
G1 Y6.17 E628.887
G1 Y1.75 E629.162
G1 X9.92 E629.438
G1 X5.5 E629.713
G1 X1.09 E629.988
G1 X-3.33 E630.264
G1 X-7.75 E630.539
G1 X-12.16 E630.815
G1 Y6.17 E631.09
G1 Y10.58 E631.366
G1 Y15 E631.641
G1 Y19.42 E631.916
G1 Y23.83 E632.192
G1 Y28.25 E632.467
G1 X-11.79 E632.491
G1 Y29.25 E632.553
G1 X-13.16 E632.639
G1 Y24.5 E632.935
G1 Y19.75 E633.231
G1 Y15 E633.528
G1 Y10.25 E633.824
G1 Y5.5 E634.12
G1 Y0.75 E634.416
G1 X-8.41 E634.712
G1 X-3.66 E635.009
G1 X1.09 E635.305
G1 X5.83 E635.601
G1 X10.58 E635.897
G1 X15.33 E636.193
G1 Y5.5 E636.49
G1 Y10.25 E636.786
G1 Y15 E637.082
G1 Y19.75 E637.378
G1 Y24.5 E637.674
G1 Y29.25 E637.971
G1 X14.16 E638.044
G1 Y28.25 E638.106
G1 X5.73 F12000
G1 X5.04 E638.15 F2400
G1 Y29.25 E638.212
G1 X4.54 Y28.75 F12000
G1 X4.91 Y28.56
G1 X9.19 Y28.44
G1 X9.32 Y28.62
G1 X11.02 Y28.06
G1 X11.53 Y28.44
G1 X11.57
G1 X12.26 Y28.06
G1 X13.41 Y28.59
G1 X13.66 Y29.75
; TYPE:WALL-OUTER
G1 Y28.75 E638.274 F1800
G1 X12.84 E638.325
G1 X13.03 Y28.56 F12000
G1 X8.33 Y28.19
G1 X1.57 Y28.75
G1 X2.37 E638.375 F1800
G1 X2.37 Y28.75 E638.375
G1 X4.54 Y28.75 F12000
G1 X3.71 E638.427 F1800
G1 X3.46 Y29.75 F12000
G1 Y28.75 E638.551 F1800
G1 X3.21 F12000
G1 X2.4 E638.602 F1800
G1 X2.39 Y29.75 E638.667
G1 X2.95 Y28.62 F12000
G1 X1.82 Y28.06
G1 X1.52 Y29.75
G1 Y28.75 E638.742 F1800
G1 X-0.09 E638.843
G1 X-0.31 Y29.75 F12000
G1 Y28.75 E638.961 F1800
G1 X-0.54 F12000
G1 X-1.3 E639.009 F1800
G1 Y29.75 E639.071
G1 X-2.26 E639.131
G1 Y28.75 E639.194
G1 X-3.08 E639.245
G1 X-3.3 Y29.75 F12000
G1 Y28.75 E639.362 F1800
G1 X-3.52 Y28.75 F12000
G1 X-4.73 Y28.75 E639.438 F1800
G1 X-4.74 Y29.75 F12000
G1 Y28.75 E639.502 F1800
G1 X-6.33 E639.602
G1 X-6.51 Y29.75 F12000
G1 Y28.75 E639.709 F1800
G1 X-6.69 F12000
G1 X-8.24 E639.805 F1800
G1 X-8.47 Y29.75 F12000
G1 Y28.75 E639.924 F1800
G1 X-8.69 F12000
G1 X-10.1 E640.012 F1800
G1 X-10.28 Y29.75 F12000
G1 Y28.75 E640.12 F1800
G1 X-10.47 F12000
G1 X-11.29 E640.172 F1800
G1 Y29.75 E640.234
G1 X-13.66 E640.382
G1 Y24.83 E640.689
G1 Y19.92 E640.995
G1 Y15 E641.302
G1 Y10.08 E641.609
G1 Y5.17 E641.915
G1 Y0.25 E642.222
G1 X-8.75 E642.528
G1 X-3.83 E642.835
G1 X1.09 E643.142
G1 X6 E643.448
G1 X10.92 E643.755
G1 X15.83 E644.061
G1 Y5.17 E644.368
G1 Y10.08 E644.675
G1 Y15 E644.981
G1 Y19.92 E645.288
G1 Y24.83 E645.594
G1 Y29.75 E645.901
G1 X13.66 E646.037
G1 Y28.62 F12000
G1 X12.82 Y29.75
G1 Y28.75 E646.104 F1800
G1 X11.63 E646.178
G1 X11.61 Y29.75 F12000
G1 Y28.75 E646.245 F1800
G1 X10.02 E646.344
G1 X9.79 Y29.75 F12000
G1 Y28.75 E646.462 F1800
G1 X9.57 F12000
G1 X8.15 E646.551 F1800
G1 X7.96 Y29.75 F12000
G1 Y28.75 E646.659 F1800
G1 X7.78 F12000
G1 X6.23 E646.756 F1800
G1 Y29.75 E646.818
G1 X4.54 E646.923
G1 Y28.75 E646.986
G1 X5.04 Y29.25 F12000
G1 X4.79 Y28.25
; TYPE:FILL
G1 X1.62 E647.183 F2400
G1 X-1.55 E647.381
G1 X-1.78 Y28.5 F12000
G1 Y29.5 E647.439 F2400
G1 X-2.01 Y28.25 F12000
G1 X-6.78 E647.736 F2400
G1 X-11.54 E648.033
G1 X-12.66 Y28.5 F12000
G1 Y24 E648.313 F2400
G1 Y19.5 E648.594
G1 Y15 E648.875
G1 Y10.5 E649.155
G1 Y6 E649.436
G1 Y1.5 E649.717
G1 X-12.41 Y1.25 F12000
G1 X-7.91 E649.997 F2400
G1 X-3.41 E650.278
G1 X1.09 E650.558
G1 X5.58 E650.839
G1 X10.08 E651.12
G1 X14.58 E651.4
G1 X14.83 Y1.5 F12000
G1 Y6 E651.681 F2400
G1 Y10.5 E651.962
G1 Y15 E652.242
G1 Y19.5 E652.523
G1 Y24 E652.803
G1 Y28.5 E653.084
G1 X13.91 Y28.25 F12000
G1 X9.94 E653.331 F2400
G1 X5.98 E653.579
G1 X5.79 Y28.44 F12000
G1 X9.11 Y28.49
G1 X10.81 Y29
; TYPE:WALL-OUTER
G1 Y30 E653.641 F1800
G1 E651.141 F6000
G1 Z4.1
G1 X0.7 F12000
G1 Z3.6
G1 E653.641 F6000
G1 Y29 E653.703 F1800
G1 Y28.62 F12000
G1 X-1.05 Y28.06
G1 X-2.83 Y28.62
G1 X-5.31 Y28.06
G1 X-5.54 Y29
G1 Y30 E653.766 F1800
G1 E651.266 F6000
G1 Z4.1
G1 X-7.45 F12000
G1 Z3.6
G1 E653.766 F6000
G1 Y29 E653.828 F1800
G1 E651.328 F6000
G1 Z4.1
G1 X-0.44 Y20 F12000
; TYPE:SUPPORT
G1 Z3.6
G1 E653.828 F6000
G1 X2.61 E654.018 F2400
G1 X5.68 Y17.5 F12000
G1 X1.09 E654.304 F2400
G1 X-3.5 E654.591
G1 X-4.14 Y15 F12000
G1 X-0.66 E654.808 F2400
G1 X2.82 E655.024
G1 X6.3 E655.241
G1 X5.69 Y12.5 F12000
G1 X1.1 E655.528 F2400
G1 X-3.5 E655.814
G1 X-0.4 Y10 F12000
G1 X2.63 E656.003 F2400
G1 E653.503 F6000
G1 Z4.1
G1 X3.52 Y5.76 F12000
G1 X4.9 Y6.32
G1 X5.02 Y7.5
G1 Z3.6
G1 E656.003 F6000
G1 X8.8 E656.239 F2400
G1 X12.58 E656.475
G1 X11.46 Y7.5 F12000
G1 X12.58 Y5
G1 X7.98 Y5 E656.762 F2400
G1 X3.38 E657.048
G1 X-1.21 E657.335
G1 X-5.81 E657.622
G1 X-10.41 E657.909
G1 X-9.29 F12000
G1 Y6.67
G1 X-10.41 Y7.5
G1 X-6.63 E658.145 F2400
G1 X-2.85 E658.381
G1 X-3.6 Y6.75 F12000
G1 X-6.45 Y9.13
G1 X-5.78 Y10
G1 X-10.41 E658.67 F2400
G1 X-9.29 F12000
G1 Y11.67
G1 X-10.41 Y12.5
G1 X-7.03 E658.881 F2400
G1 X-8.15 Y12.31 F12000
G1 X-8.51 Y15
G1 X-7.38
G1 X-10.41 E659.07 F2400
G1 X-9.29 F12000
G1 Y16.67
G1 X-10.41 Y17.5
G1 X-7.03 E659.281 F2400
G1 X-8.15 F12000
G1 X-7.27 Y19.54
G1 X-5.78 Y20
G1 X-10.41 E659.57 F2400
G1 X-9.29 F12000
G1 Y21.67
G1 X-10.41 Y22.5
G1 X-6.63 E659.806 F2400
G1 X-2.85 E660.042
G1 X-3.41 Y23.06 F12000
G1 X0.3 Y24.37
G1 X3.59 Y24.08
G1 X4.71 Y23.49
G1 X5.02 Y22.5
G1 X8.8 E660.278 F2400
G1 X12.58 E660.514
G1 X11.46 F12000
G1 X11.46
G1 Y25
G1 X12.58
G1 X7.98 E660.8 F2400
G1 X3.38 E661.087
G1 X-1.21 E661.374
G1 X-5.81 E661.661
G1 X-10.41 E661.948
G1 X-9.29 F12000
G1 X-3.39 Y23.36
G1 X7.95 Y20
G1 X12.58 E662.237 F2400
G1 X11.46 F12000
G1 X11.46
G1 Y17.5
G1 X12.58
G1 X9.2 E662.448 F2400
G1 X10.13 F12000
G1 X10.55 Y15.83
G1 X9.55 Y15
G1 X12.58 E662.637 F2400
G1 X11.46 F12000
G1 X12.58 Y12.5
G1 X9.2 E662.848 F2400
G1 X10.13 Y12.31 F12000
G1 X9.44 Y10.46
G1 X7.95 Y10
G1 X12.58 E663.138 F2400
G1 E660.638 F6000
G1 Z4.1
G1 X-1.34 Y11.85 F12000
G1 X-15.27 Y13.71
G1 X-16.05 Y15
G1 X-14.91
G1 Z3.6
G1 E663.138 F6000
G1 X-17.16 E663.277 F2400
G1 X-5.74 F12000
G1 X5.67
G1 X17.08
G1 X19.19 Y15 E663.409 F2400
; Layer Change GCode
; LAYER:12
; LAYER_HEIGHT:0.3
; TYPE:FILL
M400
M106 S224
G1 X18.48 Z3.9 F12000
G1 X8.58 Y15
G1 X7.84
G1 X6.92 Y18.42
G1 X4.25 Y20.96
G1 X0.86 Y21.49
; TYPE:WALL-OUTER
G1 X1.51 Y21.48 E663.449 F1800
G1 X2.15 Y21.41 E663.49
G1 X2.78 Y21.27 E663.53
G1 X3.4 Y21.07 E663.57
G1 X3.99 Y20.81 E663.611
G1 X4.56 Y20.49 E663.651
G1 X5.08 Y20.12 E663.692
G1 X5.57 Y19.7 E663.732
G1 X6.02 Y19.23 E663.772
G1 X6.42 Y18.71 E663.813
G1 X6.76 Y18.16 E663.853
G1 X7.05 Y17.58 E663.894
G1 X7.27 Y16.98 E663.934
G1 X7.44 Y16.35 E663.974
G1 X7.54 Y15.71 E664.015
G1 X7.58 Y15 E664.059
G1 X7.55 Y14.35 E664.1
G1 X7.47 Y13.78 E664.136
G1 X7.31 Y13.15 E664.176
G1 X7.1 Y12.54 E664.217
G1 X6.82 Y11.95 E664.257
G1 X6.49 Y11.39 E664.298
G1 X6.1 Y10.87 E664.338
G1 X5.67 Y10.39 E664.378
G1 X5.19 Y9.96 E664.419
G1 X4.66 Y9.58 E664.459
G1 X4.11 Y9.25 E664.5
G1 X3.52 Y8.98 E664.54
G1 X2.91 Y8.76 E664.58
G1 X2.28 Y8.61 E664.621
G1 X1.63 Y8.53 E664.661
G1 X0.99 Y8.5 E664.702
G1 X0.34 Y8.54 E664.742
G1 X-0.3 Y8.65 E664.782
G1 X-0.92 Y8.82 E664.823
G1 X-1.53 Y9.05 E664.863
G1 X-2.11 Y9.34 E664.903
G1 X-2.65 Y9.69 E664.944
G1 X-3.17 Y10.09 E664.984
G1 X-3.63 Y10.53 E665.025
G1 X-4.05 Y11.03 E665.065
G1 X-4.42 Y11.56 E665.105
G1 X-4.74 Y12.12 E665.146
G1 X-5 Y12.72 E665.186
G1 X-5.2 Y13.33 E665.227
G1 X-5.33 Y13.97 E665.267
G1 X-5.4 Y14.61 E665.307
G1 X-5.41 Y15.26 E665.348
G1 X-5.35 Y15.9 E665.388
G1 X-5.23 Y16.54 E665.428
G1 X-5.04 Y17.16 E665.469
G1 X-4.8 Y17.76 E665.509
G1 X-4.49 Y18.33 E665.55
G1 X-4.13 Y18.87 E665.59
G1 X-3.72 Y19.37 E665.63
G1 X-3.26 Y19.83 E665.671
G1 X-2.76 Y20.24 E665.711
G1 X-2.22 Y20.59 E665.752
G1 X-1.65 Y20.9 E665.792
G1 X-1.05 Y21.14 E665.832
G1 X-0.42 Y21.32 E665.873
G1 X0.21 Y21.44 E665.913
G1 X0.81 Y21.49 E665.95
G1 X0.86 Y21.49
G1 X1.51 Y21.48
G1 X2.15 Y21.41
G1 X2.78 Y21.27
G1 X3.4 Y21.07
G1 X3.77 Y20.91
G1 X1.08 Y22.25 F12000
G1 X0.42 Y22.22 E665.992 F1800
G1 X-0.26 Y22.12 E666.034
G1 X-0.9 Y21.97 E666.075
G1 X-1.53 Y21.76 E666.117
G1 X-2.15 Y21.49 E666.159
G1 X-2.73 Y21.16 E666.201
G1 X-3.28 Y20.79 E666.242
G1 X-3.8 Y20.36 E666.284
G1 X-4.28 Y19.88 E666.326
G1 X-4.7 Y19.37 E666.368
G1 X-5.08 Y18.82 E666.409
G1 X-5.4 Y18.24 E666.451
G1 X-5.68 Y17.61 E666.493
G1 X-5.89 Y16.98 E666.535
G1 X-6.04 Y16.34 E666.576
G1 X-6.13 Y15.67 E666.619
G1 X-6.16 Y15 E666.66
G1 X-6.13 Y14.33 E666.702
G1 X-6.04 Y13.66 E666.744
G1 X-5.89 Y13.02 E666.785
G1 X-5.68 Y12.39 E666.827
G1 X-5.4 Y11.76 E666.869
G1 X-5.08 Y11.18 E666.911
G1 X-4.7 Y10.63 E666.952
G1 X-4.28 Y10.12 E666.994
G1 X-3.8 Y9.64 E667.036
G1 X-3.28 Y9.21 E667.078
G1 X-2.73 Y8.84 E667.119
G1 X-2.15 Y8.51 E667.161
G1 X-1.53 Y8.24 E667.203
G1 X-0.9 Y8.03 E667.245
G1 X-0.25 Y7.87 E667.286
G1 X0.42 Y7.78 E667.328
G1 X1.08 Y7.75 E667.37
G1 X1.75 Y7.78 E667.412
G1 X2.42 Y7.87 E667.454
G1 X3.07 Y8.03 E667.495
G1 X3.7 Y8.24 E667.537
G1 X4.32 Y8.51 E667.579
G1 X4.9 Y8.84 E667.621
G1 X5.45 Y9.21 E667.662
G1 X5.97 Y9.64 E667.704
G1 X6.45 Y10.12 E667.746
G1 X6.87 Y10.63 E667.788
G1 X7.25 Y11.18 E667.829
G1 X7.57 Y11.76 E667.871
G1 X7.85 Y12.39 E667.913
G1 X8.06 Y13.02 E667.955
G1 X8.21 Y13.66 E667.996
G1 X8.3 Y14.33 E668.038
G1 X8.33 Y15 E668.08
G1 X8.29 Y15.74 E668.126
G1 X8.21 Y16.34 E668.164
G1 X8.06 Y16.98 E668.205
G1 X7.85 Y17.61 E668.247
G1 X7.57 Y18.24 E668.289
G1 X7.25 Y18.82 E668.331
G1 X6.87 Y19.37 E668.372
G1 X6.45 Y19.88 E668.414
G1 X5.97 Y20.36 E668.456
G1 X5.45 Y20.79 E668.498
G1 X4.9 Y21.16 E668.539
G1 X4.32 Y21.49 E668.581
G1 X3.7 Y21.76 E668.623
G1 X3.07 Y21.97 E668.665
G1 X2.43 Y22.12 E668.706
G1 X1.75 Y22.22 E668.748
G1 X1.13 Y22.25 E668.787
G1 X1.08 Y22.25
G1 X0.42 Y22.22
G1 X-0.26 Y22.12
G1 X-0.9 Y21.97
G1 X-1.53 Y21.76
G1 X-1.83 Y21.63
G1 X1.53 Y21.83 F12000
; TYPE:FILL
G1 X0.45 Y21.83 E668.816 F2400
G1 X0.15 Y21.79 E668.824
G1 X-1.15 Y21.48 E668.86
G1 X-1.39 Y21.4 E668.866
G1 X-2.39 Y20.89 E668.893
G1 X-3.04 Y20.47 E668.911
G1 X-3.5 Y20.08 E668.926
G1 X-4.41 Y19.13 E668.965
G1 X-4.44 Y19.08 E668.967
G1 X-5.11 Y17.92 E669
G1 X-5.31 Y17.48 E669.011
G1 X-5.56 Y16.62 E669.032
G1 X-5.75 Y15.62 E669.059
G1 X-5.76 Y15.26 E669.068
G1 X-5.69 Y13.92 E669.107
G1 X-5.67 Y13.75 E669.111
G1 X-5.32 Y12.6 E669.139
G1 X-5.05 Y11.95 E669.156
G1 X-4.72 Y11.37 E669.172
G1 X-3.99 Y10.37 E669.208
G1 X-3.89 Y10.27 E669.211
G1 X-2.86 Y9.4 E669.245
G1 X-2.53 Y9.17 E669.255
G1 X-1.67 Y8.74 E669.277
G1 X-0.79 Y8.4 E669.298
G1 X-0.37 Y8.31 E669.309
G1 X0.97 Y8.14 E669.349
G1 X1.08 Y8.13 E669.352
G1 X1.67 Y8.18 E669.366
G1 X2.98 Y8.39 E669.406
G1 X3.03 Y8.41 E669.407
G1 X4.26 Y8.93 E669.441
G1 X4.69 Y9.17 E669.452
G1 X5.4 Y9.7 E669.472
G1 X6.16 Y10.39 E669.499
G1 X6.38 Y10.65 E669.508
G1 X7.14 Y11.77 E669.546
G1 X7.23 Y11.93 E669.55
G1 X7.64 Y13.04 E669.578
G1 X7.83 Y13.74 E669.598
G1 X7.91 Y14.32 E669.614
G1 X7.94 Y14.99 E669.629
G1 X7.88 Y15.75 E669.647
G1 X7.68 Y16.89 E669.679
G1 X7.61 Y17.1 E669.685
G1 X7.08 Y18.33 E669.721
G1 X6.92 Y18.61 E669.728
G1 X6.28 Y19.45 E669.752
G1 X5.7 Y20.07 E669.773
G1 X5.29 Y20.4 E669.786
G1 X4.17 Y21.14 E669.819
G1 X4.14 Y21.15 E669.82
G1 X2.88 Y21.61 E669.852
G1 X2.34 Y21.74 E669.865
G1 X1.53 Y21.83 E669.884
G1 E667.384 F6000
G1 Z4.4
G1 X1.78 Y22.47 F12000
G1 X1.78 Y23.12
G1 Y23.49
G1 X1.82 Y29
G1 Y28.06
G1 X14.16 Y28.25
; TYPE:WALL-INNER
G1 Z3.9
G1 E669.884 F6000
G1 X14.33 E669.895 F2400
G1 Y23.83 E670.171
G1 Y19.42 E670.446
G1 Y15 E670.721
G1 Y10.58 E670.997
G1 Y6.17 E671.272
G1 Y1.75 E671.548
G1 X9.92 E671.823
G1 X5.5 E672.099
G1 X1.09 E672.374
G1 X-3.33 E672.649
G1 X-7.75 E672.925
G1 X-12.16 E673.2
G1 Y6.17 E673.476
G1 Y10.58 E673.751
G1 Y15 E674.027
G1 Y19.42 E674.302
G1 Y23.83 E674.577
G1 Y28.25 E674.853
G1 X-11.66 E674.884
G1 X-11.67 Y29.25 E674.947
G1 X-13.16 E675.04
G1 Y24.5 E675.336
G1 Y19.75 E675.632
G1 Y15 E675.929
G1 Y10.25 E676.225
G1 Y5.5 E676.521
G1 Y0.75 E676.817
G1 X-8.41 E677.114
G1 X-3.66 E677.41
G1 X1.09 E677.706
G1 X5.83 E678.002
G1 X10.58 E678.298
G1 X15.33 E678.595
G1 Y5.5 E678.891
G1 Y10.25 E679.187
G1 Y15 E679.483
G1 Y19.75 E679.779
G1 Y24.5 E680.076
G1 Y29.25 E680.372
G1 X14.16 E680.445
G1 Y28.3 E680.505
G1 Y28.25
G1 X13.83 Y27.75 F12000
; TYPE:WALL-OUTER
G1 X9.58 E680.77 F1800
G1 X5.33 E681.035
G1 X1.09 E681.3
G1 X-3.16 E681.565
G1 X-7.41 E681.83
G1 X-11.66 E682.095
G1 Y23.5 E682.36
G1 Y19.25 E682.625
G1 Y15 E682.89
G1 Y10.75 E683.155
G1 Y6.5 E683.42
G1 Y2.25 E683.685
G1 X-7.41 E683.95
G1 X-3.16 E684.215
G1 X1.09 E684.48
G1 X5.33 E684.745
G1 X9.58 E685.01
G1 X13.83 E685.275
G1 Y6.49 E685.54
G1 Y10.73 E685.804
G1 Y14.98 E686.069
G1 Y19.22 E686.333
G1 Y23.46 E686.598
G1 Y27.7 E686.862
G1 X13.83 Y27.75
G1 X10.83
G1 X14.16 Y28.25 F12000
G1 X12.62 Y28.59
G1 X11.09 Y28.17
G1 X6.48 Y28.06
G1 X5.04 Y29.25
; TYPE:WALL-INNER
G1 Y28.25 E686.925 F2400
G1 X5.73 E686.968
G1 Y29.25 E687.03
G1 X5.09 E687.07
G1 X5.04
G1 X4.54 Y28.75 F12000
G1 X4.91 Y28.56
G1 X2.69 Y28.44
G1 X1.82 Y28.06
G1 X1.03 Y29.25
G1 X1.1 Y28.44
G1 X-0.3 Y28.06
G1 X-1.69 Y28.44
G1 X-2.26 Y29.75
; TYPE:WALL-OUTER
G1 Y28.75 E687.133 F1800
G1 X-3.08 F12000
G1 X-2.26 E687.184 F1800
G1 X0.04 Y28.19 F12000
G1 X1.57 Y28.75
G1 X2.38 E687.234 F1800
G1 X4.54 F12000
G1 X3.71 E687.286 F1800
G1 X3.46 Y29.75 F12000
G1 Y28.75 E687.41 F1800
G1 X3.21 F12000
G1 X2.4 E687.461 F1800
G1 X2.39 Y29.75 E687.526
G1 X2.95 Y28.62 F12000
G1 X1.82 Y28.06
G1 X1.52 Y29.75
G1 Y28.75 E687.601 F1800
G1 X-1.38 E687.782
G1 Y29.75 E687.844
G1 X-2.26 E687.899
G1 Y28.62 F12000
G1 X-3.2 Y29.75
G1 Y28.75 E687.992 F1800
G1 X-4.73 E688.087
G1 X-6.33 E688.187
G1 X-6.51 Y29.75 F12000
G1 Y28.75 E688.294 F1800
G1 X-6.69 F12000
G1 X-9.53 E688.471 F1800
G1 X-9.65 Y29.75 F12000
G1 Y28.75 E688.563 F1800
G1 X-11.16 E688.657
G1 X-11.17 Y29.75 E688.72
G1 X-13.66 E688.875
G1 Y24.83 E689.182
G1 Y19.92 E689.488
G1 Y15 E689.795
G1 Y10.08 E690.102
G1 Y5.17 E690.408
G1 Y0.25 E690.715
G1 X-8.75 E691.021
G1 X-3.83 E691.328
G1 X1.09 E691.635
G1 X6 E691.941
G1 X10.92 E692.248
G1 X15.83 E692.554
G1 Y5.17 E692.861
G1 Y10.08 E693.168
G1 Y15 E693.474
G1 Y19.92 E693.781
G1 Y24.83 E694.088
G1 Y29.75 E694.394
G1 X13.66 E694.53
G1 Y28.75 E694.592
G1 X10.07 E694.816
G1 Y29.75 E694.878
G1 X9.51 E694.913
G1 X10.07 Y28.62 F12000
G1 X8.7 Y28.75
G1 X9.51 E694.964 F1800
G1 Y29.75 E695.026
G1 X10.07 Y28.62 F12000
G1 X8.95 Y28.06
G1 X8.59 Y29.75
G1 Y28.75 E695.116 F1800
G1 X7.08 E695.211
G1 X7.05 Y29.75 F12000
G1 Y28.75 E695.279 F1800
G1 X6.23 E695.33
G1 Y29.75 E695.392
G1 X4.54 E695.498
G1 Y28.75 E695.56
G1 X5.04 Y29.25 F12000
G1 X4.79 Y28.25
; TYPE:FILL
G1 X1.58 E695.76 F2400
G1 X-1.63 E695.96
G1 X-1.82 Y28.5 F12000
G1 Y29.5 E696.008 F2400
G1 X-2.01 Y28.25 F12000
G1 X-6.71 E696.301 F2400
G1 X-11.41 E696.594
G1 X-12.66 Y28.5 F12000
G1 Y24 E696.875 F2400
G1 Y19.5 E697.155
G1 Y15 E697.436
G1 Y10.5 E697.717
G1 Y6 E697.997
G1 Y1.5 E698.278
G1 X-12.41 Y1.25 F12000
G1 X-7.91 E698.559 F2400
G1 X-3.41 E698.839
G1 X1.09 E699.12
G1 X5.58 E699.4
G1 X10.08 E699.681
G1 X14.58 E699.962
G1 X14.83 Y1.5 F12000
G1 Y6 E700.242 F2400
G1 Y10.5 E700.523
G1 Y15 E700.804
G1 Y19.5 E701.084
G1 Y24 E701.365
G1 Y28.5 E701.645
G1 X13.91 Y28.25 F12000
G1 X9.94 E701.893 F2400
G1 X5.98 E702.14
G1 X5.79 Y28.44 F12000
G1 X9.99 Y28.44
G1 X10.83 Y29
; TYPE:WALL-OUTER
G1 Y30 E702.202 F1800
G1 E699.702 F6000
G1 Z4.4
G1 X12.87 F12000
G1 Z3.9
G1 E702.202 F6000
G1 Y29 E702.265 F1800
G1 E699.765 F6000
G1 Z4.4
G1 X0.72 F12000
G1 Z3.9
G1 E702.265 F6000
G1 Y30 E702.327 F1800
G1 E699.827 F6000
G1 Z4.4
G1 X-4.06 F12000
G1 Z3.9
G1 E702.327 F6000
G1 Y29 E702.389 F1800
G1 Y28.25 F12000
G1 X-5.31 Y28.06
G1 X-5.54 Y29
G1 Y30 E702.452 F1800
G1 E699.952 F6000
G1 Z4.4
G1 X-7.43 F12000
G1 Z3.9
G1 E702.452 F6000
G1 Y29 E702.514 F1800
G1 E700.014 F6000
G1 Z4.4
G1 X-0.42 Y20 F12000
; TYPE:SUPPORT
G1 Z3.9
G1 E702.514 F6000
G1 X2.61 E702.703 F2400
G1 X5.69 Y17.5 F12000
G1 X1.1 E702.989 F2400
G1 X-3.49 E703.276
G1 X-4.14 Y15 F12000
G1 X-0.66 E703.492 F2400
G1 X2.82 E703.709
G1 X6.3 E703.926
G1 X5.68 Y12.5 F12000
G1 X1.1 E704.212 F2400
G1 X-3.49 E704.499
G1 X-0.4 Y10 F12000
G1 X2.63 E704.687 F2400
G1 E702.187 F6000
G1 Z4.4
G1 X3.52 Y5.76 F12000
G1 X4.9 Y6.32
G1 X5.02 Y7.5
G1 Z3.9
G1 E704.687 F6000
G1 X8.8 E704.923 F2400
G1 X12.58 E705.159
G1 X11.46 Y7.5 F12000
G1 X12.58 Y5
G1 X7.98 Y5 E705.446 F2400
G1 X3.38 E705.733
G1 X-1.21 E706.02
G1 X-5.81 E706.306
G1 X-10.41 E706.593
G1 X-9.29 F12000
G1 Y6.67
G1 X-10.41 Y7.5
G1 X-6.63 E706.829 F2400
G1 X-2.85 E707.065
G1 X-3.6 Y6.75 F12000
G1 X-6.45 Y9.13
G1 X-5.78 Y10
G1 X-10.41 E707.354 F2400
G1 X-9.29 F12000
G1 Y11.67
G1 X-10.41 Y12.5
G1 X-7.03 E707.565 F2400
G1 X-8.15 Y12.31 F12000
G1 X-8.51 Y15
G1 X-7.38
G1 X-10.41 E707.754 F2400
G1 X-9.29 F12000
G1 Y16.67
G1 X-10.41 Y17.5
G1 X-7.03 E707.965 F2400
G1 X-8.15 F12000
G1 X-7.27 Y19.54
G1 X-5.78 Y20
G1 X-10.41 E708.255 F2400
G1 X-9.29 F12000
G1 Y21.67
G1 X-10.41 Y22.5
G1 X-6.63 E708.49 F2400
G1 X-2.85 E708.726
G1 X-3.41 Y23.06 F12000
G1 X0.3 Y24.37
G1 X3.59 Y24.08
G1 X4.71 Y23.49
G1 X5.02 Y22.5
G1 X8.8 E708.962 F2400
G1 X12.58 E709.198
G1 X11.46 F12000
G1 X11.46
G1 Y25
G1 X12.58
G1 X7.98 E709.485 F2400
G1 X3.38 E709.772
G1 X-1.21 E710.058
G1 X-5.81 E710.345
G1 X-10.41 E710.632
G1 X-9.29 F12000
G1 X-3.39 Y23.36
G1 X7.95 Y20
G1 X12.58 E710.921 F2400
G1 X11.46 F12000
G1 X11.46
G1 Y17.5
G1 X12.58
G1 X9.2 E711.132 F2400
G1 X10.13 F12000
G1 X10.55 Y15.83
G1 X9.55 Y15
G1 X12.58 E711.322 F2400
G1 X11.46 F12000
G1 X12.58 Y12.5
G1 X9.2 E711.533 F2400
G1 X10.13 Y12.31 F12000
G1 X9.44 Y10.46
G1 X7.95 Y10
G1 X12.58 E711.822 F2400
G1 E709.322 F6000
G1 Z4.4
G1 X-1.34 Y11.85 F12000
G1 X-15.27 Y13.71
G1 X-16.05 Y15
G1 X-14.91
G1 Z3.9
G1 E711.822 F6000
G1 X-17.16 E711.962 F2400
G1 X-5.74 F12000
G1 X5.67
G1 X17.08
G1 X19.19 Y15 E712.093 F2400
G1 X18.89 Y14.34 Z4.5 F12000
G1 X17.2 Y9.74
G1 X17.07 Y7.76
G1 X15.35 Y6.45
G1 X13.58 Y2.5
G1 X13.96 Y2.12
G1 X14.52 Y5.53
G1 Y16.14
G1 Y26.74
G1 X13.96 Y27.88
G1 X11.48 Y28.4
G1 X6.9 Y28.34
G1 X-1.29 Y28.3
G1 X-4.73 Y28.75
; TYPE:AIR-GAP-INSET
G1 Y29.75 E712.155 F900
G1 X-4.75 E712.157
G1 Y28.75 E712.219
; Layer Change GCode
; LAYER:13
; LAYER_HEIGHT:0.3
; TYPE:FILL
M400
M106 S226
G1 Y28.37 Z4.2 F12000
G1 X0.84 Y28.68
G1 X1.82 Y28.06
G1 X2.96 Y28.62
G1 X4.85 Y28.44
G1 X5.04 Y29.25
; TYPE:WALL-INNER
G1 Y28.25 E712.281 F2400
G1 X5.73 E712.324
G1 Y29.25 E712.387
G1 X5.09 E712.427
G1 X5.04
G1 X4.54 Y28.75 F12000
G1 X4.91 Y28.56
G1 X-3.08 Y28.75
; TYPE:WALL-OUTER
G1 X-2.26 E712.478 F1800
G1 Y29.75 F12000
G1 Y28.75 E712.54 F1800
G1 X1.57 F12000
G1 X2.38 E712.59 F1800
G1 X4.54 F12000
G1 X3.71 E712.642 F1800
G1 X3.46 Y29.75 F12000
G1 Y28.75 E712.767 F1800
G1 X3.21 F12000
G1 X2.4 E712.817 F1800
G1 X2.39 Y29.75 E712.883
G1 X2.95 Y28.62 F12000
G1 X1.82 Y28.06
G1 X1.52 Y29.75
G1 Y28.75 E712.958 F1800
G1 X-0.06 E713.056
G1 X-0.3 Y29.75 F12000
G1 Y28.75 E713.179 F1800
G1 X-0.55 F12000
G1 X-1.36 E713.23 F1800
G1 Y29.75 E713.292
G1 X-2.26 E713.348
G1 Y28.62 F12000
G1 X-3.1 Y29.75
G1 Y28.75 E713.416 F1800
G1 X-4.73 E713.518
G1 X-4.74 Y29.75 F12000
G1 Y28.75 E713.582 F1800
G1 X-6.34 E713.682
G1 X-6.51 Y29.75 F12000
G1 Y28.75 E713.788 F1800
G1 X-6.69 F12000
G1 X-8.21 E713.883 F1800
G1 X-8.45 Y29.75 F12000
G1 Y28.75 E714.006 F1800
G1 X-8.7 F12000
G1 X-10.36 E714.11 F1800
G1 Y29.75 E714.172
G1 X-13.66 E714.378
G1 Y24.83 E714.685
G1 Y19.92 E714.992
G1 Y15 E715.298
G1 Y10.08 E715.605
G1 Y5.17 E715.911
G1 Y0.25 E716.218
G1 X-8.75 E716.525
G1 X-3.83 E716.831
G1 X1.09 E717.138
G1 X6 E717.444
G1 X10.92 E717.751
G1 X15.83 E718.058
G1 Y5.17 E718.364
G1 Y10.08 E718.671
G1 Y15 E718.977
G1 Y19.92 E719.284
G1 Y24.83 E719.591
G1 Y29.75 E719.897
G1 X13.66 E720.033
G1 Y28.75 E720.095
G1 X12.21 E720.186
G1 X12.19 Y29.75 F12000
G1 Y28.75 E720.252 F1800
G1 X10.05 E720.385
G1 Y29.75 E720.448
G1 X9.53 E720.48
G1 Y28.75 E720.542
G1 X7.88 E720.645
G1 Y29.75 E720.708
G1 X7.03 E720.761
G1 Y28.75 E720.823
G1 X6.23 E720.873
G1 Y29.75 E720.936
G1 X4.54 E721.041
G1 Y28.75 E721.103
G1 X5.04 Y29.25 F12000
G1 E718.603 F6000
G1 Z4.7
G1 X5.22 Y28.69 F12000
G1 X-0.66 Y28.44
G1 X-10.83
G1 X-12.56 Y26.74
G1 X-12.44 Y14.53
G1 X-12.33 Y2.32
G1 X-12.16 Y1.75
; TYPE:WALL-INNER
G1 Z4.2
G1 E721.103 F6000
G1 Y6.17 E721.379 F2400
G1 Y10.58 E721.654
G1 Y15 E721.93
G1 Y19.42 E722.205
G1 Y23.83 E722.481
G1 Y28.25 E722.756
G1 X-10.86 E722.837
G1 Y29.25 E722.9
G1 X-13.16 E723.043
G1 Y24.5 E723.339
G1 Y19.75 E723.635
G1 Y15 E723.932
G1 Y10.25 E724.228
G1 Y5.5 E724.524
G1 Y0.75 E724.82
G1 X-8.41 E725.117
G1 X-3.66 E725.413
G1 X1.09 E725.709
G1 X5.83 E726.005
G1 X10.58 E726.301
G1 X15.33 E726.598
G1 Y5.5 E726.894
G1 Y10.25 E727.19
G1 Y15 E727.486
G1 Y19.75 E727.782
G1 Y24.5 E728.079
G1 Y29.25 E728.375
G1 X14.16 E728.448
G1 Y28.25 E728.511
G1 X14.33 E728.522
G1 Y23.83 E728.797
G1 Y19.42 E729.073
G1 Y15 E729.348
G1 Y10.58 E729.623
G1 Y6.17 E729.899
G1 Y1.75 E730.174
G1 X9.93 E730.449
G1 X5.52 E730.724
G1 X1.11 E730.999
G1 X-3.3 E731.274
G1 X-7.71 E731.549
G1 X-12.12 E731.824
G1 X-12.16
G1 X-11.66 Y2.25 F12000
; TYPE:WALL-OUTER
G1 X-7.41 E732.089 F1800
G1 X-3.16 E732.354
G1 X1.09 E732.619
G1 X5.33 E732.884
G1 X9.58 E733.149
G1 X13.83 E733.414
G1 Y6.5 E733.679
G1 Y10.75 E733.944
G1 Y15 E734.209
G1 Y19.25 E734.474
G1 Y23.5 E734.739
G1 Y27.75 E735.004
G1 X9.58 E735.269
G1 X5.33 E735.534
G1 X1.09 E735.799
G1 X-3.16 E736.064
G1 X-7.41 E736.329
G1 X-11.66 E736.594
G1 Y23.51 E736.859
G1 Y19.27 E737.123
G1 Y15.02 E737.388
G1 Y10.78 E737.652
G1 Y6.54 E737.917
G1 Y2.3 E738.181
G1 X-11.66 Y2.25
G1 X-8.66
G1 X-12.16 Y1.75 F12000
G1 X-12.41 Y1.25
; TYPE:FILL
G1 X-7.91 E738.462 F2400
G1 X-3.41 E738.743
G1 X1.09 E739.023
G1 X5.58 E739.304
G1 X10.08 E739.585
G1 X14.58 E739.865
G1 X14.83 Y1.5 F12000
G1 Y6 E740.146 F2400
G1 Y10.5 E740.426
G1 Y15 E740.707
G1 Y19.5 E740.988
G1 Y24 E741.268
G1 Y28.5 E741.549
G1 X13.91 Y28.25 F12000
G1 X10.77 E741.745 F2400
G1 X7.63 E741.94
G1 X7.46 Y28.5 F12000
G1 Y29.5 E741.984 F2400
G1 X7.28 Y28.25 F12000
G1 X5.98 E742.065 F2400
G1 X4.79 F12000
G1 X1.59 E742.265 F2400
G1 X-1.61 E742.464
G1 X-1.81 Y28.5 F12000
G1 Y29.5 E742.514 F2400
G1 X-2.01 Y28.25 F12000
G1 X-6.31 E742.782 F2400
G1 X-10.61 E743.051
G1 X-11.11 Y28.75 F12000
G1 X-12.41 E743.132 F2400
G1 X-12.66 Y28.5 F12000
G1 Y24 E743.412 F2400
G1 Y19.5 E743.693
G1 Y15 E743.974
G1 Y10.5 E744.254
G1 Y6 E744.535
G1 Y1.5 E744.816
G1 E742.316 F6000
G1 Z4.7
G1 X-11.41 Y2.5 F12000
G1 X-10.94 Y3.01
G1 X-10.38 Y3.57
G1 X-4.46 Y9.95
G1 X-3.9 Y10.13
G1 X-5.64 Y13.8
G1 X-5.37 Y17.63
G1 X-3.48 Y20.01
G1 X-0.07 Y21.57
G1 X0.84 Y21.49
; TYPE:WALL-OUTER
G1 Z4.2
G1 E744.816 F6000
G1 X1.49 Y21.48 E744.856 F1800
G1 X2.13 Y21.41 E744.896
G1 X2.77 Y21.28 E744.937
G1 X3.38 Y21.08 E744.977
G1 X3.98 Y20.82 E745.018
G1 X4.54 Y20.5 E745.058
G1 X5.07 Y20.13 E745.098
G1 X5.56 Y19.71 E745.139
G1 X6.01 Y19.24 E745.179
G1 X6.41 Y18.73 E745.219
G1 X6.75 Y18.18 E745.26
G1 X7.04 Y17.6 E745.3
G1 X7.27 Y16.99 E745.341
G1 X7.44 Y16.37 E745.381
G1 X7.54 Y15.73 E745.422
G1 X7.58 Y15 E745.467
G1 X7.55 Y14.35 E745.507
G1 X7.47 Y13.79 E745.543
G1 X7.32 Y13.16 E745.583
G1 X7.1 Y12.55 E745.623
G1 X6.83 Y11.96 E745.664
G1 X6.5 Y11.41 E745.704
G1 X6.11 Y10.89 E745.745
G1 X5.68 Y10.41 E745.785
G1 X5.2 Y9.97 E745.825
G1 X4.68 Y9.59 E745.866
G1 X4.12 Y9.26 E745.906
G1 X3.53 Y8.98 E745.947
G1 X2.92 Y8.77 E745.987
G1 X2.29 Y8.62 E746.027
G1 X1.65 Y8.53 E746.068
G1 X1 Y8.5 E746.108
G1 X0.36 Y8.54 E746.149
G1 X-0.28 Y8.65 E746.189
G1 X-0.91 Y8.82 E746.229
G1 X-1.51 Y9.05 E746.27
G1 X-2.09 Y9.33 E746.31
G1 X-2.64 Y9.68 E746.35
G1 X-3.15 Y10.08 E746.391
G1 X-3.62 Y10.52 E746.431
G1 X-4.04 Y11.01 E746.472
G1 X-4.42 Y11.54 E746.512
G1 X-4.73 Y12.11 E746.552
G1 X-4.99 Y12.7 E746.593
G1 X-5.19 Y13.32 E746.633
G1 X-5.33 Y13.95 E746.674
G1 X-5.4 Y14.6 E746.714
G1 X-5.41 Y15.24 E746.754
G1 X-5.35 Y15.89 E746.795
G1 X-5.23 Y16.53 E746.835
G1 X-5.05 Y17.15 E746.875
G1 X-4.8 Y17.75 E746.916
G1 X-4.5 Y18.32 E746.956
G1 X-4.14 Y18.86 E746.997
G1 X-3.73 Y19.36 E747.037
G1 X-3.27 Y19.82 E747.077
G1 X-2.77 Y20.23 E747.118
G1 X-2.23 Y20.59 E747.158
G1 X-1.66 Y20.89 E747.199
G1 X-1.06 Y21.13 E747.239
G1 X-0.44 Y21.32 E747.279
G1 X0.2 Y21.44 E747.32
G1 X0.79 Y21.49 E747.357
G1 X0.84 Y21.49
G1 X1.49 Y21.48
G1 X2.13 Y21.41
G1 X2.77 Y21.28
G1 X3.38 Y21.08
G1 X3.76 Y20.91
G1 X1.08 Y22.25 F12000
G1 X0.42 Y22.22 E747.399 F1800
G1 X-0.26 Y22.12 E747.441
G1 X-0.9 Y21.97 E747.482
G1 X-1.53 Y21.76 E747.524
G1 X-2.15 Y21.49 E747.566
G1 X-2.73 Y21.16 E747.608
G1 X-3.28 Y20.79 E747.649
G1 X-3.8 Y20.36 E747.691
G1 X-4.28 Y19.88 E747.733
G1 X-4.7 Y19.37 E747.775
G1 X-5.08 Y18.82 E747.816
G1 X-5.4 Y18.24 E747.858
G1 X-5.68 Y17.61 E747.9
G1 X-5.89 Y16.98 E747.942
G1 X-6.04 Y16.34 E747.983
G1 X-6.13 Y15.67 E748.025
G1 X-6.16 Y15 E748.067
G1 X-6.13 Y14.33 E748.108
G1 X-6.04 Y13.66 E748.151
G1 X-5.89 Y13.02 E748.192
G1 X-5.68 Y12.39 E748.234
G1 X-5.4 Y11.76 E748.276
G1 X-5.08 Y11.18 E748.318
G1 X-4.7 Y10.63 E748.359
G1 X-4.28 Y10.12 E748.401
G1 X-3.8 Y9.64 E748.443
G1 X-3.28 Y9.21 E748.485
G1 X-2.73 Y8.84 E748.526
G1 X-2.15 Y8.51 E748.568
G1 X-1.53 Y8.24 E748.61
G1 X-0.9 Y8.03 E748.652
G1 X-0.25 Y7.87 E748.693
G1 X0.42 Y7.78 E748.735
G1 X1.08 Y7.75 E748.777
G1 X1.75 Y7.78 E748.818
G1 X2.42 Y7.87 E748.861
G1 X3.07 Y8.03 E748.902
G1 X3.7 Y8.24 E748.943
G1 X4.32 Y8.51 E748.986
G1 X4.9 Y8.84 E749.027
G1 X5.45 Y9.21 E749.069
G1 X5.97 Y9.64 E749.11
G1 X6.45 Y10.12 E749.153
G1 X6.87 Y10.63 E749.194
G1 X7.25 Y11.18 E749.236
G1 X7.57 Y11.76 E749.277
G1 X7.85 Y12.39 E749.32
G1 X8.06 Y13.02 E749.361
G1 X8.21 Y13.66 E749.402
G1 X8.3 Y14.33 E749.445
G1 X8.33 Y15 E749.486
G1 X8.29 Y15.75 E749.534
G1 X8.21 Y16.34 E749.571
G1 X8.06 Y16.98 E749.612
G1 X7.85 Y17.61 E749.653
G1 X7.57 Y18.24 E749.696
G1 X7.25 Y18.82 E749.737
G1 X6.87 Y19.37 E749.779
G1 X6.45 Y19.88 E749.82
G1 X5.97 Y20.36 E749.863
G1 X5.45 Y20.79 E749.904
G1 X4.9 Y21.16 E749.946
G1 X4.32 Y21.49 E749.987
G1 X3.7 Y21.76 E750.03
G1 X3.07 Y21.97 E750.071
G1 X2.43 Y22.12 E750.112
G1 X1.75 Y22.22 E750.155
G1 X1.13 Y22.25 E750.193
G1 X1.08 Y22.25
G1 X0.42 Y22.22
G1 X-0.26 Y22.12
G1 X-0.9 Y21.97
G1 X-1.53 Y21.76
G1 X-1.83 Y21.63
G1 X1.51 Y21.83 F12000
; TYPE:FILL
G1 X0.45 Y21.83 E750.222 F2400
G1 X0.14 Y21.79 E750.23
G1 X-1.17 Y21.48 E750.267
G1 X-1.39 Y21.4 E750.273
G1 X-2.41 Y20.88 E750.299
G1 X-3.04 Y20.47 E750.318
G1 X-3.51 Y20.07 E750.332
G1 X-4.41 Y19.13 E750.371
G1 X-4.45 Y19.07 E750.373
G1 X-5.12 Y17.9 E750.407
G1 X-5.31 Y17.48 E750.418
G1 X-5.56 Y16.61 E750.439
G1 X-5.75 Y15.62 E750.465
G1 X-5.76 Y15.25 E750.475
G1 X-5.69 Y13.91 E750.513
G1 X-5.67 Y13.75 E750.517
G1 X-5.32 Y12.58 E750.546
G1 X-5.05 Y11.95 E750.562
G1 X-4.71 Y11.36 E750.579
G1 X-3.99 Y10.37 E750.614
G1 X-3.88 Y10.26 E750.618
G1 X-2.85 Y9.39 E750.653
G1 X-2.53 Y9.17 E750.662
G1 X-1.65 Y8.73 E750.684
G1 X-0.79 Y8.4 E750.705
G1 X-0.35 Y8.3 E750.717
G1 X0.98 Y8.13 E750.756
G1 X1.07 Y8.13 E750.758
G1 X2.35 Y8.27 E750.789
G1 X2.96 Y8.41 E750.804
G1 X3.66 Y8.66 E750.821
G1 X4.71 Y9.17 E750.853
G1 X4.89 Y9.29 E750.859
G1 X5.92 Y10.15 E750.895
G1 X6.15 Y10.38 E750.903
G1 X6.78 Y11.22 E750.927
G1 X7.23 Y11.95 E750.948
G1 X7.43 Y12.42 E750.961
G1 X7.82 Y13.75 E750.999
G1 X7.91 Y14.32 E751.014
G1 X7.94 Y14.99 E751.03
G1 X7.88 Y15.77 E751.048
G1 X7.68 Y16.89 E751.08
G1 X7.61 Y17.11 E751.086
G1 X7.07 Y18.34 E751.122
G1 X6.92 Y18.61 E751.129
G1 X6.27 Y19.46 E751.154
G1 X5.7 Y20.07 E751.174
G1 X5.28 Y20.41 E751.188
G1 X4.16 Y21.14 E751.22
G1 X4.13 Y21.16 E751.221
G1 X2.86 Y21.61 E751.254
G1 X2.34 Y21.74 E751.267
G1 X1.51 Y21.83 E751.286
G1 X2.14 Y21.66 F12000
G1 X5.95 Y24.62
G1 X9.75 Y27.01
G1 X10.2 Y28.53
G1 X11.73 Y28.41
G1 X12.92 Y29
; TYPE:WALL-OUTER
G1 Y30 E751.348 F1800
G1 E748.848 F6000
G1 Z4.7
G1 X10.82 F12000
G1 Z4.2
G1 E751.348 F6000
G1 Y29 E751.411 F1800
G1 X10.26 Y28.44 F12000
G1 X8.79 Y29
G1 Y30 E751.473 F1800
G1 E748.973 F6000
G1 Z4.7
G1 X-9.44 F12000
G1 Z4.2
G1 E751.473 F6000
G1 Y29 E751.536 F1800
G1 X-9.63 Y28.25 F12000
G1 X-7.45
G1 X-7.44 Y29
G1 Y30 E751.598 F1800
G1 E749.098 F6000
G1 Z4.7
G1 X-5.54 F12000
G1 Z4.2
G1 E751.598 F6000
G1 Y29 E751.66 F1800
G1 X-5.73 Y28.25 F12000
G1 X-3.98
G1 X-3.96 Y29
G1 Y30 E751.723 F1800
G1 E749.223 F6000
G1 Z4.7
G1 X0.71 F12000
G1 Z4.2
G1 E751.723 F6000
G1 Y29 E751.785 F1800
G1 E749.285 F6000
G1 Z4.7
G1 X-0.42 Y20 F12000
; TYPE:SUPPORT
G1 Z4.2
G1 E751.785 F6000
G1 X2.6 E751.974 F2400
G1 X5.68 Y17.5 F12000
G1 X1.09 E752.26 F2400
G1 X-3.49 E752.546
G1 X-4.14 Y15 F12000
G1 X-0.66 E752.762 F2400
G1 X2.82 E752.979
G1 X6.3 E753.196
G1 X5.68 Y12.5 F12000
G1 X1.09 E753.482 F2400
G1 X-3.49 E753.768
G1 X-0.4 Y10 F12000
G1 X2.63 E753.957 F2400
G1 E751.457 F6000
G1 Z4.7
G1 X3.52 Y5.76 F12000
G1 X4.9 Y6.32
G1 X5.02 Y7.5
G1 Z4.2
G1 E753.957 F6000
G1 X8.8 E754.193 F2400
G1 X12.58 E754.429
G1 X11.46 Y7.5 F12000
G1 X12.58 Y5
G1 X7.98 Y5 E754.716 F2400
G1 X3.38 E755.003
G1 X-1.21 E755.29
G1 X-5.81 E755.576
G1 X-10.41 E755.863
G1 X-9.29 F12000
G1 Y6.67
G1 X-10.41 Y7.5
G1 X-6.63 E756.099 F2400
G1 X-2.85 E756.335
G1 X-3.6 Y6.75 F12000
G1 X-6.45 Y9.13
G1 X-5.78 Y10
G1 X-10.41 E756.624 F2400
G1 X-9.29 F12000
G1 Y11.67
G1 X-10.41 Y12.5
G1 X-7.03 E756.835 F2400
G1 X-8.15 Y12.31 F12000
G1 X-8.51 Y15
G1 X-7.38
G1 X-10.41 E757.024 F2400
G1 X-9.29 F12000
G1 Y16.67
G1 X-10.41 Y17.5
G1 X-7.03 E757.235 F2400
G1 X-8.15 F12000
G1 X-7.27 Y19.54
G1 X-5.78 Y20
G1 X-10.41 E757.524 F2400
G1 X-9.29 F12000
G1 Y21.67
G1 X-10.41 Y22.5
G1 X-6.63 E757.76 F2400
G1 X-2.85 E757.996
G1 X-3.41 Y23.06 F12000
G1 X0.3 Y24.37
G1 X3.59 Y24.08
G1 X4.71 Y23.49
G1 X5.02 Y22.5
G1 X8.8 E758.232 F2400
G1 X12.58 E758.468
G1 X11.46 F12000
G1 X11.46
G1 Y25
G1 X12.58
G1 X7.98 E758.755 F2400
G1 X3.38 E759.041
G1 X-1.21 E759.328
G1 X-5.81 E759.615
G1 X-10.41 E759.902
G1 X-9.29 F12000
G1 X-3.39 Y23.36
G1 X7.95 Y20
G1 X12.58 E760.191 F2400
G1 X11.46 F12000
G1 X11.46
G1 Y17.5
G1 X12.58
G1 X9.2 E760.402 F2400
G1 X10.13 F12000
G1 X10.48 Y15.88
G1 X9.55 Y15
G1 X12.58 E760.592 F2400
G1 X11.46 F12000
G1 X12.58 Y12.5
G1 X9.2 E760.803 F2400
G1 X10.13 Y12.31 F12000
G1 X9.44 Y10.46
G1 X7.95 Y10
G1 X12.58 E761.092 F2400
G1 E758.592 F6000
G1 Z4.7
G1 X-1.34 Y11.85 F12000
G1 X-15.27 Y13.71
G1 X-16.05 Y15
G1 X-14.91
G1 Z4.2
G1 E761.092 F6000
G1 X-17.16 E761.232 F2400
G1 X-5.74 F12000
G1 X5.67
G1 X17.08
G1 X19.19 Y15 E761.363 F2400
; Layer Change GCode
; LAYER:14
; LAYER_HEIGHT:0.3
; TYPE:FILL
M400
M106 S216
G1 X18.5 Z4.5 F12000
G1 X8.58 Y15
G1 X7.84
G1 X6.68 Y18.67
G1 X4.23 Y20.97
G1 X0.83 Y21.49
; TYPE:WALL-OUTER
G1 X1.47 Y21.48 E761.403 F1800
G1 X2.12 Y21.41 E761.444
G1 X2.75 Y21.28 E761.484
G1 X3.37 Y21.08 E761.525
G1 X3.96 Y20.82 E761.565
G1 X4.53 Y20.51 E761.605
G1 X5.06 Y20.14 E761.646
G1 X5.55 Y19.72 E761.686
G1 X6 Y19.25 E761.726
G1 X6.4 Y18.74 E761.767
G1 X6.74 Y18.19 E761.807
G1 X7.03 Y17.61 E761.848
G1 X7.26 Y17.01 E761.888
G1 X7.43 Y16.38 E761.929
G1 X7.54 Y15.74 E761.969
G1 X7.58 Y15 E762.015
G1 X7.55 Y14.35 E762.056
G1 X7.47 Y13.8 E762.09
